;FLAVOR:Marlin
;TIME:1349
;Filament used: 0.404216m
;Layer height: 0.2
;MINX:49.551
;MINY:40.453
;MINZ:0.2
;MAXX:179.449
;MAXY:200.548
;MAXZ:9.6
;TARGET_MACHINE.NAME:Creality Ender-3
;Generated with Cura_SteamEngine 5.8.1
M140 S75
M105
M190 S75
M104 S220
M105
M109 S220
M82 ;absolute extrusion mode
; Ender 3 Custom Start G-code
G92 E0 ; Reset Extruder
G28 ; Home all axes
G1 Z2.0 F3000 ; Move Z Axis up little to prevent scratching of Heat Bed
G1 X0.1 Y20 Z0.3 F5000.0 ; Move to start position
G1 X0.1 Y200.0 Z0.3 F1500.0 E15 ; Draw the first line
G1 X0.4 Y200.0 Z0.3 F5000.0 ; Move to side a little
G1 X0.4 Y20 Z0.3 F1500.0 E30 ; Draw the second line
G92 E0 ; Reset Extruder
G1 Z2.0 F3000 ; Move Z Axis up little to prevent scratching of Heat Bed
G1 X5 Y20 Z0.3 F5000.0 ; Move over to prevent blob squish
G92 E0
G92 E0
G1 F2700 E-5
;LAYER_COUNT:23
;LAYER:0
M107
G0 F6000 X56.25 Y142.241 Z0.2
;TYPE:SKIRT
G1 F2700 E0
G1 F1200 X57.163 Y141.899 E0.03243
G1 X58.1 Y141.64 E0.06476
G1 X59.067 Y141.462 E0.09746
G1 X60.206 Y141.366 E0.13548
G1 X60.863 Y141.351 E0.15734
G1 X68.855 Y141.351 E0.42315
G1 X69.735 Y141.364 E0.45243
G1 X70.707 Y141.423 E0.48481
G1 X71.67 Y141.569 E0.51721
G1 X72.617 Y141.8 E0.54963
G1 X73.505 Y142.1 E0.58081
G1 X74.397 Y142.49 E0.61319
G1 X75.28 Y142.977 E0.64672
G1 X76.031 Y143.479 E0.67677
G1 X76.846 Y144.137 E0.71161
G1 X77.544 Y144.815 E0.74397
G1 X78.18 Y145.552 E0.77635
G1 X78.75 Y146.342 E0.80875
G1 X79.212 Y147.118 E0.83879
G1 X79.666 Y148.06 E0.87357
G1 X79.995 Y148.938 E0.90476
G1 X80.264 Y149.91 E0.9383
G1 X80.441 Y150.876 E0.97096
G1 X80.536 Y152.006 E1.00868
G1 X80.551 Y152.681 E1.03114
G1 X80.55 Y160.767 E1.30008
G1 X80.538 Y161.528 E1.32539
G1 X80.48 Y162.501 E1.35781
G1 X80.334 Y163.464 E1.39021
G1 X80.103 Y164.411 E1.42263
G1 X79.79 Y165.333 E1.45501
G1 X79.398 Y166.224 E1.48739
G1 X78.946 Y167.046 E1.51859
G1 X78.384 Y167.884 E1.55215
G1 X77.794 Y168.614 E1.58337
G1 X77.091 Y169.34 E1.61698
G1 X76.355 Y169.976 E1.64933
G1 X75.565 Y170.546 E1.68173
G1 X74.789 Y171.009 E1.71179
G1 X73.849 Y171.462 E1.74649
G1 X72.936 Y171.804 E1.77892
G1 X71.998 Y172.063 E1.81129
G1 X71.032 Y172.24 E1.84395
G1 X69.896 Y172.336 E1.88187
G1 X69.221 Y172.351 E1.90432
G1 X61.115 Y172.35 E2.17393
G1 X60.382 Y172.339 E2.19831
G1 X59.41 Y172.282 E2.2307
G1 X58.447 Y172.136 E2.26309
G1 X57.501 Y171.907 E2.29547
G1 X56.577 Y171.595 E2.3279
G1 X55.687 Y171.203 E2.36025
G1 X54.864 Y170.752 E2.39146
G1 X54.025 Y170.191 E2.42503
G1 X53.321 Y169.625 E2.45508
G1 X52.568 Y168.9 E2.48984
G1 X51.931 Y168.164 E2.52222
G1 X51.401 Y167.433 E2.55225
G1 X50.865 Y166.536 E2.587
G1 X50.443 Y165.658 E2.6194
G1 X50.101 Y164.746 E2.6518
G1 X49.841 Y163.808 E2.68417
G1 X49.663 Y162.839 E2.71694
G1 X49.565 Y161.66 E2.75629
G1 X49.551 Y161.009 E2.77795
G1 X49.552 Y152.876 E3.04845
G1 X49.563 Y152.176 E3.07174
G1 X49.621 Y151.203 E3.10416
G1 X49.767 Y150.24 E3.13655
G1 X49.997 Y149.294 E3.16893
G1 X50.31 Y148.371 E3.20135
G1 X50.702 Y147.481 E3.2337
G1 X51.172 Y146.628 E3.26609
G1 X51.715 Y145.82 E3.29847
G1 X52.282 Y145.116 E3.32853
G1 X53.007 Y144.364 E3.36327
G1 X53.743 Y143.727 E3.39565
G1 X54.475 Y143.197 E3.42571
G1 X55.372 Y142.662 E3.46045
G1 X56.25 Y142.241 E3.49283
G0 F6000 X56.391 Y142.615
G1 F1200 X57.27 Y142.284 E3.52407
G1 X58.173 Y142.033 E3.55524
G1 X59.101 Y141.861 E3.58663
G1 X60.24 Y141.765 E3.62465
G1 X60.872 Y141.751 E3.64568
G1 X68.849 Y141.751 E3.91099
G1 X69.711 Y141.763 E3.93967
G1 X70.648 Y141.819 E3.97089
G1 X71.576 Y141.958 E4.0021
G1 X72.489 Y142.179 E4.03334
G1 X73.345 Y142.467 E4.06338
G1 X74.237 Y142.857 E4.09576
G1 X75.058 Y143.31 E4.12695
G1 X75.809 Y143.812 E4.15699
G1 X76.568 Y144.424 E4.18942
G1 X77.242 Y145.077 E4.22063
G1 X77.856 Y145.786 E4.25183
G1 X78.406 Y146.547 E4.28306
G1 X78.868 Y147.323 E4.3131
G1 X79.291 Y148.2 E4.34548
G1 X79.62 Y149.078 E4.37667
G1 X79.871 Y149.983 E4.4079
G1 X80.042 Y150.91 E4.43925
G1 X80.137 Y152.04 E4.47697
G1 X80.151 Y152.681 E4.4983
G1 X80.15 Y160.761 E4.76704
G1 X80.139 Y161.505 E4.79179
G1 X80.084 Y162.442 E4.823
G1 X79.945 Y163.37 E4.85421
G1 X79.724 Y164.283 E4.88546
G1 X79.424 Y165.172 E4.91666
G1 X79.047 Y166.031 E4.94787
G1 X78.595 Y166.853 E4.97907
G1 X78.072 Y167.633 E5.0103
G1 X77.506 Y168.336 E5.04032
G1 X76.829 Y169.038 E5.07276
G1 X76.121 Y169.652 E5.10393
G1 X75.36 Y170.202 E5.13516
G1 X74.584 Y170.665 E5.16521
G1 X73.708 Y171.088 E5.19757
G1 X72.829 Y171.419 E5.22881
G1 X71.925 Y171.67 E5.26001
G1 X70.998 Y171.841 E5.29136
G1 X69.862 Y171.937 E5.32928
G1 X69.221 Y171.951 E5.35061
G1 X61.121 Y171.95 E5.62001
G1 X60.405 Y171.94 E5.64383
G1 X59.469 Y171.886 E5.67501
G1 X58.54 Y171.747 E5.70625
G1 X57.628 Y171.528 E5.73745
G1 X56.738 Y171.229 E5.76868
G1 X55.879 Y170.852 E5.79988
G1 X55.056 Y170.401 E5.83109
G1 X54.276 Y169.879 E5.86231
G1 X53.572 Y169.313 E5.89235
G1 X52.87 Y168.638 E5.92474
G1 X52.255 Y167.929 E5.95596
G1 X51.725 Y167.198 E5.98599
G1 X51.225 Y166.362 E6.01839
G1 X50.817 Y165.517 E6.0496
G1 X50.486 Y164.639 E6.08081
G1 X50.234 Y163.735 E6.11202
G1 X50.062 Y162.806 E6.14345
G1 X49.964 Y161.627 E6.1828
G1 X49.951 Y161.009 E6.20335
G1 X49.952 Y152.882 E6.47366
G1 X49.962 Y152.199 E6.49638
G1 X50.017 Y151.262 E6.5276
G1 X50.156 Y150.334 E6.55881
G1 X50.376 Y149.422 E6.59001
G1 X50.676 Y148.532 E6.62125
G1 X51.053 Y147.673 E6.65245
G1 X51.504 Y146.851 E6.68363
G1 X52.027 Y146.071 E6.71487
G1 X52.594 Y145.367 E6.74493
G1 X53.269 Y144.666 E6.7773
G1 X53.978 Y144.051 E6.80852
G1 X54.71 Y143.521 E6.83858
G1 X55.546 Y143.022 E6.87096
G1 X56.391 Y142.615 E6.90215
G0 F6000 X56.533 Y142.989
G1 F1200 X57.378 Y142.669 E6.93221
G1 X58.247 Y142.426 E6.96222
G1 X59.135 Y142.26 E6.99226
G1 X60.274 Y142.164 E7.03028
G1 X60.881 Y142.151 E7.05048
G1 X68.844 Y142.151 E7.31533
G1 X69.688 Y142.162 E7.3434
G1 X70.59 Y142.215 E7.37345
G1 X71.483 Y142.347 E7.40348
G1 X72.361 Y142.558 E7.43351
G1 X73.217 Y142.846 E7.46355
G1 X74.044 Y143.208 E7.49357
G1 X74.836 Y143.643 E7.52363
G1 X75.587 Y144.145 E7.55367
G1 X76.29 Y144.712 E7.58371
G1 X76.94 Y145.339 E7.61375
G1 X77.532 Y146.021 E7.64379
G1 X78.062 Y146.752 E7.67382
G1 X78.524 Y147.528 E7.70386
G1 X78.917 Y148.341 E7.73389
G1 X79.235 Y149.186 E7.76392
G1 X79.478 Y150.056 E7.79396
G1 X79.643 Y150.944 E7.824
G1 X79.738 Y152.074 E7.86172
G1 X79.751 Y152.681 E7.88191
G1 X79.75 Y160.755 E8.15046
G1 X79.74 Y161.482 E8.17464
G1 X79.688 Y162.384 E8.20469
G1 X79.556 Y163.277 E8.23471
G1 X79.345 Y164.156 E8.26478
G1 X79.058 Y165.012 E8.29481
G1 X78.696 Y165.839 E8.32483
G1 X78.262 Y166.631 E8.35487
G1 X77.76 Y167.382 E8.38492
G1 X77.194 Y168.085 E8.41494
G1 X76.567 Y168.736 E8.445
G1 X75.886 Y169.328 E8.47501
G1 X75.155 Y169.858 E8.50504
G1 X74.379 Y170.321 E8.5351
G1 X73.566 Y170.714 E8.56513
G1 X72.721 Y171.034 E8.59518
G1 X71.852 Y171.277 E8.62519
G1 X70.964 Y171.442 E8.65523
G1 X69.828 Y171.538 E8.69315
G1 X69.221 Y171.551 E8.71335
G1 X61.126 Y171.55 E8.98259
G1 X60.428 Y171.541 E9.0058
G1 X59.527 Y171.49 E9.03582
G1 X58.633 Y171.358 E9.06588
G1 X57.755 Y171.149 E9.09589
G1 X56.898 Y170.862 E9.12595
G1 X56.071 Y170.501 E9.15597
G1 X55.278 Y170.068 E9.18602
G1 X54.527 Y169.567 E9.21604
G1 X53.823 Y169.001 E9.24609
G1 X53.172 Y168.375 E9.27613
G1 X52.579 Y167.694 E9.30616
G1 X52.049 Y166.963 E9.33619
G1 X51.585 Y166.188 E9.36624
G1 X51.191 Y165.375 E9.39628
G1 X50.871 Y164.531 E9.42631
G1 X50.627 Y163.661 E9.45636
G1 X50.461 Y162.773 E9.48641
G1 X50.364 Y161.618 E9.52496
G1 X50.351 Y161.009 E9.54522
G1 X50.352 Y152.887 E9.81536
G1 X50.361 Y152.222 E9.83748
G1 X50.413 Y151.32 E9.86753
G1 X50.545 Y150.427 E9.89755
G1 X50.755 Y149.549 E9.92758
G1 X51.042 Y148.692 E9.95764
G1 X51.404 Y147.865 E9.98766
G1 X51.837 Y147.073 E10.01768
G1 X52.339 Y146.322 E10.04773
G1 X52.906 Y145.618 E10.07779
G1 X53.532 Y144.968 E10.10781
G1 X54.213 Y144.375 E10.13784
G1 X54.945 Y143.845 E10.1679
G1 X55.72 Y143.382 E10.19793
G1 X56.533 Y142.989 E10.22796
G1 F2700 E5.22796
;MESH:holder2.stl
G0 F6000 X60.965 Y151.686
G0 X67.666 Y160.748
;TYPE:WALL-INNER
G1 F2700 E10.22796
G1 F1200 X68.948 Y160.748 E10.2706
G1 X68.948 Y158.049 E10.36037
G1 X66.268 Y158.052 E10.44951
G1 X66.059 Y158.246 E10.45899
G1 X65.691 Y158.46 E10.47315
G1 X65.102 Y158.581 E10.49315
G1 X64.622 Y158.527 E10.50921
G1 X64.127 Y158.319 E10.52707
G1 X63.693 Y157.928 E10.5465
G1 X63.45 Y157.527 E10.5621
G1 X63.373 Y157.32 E10.56944
G1 X63.324 Y156.734 E10.589
G1 X63.404 Y156.317 E10.60312
G1 X63.593 Y155.915 E10.6179
G1 X63.967 Y155.493 E10.63665
G1 X64.411 Y155.235 E10.65373
G1 X65 Y155.119 E10.6737
G1 X65.471 Y155.172 E10.68946
G1 X65.948 Y155.37 E10.70664
G1 X66.182 Y155.551 E10.71648
G1 X66.28 Y155.648 E10.72107
G1 X68.948 Y155.648 E10.8098
G1 X68.948 Y152.948 E10.89961
G1 X61.148 Y152.948 E11.15904
G1 X61.148 Y160.748 E11.41847
G1 X67.666 Y160.748 E11.63525
G0 F6000 X67.935 Y161.148
;TYPE:WALL-OUTER
G1 F1200 X69.348 Y161.148 E11.68225
G1 X69.348 Y157.649 E11.79863
G1 X66.09 Y157.652 E11.90699
G1 X65.874 Y157.892 E11.91773
G1 X65.548 Y158.081 E11.93026
G1 X65.069 Y158.179 E11.94652
G1 X64.723 Y158.136 E11.95812
G1 X64.342 Y157.975 E11.97188
G1 X64.003 Y157.669 E11.98707
G1 X63.77 Y157.283 E12.00206
G1 X63.726 Y156.764 E12.01939
G1 X63.798 Y156.419 E12.03111
G1 X63.93 Y156.138 E12.04143
G1 X64.225 Y155.805 E12.05623
G1 X64.555 Y155.614 E12.06891
G1 X65.032 Y155.521 E12.08508
G1 X65.346 Y155.561 E12.09561
G1 X65.752 Y155.722 E12.11013
G1 X65.966 Y155.895 E12.11928
G1 X66.094 Y156.048 E12.12592
G1 X69.348 Y156.048 E12.23415
G1 X69.348 Y152.548 E12.35056
G1 X60.748 Y152.548 E12.6366
G1 X60.748 Y161.148 E12.92263
G1 X67.935 Y161.148 E13.16167
G0 F6000 X67.425 Y160.388
;TYPE:SKIN
G1 F1200 X61.508 Y160.388 E13.35847
G1 X61.508 Y153.308 E13.59395
G1 X68.588 Y153.308 E13.82944
G1 X68.588 Y155.288 E13.89529
G1 X66.43 Y155.288 E13.96707
G1 X66.131 Y155.054 E13.9797
G1 X65.566 Y154.821 E14.00002
G1 X64.981 Y154.754 E14.01961
G1 X64.441 Y154.859 E14.0379
G1 X64.142 Y154.971 E14.04852
G1 X63.734 Y155.211 E14.06427
G1 X63.286 Y155.713 E14.08665
G1 X63.051 Y156.227 E14.10544
G1 X62.964 Y156.736 E14.12262
G1 X63.014 Y157.383 E14.1442
G1 X63.125 Y157.68 E14.15475
G1 X63.408 Y158.158 E14.17322
G1 X63.805 Y158.517 E14.19103
G1 X64.052 Y158.677 E14.20081
G1 X64.525 Y158.876 E14.21788
G1 X65.12 Y158.943 E14.2378
G1 X65.657 Y158.832 E14.25603
G1 X65.956 Y158.718 E14.26668
G1 X66.236 Y158.558 E14.2774
G1 X66.414 Y158.412 E14.28506
G1 X68.588 Y158.409 E14.35737
G1 X68.588 Y160.388 E14.42319
G1 X67.425 Y160.388 E14.46187
G0 F6000 X67.425 Y160.648
G0 X62.324 Y160.648
G0 X62.324 Y160.188
G1 F1200 X61.708 Y159.571 E14.49087
G0 F6000 X61.708 Y159.006
G1 F1200 X62.89 Y160.188 E14.54647
G0 F6000 X63.456 Y160.188
G1 F1200 X61.708 Y158.44 E14.62869
G0 F6000 X61.708 Y157.874
G1 F1200 X64.021 Y160.188 E14.73751
G0 F6000 X64.587 Y160.188
G1 F1200 X61.708 Y157.309 E14.87293
G0 F6000 X61.708 Y156.743
G1 F1200 X65.153 Y160.188 E15.03497
G0 F6000 X65.719 Y160.188
G1 F1200 X64.618 Y159.088 E15.08673
G0 F6000 X65.223 Y159.127
G1 F1200 X66.284 Y160.188 E15.13664
G0 F6000 X66.85 Y160.188
G1 F1200 X65.692 Y159.03 E15.19111
G0 F6000 X66.094 Y158.866
G1 F1200 X67.416 Y160.188 E15.25329
G0 F6000 X67.981 Y160.188
G1 F1200 X66.442 Y158.649 E15.32568
G0 F6000 X66.97 Y158.611
G1 F1200 X68.389 Y160.03 E15.39243
G0 F6000 X68.389 Y159.464
G1 F1200 X67.535 Y158.61 E15.4326
G0 F6000 X68.1 Y158.61
G1 F1200 X68.389 Y158.898 E15.44617
G0 F6000 X68.848 Y158.898
G0 X68.776 Y158.221
G0 X66.028 Y158.081
G0 X65.63 Y158.31
G0 X65.077 Y158.42
G0 X64.666 Y158.372
G0 X64.216 Y158.18
G0 X63.82 Y157.824
G0 X63.538 Y157.356
G0 X63.486 Y156.757
G0 X63.56 Y156.366
G0 X63.731 Y156.002
G0 X64.074 Y155.621
G0 X64.472 Y155.392
G0 X65.025 Y155.282
G0 X65.881 Y155.432
G0 X67.973 Y155.548
G0 X67.972 Y155.088
G1 F1200 X66.392 Y153.508 E15.52049
G0 F6000 X65.827 Y153.508
G1 F1200 X67.406 Y155.088 E15.59478
G0 F6000 X66.841 Y155.088
G1 F1200 X65.261 Y153.508 E15.6691
G0 F6000 X64.695 Y153.508
G1 F1200 X65.949 Y154.762 E15.72808
G0 F6000 X65.2 Y154.578
G1 F1200 X64.13 Y153.508 E15.77841
G0 F6000 X63.564 Y153.508
G1 F1200 X64.666 Y154.61 E15.83025
G0 F6000 X64.218 Y154.728
G1 F1200 X62.998 Y153.508 E15.88763
G0 F6000 X62.433 Y153.508
G1 F1200 X63.843 Y154.919 E15.95398
G0 F6000 X63.516 Y155.157
G1 F1200 X61.867 Y153.508 E16.03154
G0 F6000 X61.708 Y153.915
G1 F1200 X63.249 Y155.456 E16.10403
G0 F6000 X63.026 Y155.798
G1 F1200 X61.708 Y154.48 E16.16602
G0 F6000 X61.708 Y155.046
G1 F1200 X62.854 Y156.192 E16.21992
G0 F6000 X62.766 Y156.67
G1 F1200 X61.708 Y155.612 E16.26969
G0 F6000 X61.708 Y156.177
G1 F1200 X62.807 Y157.276 E16.32138
G0 F6000 X63.41 Y157.656
G0 X63.56 Y156.366
G0 X63.731 Y156.002
G0 X64.074 Y155.621
G0 X64.472 Y155.392
G0 X65.515 Y155.015
G0 X66.364 Y155.485
G0 X68.776 Y155.476
G0 X68.776 Y153.12
G0 X66.958 Y153.048
G0 X66.958 Y153.508
G1 F1200 X68.388 Y154.938 E16.38865
G0 F6000 X68.388 Y154.372
G1 F1200 X67.524 Y153.508 E16.42929
G0 F6000 X68.089 Y153.508
G1 F1200 X68.388 Y153.806 E16.44333
G1 F2700 E11.44333
;MESH:NONMESH
G0 F300 X68.388 Y153.806 Z0.4
G0 F6000 X68.848 Y153.806
G0 X68.776 Y153.12
G0 X60.965 Y152.765
G0 X60.965 Y151.686
G0 X56.533 Y142.989
;TIME_ELAPSED:34.776820
;LAYER:1
M106 S85
;TYPE:SKIRT
G1 F2700 E16.44333
G1 F1200 X57.378 Y142.669 E16.47338
G1 X58.247 Y142.426 E16.50339
G1 X59.135 Y142.26 E16.53344
G1 X60.274 Y142.164 E16.57145
G1 X60.881 Y142.151 E16.59165
G1 X68.844 Y142.151 E16.8565
G1 X69.688 Y142.162 E16.88457
G1 X70.59 Y142.215 E16.91463
G1 X71.483 Y142.347 E16.94465
G1 X72.361 Y142.558 E16.97468
G1 X73.217 Y142.846 E17.00472
G1 X74.044 Y143.208 E17.03475
G1 X74.836 Y143.643 E17.0648
G1 X75.587 Y144.145 E17.09485
G1 X76.29 Y144.712 E17.12489
G1 X76.94 Y145.339 E17.15492
G1 X77.532 Y146.021 E17.18496
G1 X78.062 Y146.752 E17.21499
G1 X78.524 Y147.528 E17.24503
G1 X78.917 Y148.341 E17.27506
G1 X79.235 Y149.186 E17.30509
G1 X79.478 Y150.056 E17.33514
G1 X79.643 Y150.944 E17.36518
G1 X79.738 Y152.074 E17.40289
G1 X79.751 Y152.681 E17.42309
G1 X79.75 Y160.755 E17.69163
G1 X79.74 Y161.482 E17.71581
G1 X79.688 Y162.384 E17.74586
G1 X79.556 Y163.277 E17.77589
G1 X79.345 Y164.156 E17.80595
G1 X79.058 Y165.012 E17.83598
G1 X78.696 Y165.839 E17.86601
G1 X78.262 Y166.631 E17.89604
G1 X77.76 Y167.382 E17.92609
G1 X77.194 Y168.085 E17.95611
G1 X76.567 Y168.736 E17.98617
G1 X75.886 Y169.328 E18.01618
G1 X75.155 Y169.858 E18.04621
G1 X74.379 Y170.321 E18.07627
G1 X73.566 Y170.714 E18.1063
G1 X72.721 Y171.034 E18.13635
G1 X71.852 Y171.277 E18.16637
G1 X70.964 Y171.442 E18.19641
G1 X69.828 Y171.538 E18.23433
G1 X69.221 Y171.551 E18.25452
G1 X61.126 Y171.55 E18.52376
G1 X60.428 Y171.541 E18.54698
G1 X59.527 Y171.49 E18.57699
G1 X58.633 Y171.358 E18.60705
G1 X57.755 Y171.149 E18.63707
G1 X56.898 Y170.862 E18.66713
G1 X56.071 Y170.501 E18.69714
G1 X55.278 Y170.068 E18.72719
G1 X54.527 Y169.567 E18.75722
G1 X53.823 Y169.001 E18.78726
G1 X53.172 Y168.375 E18.8173
G1 X52.579 Y167.694 E18.84733
G1 X52.049 Y166.963 E18.87737
G1 X51.585 Y166.188 E18.90741
G1 X51.191 Y165.375 E18.93746
G1 X50.871 Y164.531 E18.96748
G1 X50.627 Y163.661 E18.99753
G1 X50.461 Y162.773 E19.02758
G1 X50.364 Y161.618 E19.06613
G1 X50.351 Y161.009 E19.08639
G1 X50.352 Y152.887 E19.35653
G1 X50.361 Y152.222 E19.37865
G1 X50.413 Y151.32 E19.4087
G1 X50.545 Y150.427 E19.43872
G1 X50.755 Y149.549 E19.46875
G1 X51.042 Y148.692 E19.49881
G1 X51.404 Y147.865 E19.52883
G1 X51.837 Y147.073 E19.55886
G1 X52.339 Y146.322 E19.5889
G1 X52.906 Y145.618 E19.61897
G1 X53.532 Y144.968 E19.64898
G1 X54.213 Y144.375 E19.67901
G1 X54.945 Y143.845 E19.70907
G1 X55.72 Y143.382 E19.7391
G1 X56.533 Y142.989 E19.76913
G1 F2700 E14.76913
;MESH:holder2.stl
G0 F7500 X60.965 Y151.686
G0 X67.666 Y160.748
;TYPE:WALL-INNER
G1 F2700 E19.76913
G1 F1350 X68.948 Y160.748 E19.81177
G1 X68.948 Y158.049 E19.90154
G1 X66.275 Y158.052 E19.99045
G1 X66.061 Y158.265 E20.00049
G1 X65.583 Y158.499 E20.01819
G1 X65.136 Y158.566 E20.03322
G1 X64.732 Y158.553 E20.04667
G1 X64.286 Y158.409 E20.06226
G1 X63.762 Y158.007 E20.08422
G1 X63.491 Y157.602 E20.10043
G1 X63.361 Y157.208 E20.11423
