;FLAVOR:Marlin
;TIME:25163
;Filament used: 17.1635m
;Layer height: 0.2
;MINX:26.512
;MINY:26.512
;MINZ:0.2
;MAXX:208.488
;MAXY:208.487
;MAXZ:4
;TARGET_MACHINE.NAME:Creality Ender-3
;Generated with Cura_SteamEngine 5.8.1
M140 S75
M105
M190 S75
M104 S220
M105
M109 S220
M82 ;absolute extrusion mode
; Ender 3 Custom Start G-code
G92 E0 ; Reset Extruder
G28 ; Home all axes
G1 Z2.0 F3000 ; Move Z Axis up little to prevent scratching of Heat Bed
G1 X0.1 Y20 Z0.3 F5000.0 ; Move to start position
G1 X0.1 Y200.0 Z0.3 F1500.0 E15 ; Draw the first line
G1 X0.4 Y200.0 Z0.3 F5000.0 ; Move to side a little
G1 X0.4 Y20 Z0.3 F1500.0 E30 ; Draw the second line
G92 E0 ; Reset Extruder
G1 Z2.0 F3000 ; Move Z Axis up little to prevent scratching of Heat Bed
G1 X5 Y20 Z0.3 F5000.0 ; Move over to prevent blob squish
G92 E0
G92 E0
G1 F2700 E-5
;LAYER_COUNT:20
;LAYER:0
M107
G0 F6000 X52.457 Y53.869 Z0.2
;TYPE:SKIRT
G1 F2700 E0
G1 F600 X53.878 Y52.448 E0.06684
G1 X54.53 Y51.815 E0.09706
G1 X55.795 Y50.628 E0.15476
G1 X56.745 Y49.765 E0.19745
G1 X58.033 Y48.63 E0.25455
G1 X58.895 Y47.894 E0.29225
G1 X60.246 Y46.781 E0.35047
G1 X60.962 Y46.206 E0.38101
G1 X62.521 Y44.997 E0.44663
G1 X63.385 Y44.351 E0.48251
G1 X64.63 Y43.444 E0.53374
G1 X65.719 Y42.68 E0.57798
G1 X67.124 Y41.727 E0.63445
G1 X68.097 Y41.088 E0.67317
G1 X69.437 Y40.239 E0.72593
G1 X70.513 Y39.579 E0.76791
G1 X71.856 Y38.785 E0.8198
G1 X72.856 Y38.212 E0.85814
G1 X74.487 Y37.318 E0.92
G1 X75.356 Y36.857 E0.95272
G1 X77.027 Y36.006 E1.01509
G1 X77.925 Y35.566 E1.04835
G1 X79.62 Y34.769 E1.11064
G1 X80.662 Y34.3 E1.14865
G1 X82.223 Y33.626 E1.2052
G1 X83.096 Y33.263 E1.23665
G1 X84.77 Y32.6 E1.29653
G1 X85.796 Y32.212 E1.33302
G1 X87.593 Y31.565 E1.39654
G1 X88.484 Y31.26 E1.42786
G1 X90.289 Y30.674 E1.49098
G1 X91.377 Y30.34 E1.52884
G1 X93.022 Y29.863 E1.5858
G1 X94.107 Y29.568 E1.6232
G1 X95.638 Y29.174 E1.67578
G1 X96.885 Y28.876 E1.71843
G1 X98.586 Y28.495 E1.7764
G1 X99.5 Y28.306 E1.80745
G1 X101.248 Y27.972 E1.86664
G1 X102.52 Y27.751 E1.90958
G1 X104.189 Y27.487 E1.96578
G1 X105.165 Y27.348 E1.99857
G1 X107.043 Y27.111 E2.06153
G1 X108.136 Y26.992 E2.09809
G1 X109.755 Y26.838 E2.15218
G1 X110.982 Y26.743 E2.19312
G1 X112.578 Y26.641 E2.24631
G1 X113.837 Y26.582 E2.28823
G1 X115.63 Y26.527 E2.34789
G1 X116.574 Y26.513 E2.37929
G1 X118.285 Y26.512 E2.4362
G1 X119.554 Y26.531 E2.47841
G1 X121.177 Y26.582 E2.53242
G1 X122.434 Y26.643 E2.57428
G1 X124.029 Y26.743 E2.62743
G1 X125.259 Y26.84 E2.66847
G1 X127.04 Y27.009 E2.72797
G1 X127.97 Y27.113 E2.7591
G1 X129.845 Y27.35 E2.82196
G1 X130.822 Y27.489 E2.85478
G1 X132.494 Y27.753 E2.91108
G1 X133.763 Y27.974 E2.95392
G1 X135.51 Y28.308 E3.01308
G1 X136.582 Y28.533 E3.04951
G1 X138.281 Y28.913 E3.10741
G1 X139.376 Y29.178 E3.14489
G1 X140.906 Y29.57 E3.19742
G1 X142.138 Y29.909 E3.23992
G1 X143.637 Y30.344 E3.29183
G1 X144.882 Y30.727 E3.33516
G1 X146.38 Y31.214 E3.38755
G1 X147.418 Y31.569 E3.42403
G1 X149.208 Y32.213 E3.4873
G1 X150.083 Y32.542 E3.5184
G1 X151.922 Y33.271 E3.58419
G1 X152.792 Y33.632 E3.61552
G1 X154.504 Y34.374 E3.67758
G1 X155.531 Y34.839 E3.71508
G1 X157.082 Y35.57 E3.77211
G1 X157.979 Y36.009 E3.80532
G1 X159.651 Y36.859 E3.86771
G1 X160.521 Y37.32 E3.90045
G1 X162.157 Y38.22 E3.96256
G1 X163.154 Y38.791 E4.00077
G1 X164.497 Y39.585 E4.05266
G1 X165.447 Y40.167 E4.08972
G1 X166.914 Y41.096 E4.14747
G1 X168.017 Y41.82 E4.19135
G1 X169.292 Y42.688 E4.24265
G1 X170.376 Y43.449 E4.28671
G1 X171.621 Y44.354 E4.3379
G1 X172.623 Y45.107 E4.37959
G1 X174.041 Y46.209 E4.43932
G1 X174.872 Y46.876 E4.47476
G1 X176.253 Y48.018 E4.53436
G1 X176.982 Y48.643 E4.5663
G1 X178.265 Y49.773 E4.62316
G1 X179.214 Y50.635 E4.6658
G1 X180.359 Y51.711 E4.71806
G1 X181.131 Y52.457 E4.75377
G1 X182.552 Y53.878 E4.82061
G1 X183.185 Y54.53 E4.85083
G1 X184.372 Y55.795 E4.90853
G1 X185.235 Y56.745 E4.95122
G1 X186.37 Y58.033 E5.00832
G1 X187.106 Y58.895 E5.04602
G1 X188.219 Y60.246 E5.10424
G1 X188.794 Y60.962 E5.13478
G1 X190.003 Y62.521 E5.2004
G1 X190.649 Y63.385 E5.23628
G1 X191.556 Y64.63 E5.28751
G1 X192.32 Y65.719 E5.33175
G1 X193.273 Y67.124 E5.38822
G1 X193.912 Y68.097 E5.42694
G1 X194.761 Y69.437 E5.4797
G1 X195.421 Y70.513 E5.52168
G1 X196.215 Y71.856 E5.57357
G1 X196.788 Y72.856 E5.61191
G1 X197.682 Y74.487 E5.67377
G1 X198.143 Y75.356 E5.70649
G1 X198.994 Y77.027 E5.76886
G1 X199.504 Y78.071 E5.8075
G1 X200.233 Y79.622 E5.8645
G1 X200.634 Y80.512 E5.89697
G1 X201.374 Y82.223 E5.95897
G1 X201.737 Y83.096 E5.99042
G1 X202.4 Y84.77 E6.0503
G1 X202.788 Y85.796 E6.08679
G1 X203.437 Y87.594 E6.15037
G1 X203.789 Y88.63 E6.18676
G1 X204.277 Y90.131 E6.23925
G1 X204.66 Y91.377 E6.28261
G1 X205.137 Y93.021 E6.33955
G1 X205.391 Y93.952 E6.37164
G1 X205.866 Y95.799 E6.43507
G1 X206.089 Y96.733 E6.46701
G1 X206.505 Y98.586 E6.53018
G1 X206.694 Y99.5 E6.56122
G1 X207.028 Y101.248 E6.62041
G1 X207.249 Y102.52 E6.66335
G1 X207.513 Y104.189 E6.71955
G1 X207.652 Y105.165 E6.75234
G1 X207.889 Y107.043 E6.8153
G1 X208.008 Y108.136 E6.85187
G1 X208.162 Y109.755 E6.90596
G1 X208.257 Y110.982 E6.94689
G1 X208.368 Y112.736 E7.00535
G1 X208.412 Y113.675 E7.03661
G1 X208.473 Y115.634 E7.1018
G1 X208.488 Y116.726 E7.13812
G1 X208.488 Y118.415 E7.1943
G1 X208.473 Y119.396 E7.22693
G1 X208.418 Y121.204 E7.28709
G1 X208.359 Y122.401 E7.32695
G1 X208.268 Y123.886 E7.37644
G1 X208.162 Y125.226 E7.42115
G1 X208.001 Y126.943 E7.4785
G1 X207.873 Y128.09 E7.51689
G1 X207.685 Y129.587 E7.56707
G1 X207.504 Y130.862 E7.6099
G1 X207.246 Y132.495 E7.66489
G1 X207.03 Y133.739 E7.70689
G1 X206.691 Y135.512 E7.76692
G1 X206.467 Y136.582 E7.80328
G1 X206.087 Y138.281 E7.86119
G1 X205.822 Y139.376 E7.89866
G1 X205.43 Y140.906 E7.95119
G1 X205.091 Y142.14 E7.99376
G1 X204.61 Y143.791 E8.05095
G1 X204.325 Y144.717 E8.08318
G1 X203.736 Y146.526 E8.14645
G1 X203.431 Y147.418 E8.17781
G1 X202.787 Y149.208 E8.24108
G1 X202.458 Y150.083 E8.27217
G1 X201.729 Y151.922 E8.33797
G1 X201.368 Y152.792 E8.36929
G1 X200.626 Y154.504 E8.43135
G1 X200.161 Y155.531 E8.46885
G1 X199.43 Y157.082 E8.52588
G1 X198.991 Y157.979 E8.55909
G1 X198.141 Y159.651 E8.62148
G1 X197.68 Y160.521 E8.65423
G1 X196.779 Y162.159 E8.7164
G1 X196.209 Y163.154 E8.75454
G1 X195.415 Y164.497 E8.80644
G1 X194.833 Y165.447 E8.84349
G1 X193.904 Y166.914 E8.90124
G1 X193.18 Y168.017 E8.94513
G1 X192.312 Y169.292 E8.99643
G1 X191.551 Y170.376 E9.04048
G1 X190.646 Y171.621 E9.09167
G1 X189.893 Y172.623 E9.13336
G1 X188.791 Y174.041 E9.19309
G1 X188.124 Y174.872 E9.22853
G1 X186.982 Y176.253 E9.28814
G1 X186.357 Y176.982 E9.32007
G1 X185.227 Y178.265 E9.37694
G1 X184.365 Y179.214 E9.41958
G1 X183.29 Y180.359 E9.47181
G1 X182.548 Y181.126 E9.50731
G1 X181.132 Y182.54 E9.57387
G1 X180.352 Y183.297 E9.61002
G1 X179.205 Y184.372 E9.6623
G1 X178.255 Y185.235 E9.70499
G1 X176.967 Y186.37 E9.76209
G1 X176.105 Y187.106 E9.79979
G1 X174.754 Y188.219 E9.85801
G1 X174.038 Y188.794 E9.88855
G1 X172.479 Y190.003 E9.95417
G1 X171.615 Y190.649 E9.99005
G1 X170.37 Y191.556 E10.04128
G1 X169.281 Y192.32 E10.08553
G1 X167.876 Y193.273 E10.14199
G1 X166.903 Y193.912 E10.18071
G1 X165.563 Y194.761 E10.23347
G1 X164.487 Y195.421 E10.27546
G1 X163.144 Y196.215 E10.32735
G1 X162.144 Y196.788 E10.36568
G1 X160.513 Y197.682 E10.42754
G1 X159.644 Y198.143 E10.46026
G1 X157.973 Y198.994 E10.52263
G1 X157.075 Y199.434 E10.55589
G1 X155.38 Y200.231 E10.61819
G1 X154.338 Y200.7 E10.65619
G1 X152.777 Y201.374 E10.71275
G1 X151.904 Y201.737 E10.74419
G1 X150.23 Y202.4 E10.80408
G1 X149.204 Y202.788 E10.84056
G1 X147.407 Y203.435 E10.90408
G1 X146.516 Y203.74 E10.93541
G1 X144.711 Y204.326 E10.99853
G1 X143.623 Y204.66 E11.03638
G1 X141.978 Y205.137 E11.09335
G1 X140.893 Y205.432 E11.13074
G1 X139.362 Y205.826 E11.18333
G1 X138.115 Y206.124 E11.22597
G1 X136.414 Y206.505 E11.28395
G1 X135.5 Y206.694 E11.31499
G1 X133.752 Y207.028 E11.37418
G1 X132.48 Y207.249 E11.41712
G1 X130.811 Y207.513 E11.47332
G1 X129.835 Y207.652 E11.50611
G1 X127.957 Y207.889 E11.56907
G1 X126.864 Y208.008 E11.60564
G1 X125.245 Y208.162 E11.65973
G1 X124.018 Y208.257 E11.70066
G1 X122.422 Y208.359 E11.75385
G1 X121.163 Y208.418 E11.79577
G1 X119.373 Y208.472 E11.85533
G1 X118.438 Y208.487 E11.88644
G1 X116.561 Y208.487 E11.94887
G1 X115.446 Y208.469 E11.98596
G1 X113.823 Y208.418 E12.03996
G1 X112.566 Y208.357 E12.08182
G1 X110.971 Y208.257 E12.13498
G1 X109.741 Y208.16 E12.17601
G1 X107.96 Y207.991 E12.23551
G1 X107.03 Y207.887 E12.26664
G1 X105.155 Y207.65 E12.3295
G1 X104.178 Y207.511 E12.36232
G1 X102.506 Y207.247 E12.41862
G1 X101.237 Y207.026 E12.46146
G1 X99.49 Y206.692 E12.52062
G1 X98.418 Y206.467 E12.55705
G1 X96.719 Y206.087 E12.61496
G1 X95.624 Y205.822 E12.65243
G1 X94.094 Y205.43 E12.70496
G1 X92.862 Y205.091 E12.74746
G1 X91.363 Y204.656 E12.79937
G1 X90.118 Y204.273 E12.8427
G1 X88.62 Y203.786 E12.89509
G1 X87.582 Y203.431 E12.93158
G1 X85.792 Y202.787 E12.99485
G1 X84.917 Y202.458 E13.02594
G1 X83.078 Y201.729 E13.09174
G1 X82.208 Y201.368 E13.12306
G1 X80.496 Y200.626 E13.18512
G1 X79.469 Y200.161 E13.22262
G1 X77.918 Y199.43 E13.27965
G1 X77.021 Y198.991 E13.31286
G1 X75.349 Y198.141 E13.37525
G1 X74.479 Y197.68 E13.408
G1 X72.843 Y196.78 E13.4701
G1 X71.846 Y196.209 E13.50831
G1 X70.503 Y195.415 E13.5602
G1 X69.553 Y194.833 E13.59726
G1 X68.086 Y193.904 E13.65501
G1 X66.983 Y193.18 E13.6989
G1 X65.708 Y192.312 E13.7502
G1 X64.623 Y191.55 E13.7943
G1 X63.377 Y190.644 E13.84553
G1 X62.377 Y189.893 E13.88713
G1 X60.959 Y188.791 E13.94686
G1 X60.243 Y188.217 E13.97738
G1 X58.747 Y186.981 E14.04193
G1 X57.899 Y186.255 E14.07905
G1 X56.735 Y185.227 E14.13071
G1 X55.786 Y184.365 E14.17335
G1 X54.64 Y183.288 E14.22565
G1 X53.863 Y182.537 E14.2616
G1 X52.448 Y181.122 E14.32815
G1 X51.815 Y180.47 E14.35838
G1 X50.627 Y179.204 E14.41612
G1 X49.765 Y178.255 E14.45876
G1 X48.63 Y176.967 E14.51586
G1 X47.894 Y176.105 E14.55356
G1 X46.781 Y174.754 E14.61178
G1 X46.206 Y174.038 E14.64232
G1 X44.997 Y172.479 E14.70794
G1 X44.351 Y171.615 E14.74382
G1 X43.444 Y170.37 E14.79505
G1 X42.68 Y169.282 E14.83927
G1 X41.725 Y167.875 E14.89583
G1 X41.089 Y166.904 E14.93444
G1 X40.155 Y165.429 E14.9925
G1 X39.579 Y164.487 E15.02923
G1 X38.785 Y163.144 E15.08112
G1 X38.212 Y162.145 E15.11942
G1 X37.313 Y160.509 E15.18151
G1 X36.856 Y159.645 E15.21402
G1 X36.006 Y157.973 E15.2764
G1 X35.566 Y157.075 E15.30966
G1 X34.769 Y155.38 E15.37196
G1 X34.3 Y154.338 E15.40997
G1 X33.626 Y152.777 E15.46652
G1 X33.263 Y151.904 E15.49796
G1 X32.6 Y150.23 E15.55785
G1 X32.212 Y149.204 E15.59433
G1 X31.563 Y147.406 E15.65791
G1 X31.21 Y146.367 E15.69441
G1 X30.72 Y144.859 E15.74715
G1 X30.34 Y143.623 E15.79016
G1 X29.863 Y141.978 E15.84712
G1 X29.568 Y140.893 E15.88452
G1 X29.174 Y139.362 E15.9371
G1 X28.876 Y138.115 E15.97974
G1 X28.495 Y136.414 E16.03772
G1 X28.306 Y135.5 E16.06876
G1 X27.972 Y133.752 E16.12795
G1 X27.751 Y132.48 E16.17089
G1 X27.487 Y130.811 E16.2271
G1 X27.348 Y129.835 E16.25989
G1 X27.111 Y127.957 E16.32284
G1 X26.992 Y126.864 E16.35941
G1 X26.838 Y125.245 E16.4135
G1 X26.743 Y124.018 E16.45443
G1 X26.641 Y122.422 E16.50763
G1 X26.582 Y121.163 E16.54955
G1 X26.527 Y119.366 E16.60934
G1 X26.512 Y118.274 E16.64567
G1 X26.512 Y116.585 E16.70184
G1 X26.527 Y115.604 E16.73448
G1 X26.582 Y113.796 E16.79464
G1 X26.641 Y112.599 E16.8345
G1 X26.732 Y111.114 E16.88398
G1 X26.838 Y109.774 E16.92869
G1 X26.999 Y108.057 E16.98605
G1 X27.127 Y106.91 E17.02443
G1 X27.315 Y105.413 E17.07462
G1 X27.496 Y104.138 E17.11745
G1 X27.754 Y102.505 E17.17243
G1 X27.97 Y101.261 E17.21443
G1 X28.309 Y99.488 E17.27447
G1 X28.533 Y98.418 E17.31083
G1 X28.913 Y96.719 E17.36873
G1 X29.178 Y95.624 E17.4062
G1 X29.57 Y94.094 E17.45874
G1 X29.909 Y92.862 E17.50124
G1 X30.344 Y91.363 E17.55315
G1 X30.727 Y90.118 E17.59647
G1 X31.214 Y88.62 E17.64886
G1 X31.569 Y87.582 E17.68535
G1 X32.213 Y85.792 E17.74862
G1 X32.542 Y84.917 E17.77971
G1 X33.271 Y83.078 E17.84551
G1 X33.632 Y82.208 E17.87684
G1 X34.374 Y80.496 E17.9389
G1 X34.839 Y79.469 E17.97639
G1 X35.57 Y77.918 E18.03342
G1 X36.009 Y77.021 E18.06664
G1 X36.859 Y75.349 E18.12902
G1 X37.32 Y74.479 E18.16177
G1 X38.221 Y72.841 E18.22395
G1 X38.791 Y71.846 E18.26209
G1 X39.585 Y70.503 E18.31398
G1 X40.167 Y69.553 E18.35104
G1 X41.096 Y68.086 E18.40879
G1 X41.82 Y66.983 E18.45267
G1 X42.688 Y65.708 E18.50397
G1 X43.449 Y64.624 E18.54802
G1 X44.354 Y63.379 E18.59922
G1 X45.107 Y62.377 E18.64091
G1 X46.209 Y60.959 E18.70064
G1 X46.876 Y60.128 E18.73608
G1 X48.018 Y58.747 E18.79568
G1 X48.643 Y58.018 E18.82762
G1 X49.773 Y56.735 E18.88448
G1 X50.635 Y55.786 E18.92712
G1 X51.711 Y54.641 E18.97938
G1 X52.457 Y53.869 E19.01509
G0 F6000 X52.74 Y54.152
G1 F600 X54.157 Y52.735 E19.08174
G1 X54.804 Y52.107 E19.11173
G1 X56.064 Y50.924 E19.16921
G1 X57.009 Y50.065 E19.21169
G1 X58.293 Y48.934 E19.2686
G1 X59.149 Y48.203 E19.30604
G1 X60.496 Y47.093 E19.36409
G1 X61.207 Y46.522 E19.39442
G1 X62.761 Y45.317 E19.45983
G1 X63.62 Y44.674 E19.49552
G1 X64.86 Y43.771 E19.54653
G1 X65.943 Y43.011 E19.59054
G1 X67.344 Y42.061 E19.64684
G1 X68.311 Y41.426 E19.68532
G1 X69.646 Y40.58 E19.73788
G1 X70.717 Y39.923 E19.77967
G1 X72.055 Y39.132 E19.83137
G1 X73.048 Y38.563 E19.86944
G1 X74.674 Y37.671 E19.93112
G1 X75.538 Y37.213 E19.96365
G1 X77.203 Y36.365 E20.02579
G1 X78.095 Y35.928 E20.05883
G1 X79.784 Y35.134 E20.1209
G1 X80.821 Y34.667 E20.15873
G1 X82.377 Y33.995 E20.2151
G1 X83.243 Y33.635 E20.2463
G1 X84.911 Y32.974 E20.30597
G1 X85.932 Y32.588 E20.34228
G1 X87.723 Y31.943 E20.40559
G1 X88.608 Y31.64 E20.4367
G1 X90.406 Y31.056 E20.49958
G1 X91.488 Y30.724 E20.53722
G1 X93.127 Y30.249 E20.59398
G1 X94.207 Y29.955 E20.63121
G1 X95.731 Y29.563 E20.68355
G1 X96.972 Y29.266 E20.72599
G1 X98.667 Y28.887 E20.78376
G1 X99.575 Y28.699 E20.8146
G1 X101.317 Y28.366 E20.87358
G1 X102.582 Y28.146 E20.91629
G1 X104.245 Y27.883 E20.97229
G1 X105.215 Y27.745 E21.00488
G1 X107.086 Y27.509 E21.0676
G1 X108.174 Y27.39 E21.104
G1 X109.786 Y27.237 E21.15786
G1 X111.007 Y27.142 E21.19859
G1 X112.597 Y27.041 E21.25158
G1 X113.849 Y26.982 E21.29327
G1 X115.636 Y26.927 E21.35273
G1 X116.574 Y26.913 E21.38394
G1 X118.279 Y26.912 E21.44064
G1 X119.541 Y26.931 E21.48262
G1 X121.158 Y26.982 E21.53643
G1 X122.409 Y27.042 E21.57809
G1 X123.998 Y27.142 E21.63104
G1 X125.221 Y27.238 E21.67184
G1 X126.996 Y27.407 E21.73115
G1 X127.92 Y27.51 E21.76207
G1 X129.789 Y27.746 E21.82473
G1 X130.76 Y27.884 E21.85735
G1 X132.425 Y28.147 E21.91341
G1 X133.688 Y28.367 E21.95605
G1 X135.428 Y28.7 E22.01498
G1 X136.495 Y28.923 E22.05123
G1 X138.187 Y29.302 E22.1089
G1 X139.277 Y29.565 E22.1462
G1 X140.8 Y29.956 E22.19849
G1 X142.027 Y30.293 E22.24082
G1 X143.519 Y30.726 E22.29249
G1 X144.758 Y31.107 E22.3356
G1 X146.251 Y31.592 E22.38781
G1 X147.283 Y31.945 E22.42409
G1 X149.067 Y32.587 E22.48715
G1 X149.936 Y32.914 E22.51803
G1 X151.769 Y33.64 E22.58361
G1 X152.633 Y33.999 E22.61472
G1 X154.339 Y34.738 E22.67656
G1 X155.361 Y35.201 E22.71388
G1 X156.906 Y35.929 E22.77068
G1 X157.798 Y36.366 E22.80372
G1 X159.464 Y37.213 E22.86588
G1 X160.328 Y37.67 E22.89839
G1 X161.958 Y38.567 E22.96027
G1 X162.95 Y39.135 E22.99829
G1 X164.288 Y39.926 E23.04999
G1 X165.233 Y40.505 E23.08685
G1 X166.694 Y41.43 E23.14436
G1 X167.792 Y42.151 E23.18805
G1 X169.062 Y43.015 E23.23914
G1 X170.141 Y43.772 E23.28298
G1 X171.381 Y44.674 E23.33398
G1 X172.378 Y45.423 E23.37546
G1 X173.791 Y46.521 E23.43497
G1 X174.617 Y47.184 E23.4702
G1 X175.993 Y48.322 E23.52959
G1 X176.718 Y48.943 E23.56134
G1 X177.996 Y50.069 E23.61799
G1 X178.94 Y50.927 E23.66042
G1 X180.081 Y51.998 E23.71247
G1 X180.848 Y52.74 E23.74797
G1 X182.265 Y54.157 E23.81462
G1 X182.893 Y54.804 E23.84461
G1 X184.076 Y56.064 E23.90209
G1 X184.935 Y57.009 E23.94457
G1 X186.066 Y58.293 E24.00148
G1 X186.797 Y59.149 E24.03892
G1 X187.907 Y60.496 E24.09697
G1 X188.478 Y61.207 E24.1273
G1 X189.683 Y62.761 E24.1927
G1 X190.326 Y63.62 E24.22839
G1 X191.229 Y64.86 E24.27941
G1 X191.989 Y65.943 E24.32342
G1 X192.939 Y67.344 E24.37972
G1 X193.574 Y68.311 E24.41819
