;FLAVOR:Marlin
;TIME:320
;Filament used: 0.0899789m
;Layer height: 0.2
;MINX:54.707
;MINY:61.162
;MINZ:0.2
;MAXX:172.194
;MAXY:175.829
;MAXZ:12
;TARGET_MACHINE.NAME:Creality Ender-3
;Generated with Cura_SteamEngine 5.8.1
M140 S75
M105
M190 S75
M104 S220
M105
M109 S220
M82 ;absolute extrusion mode
; Ender 3 Custom Start G-code
G92 E0 ; Reset Extruder
G28 ; Home all axes
G1 Z2.0 F3000 ; Move Z Axis up little to prevent scratching of Heat Bed
G1 X0.1 Y20 Z0.3 F5000.0 ; Move to start position
G1 X0.1 Y200.0 Z0.3 F1500.0 E15 ; Draw the first line
G1 X0.4 Y200.0 Z0.3 F5000.0 ; Move to side a little
G1 X0.4 Y20 Z0.3 F1500.0 E30 ; Draw the second line
G92 E0 ; Reset Extruder
G1 Z2.0 F3000 ; Move Z Axis up little to prevent scratching of Heat Bed
G1 X5 Y20 Z0.3 F5000.0 ; Move over to prevent blob squish
G92 E0
G92 E0
G1 F2700 E-5
;LAYER_COUNT:35
;LAYER:0
M107
G0 F6000 X148.453 Y152.593 Z0.2
;TYPE:SKIRT
G1 F2700 E0
G1 F600 X149.464 Y151.642 E0.04616
G1 X149.76 Y151.399 E0.0589
G1 X150.772 Y150.661 E0.10056
G1 X151.174 Y150.404 E0.11643
G1 X152.008 Y149.923 E0.14845
G1 X152.607 Y149.633 E0.17059
G1 X152.968 Y149.474 E0.18371
G1 X153.875 Y149.12 E0.21609
G1 X154.741 Y148.865 E0.24612
G1 X155.767 Y148.66 E0.28092
G1 X156.664 Y148.562 E0.31093
G1 X157.288 Y148.538 E0.3317
G1 X157.848 Y148.532 E0.35032
G1 X159.44 Y148.538 E0.40327
G1 X160.342 Y148.579 E0.43331
G1 X161.378 Y148.719 E0.46808
G1 X162.327 Y148.936 E0.50046
G1 X163.247 Y149.234 E0.53262
G1 X163.945 Y149.523 E0.55775
G1 X164.28 Y149.675 E0.56998
G1 X165.295 Y150.206 E0.60808
G1 X165.625 Y150.402 E0.62085
G1 X166.697 Y151.121 E0.66378
G1 X167.586 Y151.86 E0.70223
G1 X167.838 Y152.093 E0.71365
G1 X168.433 Y152.686 E0.74159
G1 X168.7 Y152.975 E0.75467
G1 X169.328 Y153.72 E0.78708
G1 X169.891 Y154.522 E0.81967
G1 X170.092 Y154.84 E0.83218
G1 X170.58 Y155.692 E0.86484
G1 X170.791 Y156.103 E0.88021
G1 X171.167 Y156.924 E0.91024
G1 X171.412 Y157.581 E0.93356
G1 X171.543 Y157.971 E0.94725
G1 X171.801 Y158.871 E0.97839
G1 X171.967 Y159.695 E1.00634
G1 X172.031 Y160.091 E1.01968
G1 X172.148 Y161.127 E1.05436
G1 X172.177 Y161.575 E1.06929
G1 X172.194 Y162.552 E1.10179
G1 X172.119 Y163.582 E1.13614
G1 X172.058 Y164.088 E1.15309
G1 X171.902 Y165.012 E1.18426
G1 X171.672 Y165.91 E1.21509
G1 X171.527 Y166.387 E1.23167
G1 X171.198 Y167.321 E1.26461
G1 X170.832 Y168.132 E1.2942
G1 X170.4 Y168.942 E1.32474
G1 X170.187 Y169.305 E1.33873
G1 X169.635 Y170.147 E1.37222
G1 X169.443 Y170.412 E1.3831
G1 X168.601 Y171.443 E1.42738
G1 X167.86 Y172.189 E1.46235
G1 X167.591 Y172.437 E1.47452
G1 X166.862 Y173.052 E1.50624
G1 X166.129 Y173.572 E1.53613
G1 X165.713 Y173.843 E1.55265
G1 X164.887 Y174.327 E1.58449
G1 X164.416 Y174.561 E1.60198
G1 X163.919 Y174.794 E1.62024
G1 X163.018 Y175.165 E1.65265
G1 X162.088 Y175.456 E1.68506
G1 X161.137 Y175.662 E1.71742
G1 X160.241 Y175.778 E1.74747
G1 X159.603 Y175.815 E1.76873
G1 X158.911 Y175.829 E1.79175
G1 X157.439 Y175.818 E1.84071
G1 X156.467 Y175.766 E1.87308
G1 X155.503 Y175.628 E1.90547
G1 X154.555 Y175.405 E1.93786
G1 X153.669 Y175.114 E1.96888
G1 X153.066 Y174.867 E1.99055
G1 X152.464 Y174.599 E2.01247
G1 X151.656 Y174.195 E2.04252
G1 X150.506 Y173.464 E2.08784
G1 X150.09 Y173.161 E2.10496
G1 X149.335 Y172.556 E2.13714
G1 X148.774 Y172.029 E2.16274
G1 X148.385 Y171.634 E2.18118
G1 X147.758 Y170.939 E2.21231
G1 X147.23 Y170.248 E2.24123
G1 X147.01 Y169.934 E2.25398
G1 X146.485 Y169.108 E2.28654
G1 X146.192 Y168.564 E2.30709
G1 X145.954 Y168.087 E2.32482
G1 X145.574 Y167.236 E2.35582
G1 X145.294 Y166.458 E2.38332
G1 X145 Y165.449 E2.41827
G1 X144.787 Y164.393 E2.4541
G1 X144.711 Y163.804 E2.47385
G1 X144.658 Y163.262 E2.49197
G1 X144.606 Y162.299 E2.52404
G1 X144.622 Y161.588 E2.5477
G1 X144.649 Y161.12 E2.56329
G1 X144.816 Y159.754 E2.60906
G1 X144.882 Y159.403 E2.62094
G1 X145.145 Y158.324 E2.65788
G1 X145.246 Y157.987 E2.66958
G1 X145.554 Y157.108 E2.70056
G1 X145.786 Y156.569 E2.72008
G1 X146.01 Y156.087 E2.73775
G1 X146.463 Y155.219 E2.77032
G1 X147.069 Y154.284 E2.80738
G1 X147.377 Y153.862 E2.82475
G1 X148.186 Y152.878 E2.86712
G1 X148.453 Y152.593 E2.88011
G0 F6000 X148.727 Y152.884
G1 F600 X149.718 Y151.951 E2.92538
G1 X149.996 Y151.722 E2.93736
G1 X151.008 Y150.984 E2.97902
G1 X151.374 Y150.75 E2.99347
G1 X152.182 Y150.283 E3.02451
G1 X152.769 Y149.999 E3.0462
G1 X153.114 Y149.846 E3.05875
G1 X153.988 Y149.504 E3.08997
G1 X154.854 Y149.249 E3.11999
G1 X155.81 Y149.058 E3.15242
G1 X156.707 Y148.96 E3.18243
G1 X157.292 Y148.938 E3.2019
G1 X157.846 Y148.932 E3.22033
G1 X159.422 Y148.938 E3.27275
G1 X160.324 Y148.979 E3.30278
G1 X161.289 Y149.109 E3.33516
G1 X162.204 Y149.317 E3.36637
G1 X163.094 Y149.604 E3.39747
G1 X163.78 Y149.887 E3.42216
G1 X164.095 Y150.03 E3.43366
G1 X165.091 Y150.55 E3.47103
G1 X165.403 Y150.735 E3.4831
G1 X166.441 Y151.429 E3.52463
G1 X167.33 Y152.168 E3.56308
G1 X167.556 Y152.376 E3.57329
G1 X168.14 Y152.958 E3.60072
G1 X168.395 Y153.233 E3.61319
G1 X169.001 Y153.95 E3.64441
G1 X169.553 Y154.737 E3.67639
G1 X169.745 Y155.039 E3.68829
G1 X170.224 Y155.874 E3.72031
G1 X170.427 Y156.27 E3.73511
G1 X170.803 Y157.091 E3.76514
G1 X171.033 Y157.708 E3.78704
G1 X171.158 Y158.081 E3.80013
G1 X171.416 Y158.981 E3.83127
G1 X171.572 Y159.759 E3.85766
G1 X171.636 Y160.155 E3.871
G1 X171.749 Y161.153 E3.9044
G1 X171.777 Y161.583 E3.91874
G1 X171.795 Y162.523 E3.95001
G1 X171.722 Y163.534 E3.98372
G1 X171.663 Y164.022 E4.00007
G1 X171.514 Y164.913 E4.03012
G1 X171.289 Y165.794 E4.06036
G1 X171.15 Y166.254 E4.07634
G1 X170.833 Y167.156 E4.10814
G1 X170.467 Y167.967 E4.13773
G1 X170.055 Y168.74 E4.16687
G1 X169.852 Y169.086 E4.18021
G1 X169.311 Y169.913 E4.21308
G1 X169.133 Y170.159 E4.22318
G1 X168.317 Y171.161 E4.26616
G1 X167.588 Y171.895 E4.30057
G1 X167.333 Y172.131 E4.31212
G1 X166.604 Y172.746 E4.34384
G1 X165.911 Y173.237 E4.37209
G1 X165.51 Y173.498 E4.38801
G1 X164.708 Y173.969 E4.41894
G1 X164.247 Y174.199 E4.43608
G1 X163.766 Y174.424 E4.45374
G1 X162.898 Y174.783 E4.48498
G1 X162.003 Y175.065 E4.51619
G1 X161.086 Y175.265 E4.54741
G1 X160.19 Y175.381 E4.57746
G1 X159.595 Y175.415 E4.59728
G1 X158.914 Y175.429 E4.61993
G1 X157.46 Y175.419 E4.6683
G1 X156.523 Y175.37 E4.6995
G1 X155.594 Y175.239 E4.73071
G1 X154.68 Y175.025 E4.76193
G1 X153.794 Y174.734 E4.79295
G1 X153.229 Y174.502 E4.81326
G1 X152.643 Y174.241 E4.8346
G1 X151.835 Y173.837 E4.86464
G1 X150.742 Y173.141 E4.90774
G1 X150.34 Y172.848 E4.92429
G1 X149.609 Y172.264 E4.95541
G1 X149.059 Y171.748 E4.98049
G1 X148.682 Y171.366 E4.99834
G1 X148.055 Y170.671 E5.02947
G1 X147.558 Y170.018 E5.05677
G1 X147.338 Y169.704 E5.06952
G1 X146.837 Y168.918 E5.10052
G1 X146.55 Y168.385 E5.12065
G1 X146.319 Y167.924 E5.1378
G1 X145.95 Y167.1 E5.16783
G1 X145.678 Y166.346 E5.19449
G1 X145.392 Y165.37 E5.22832
G1 X145.184 Y164.342 E5.2632
G1 X145.109 Y163.764 E5.28259
G1 X145.057 Y163.24 E5.3001
G1 X145.006 Y162.308 E5.33115
G1 X145.021 Y161.611 E5.35434
G1 X145.046 Y161.168 E5.36909
G1 X145.209 Y159.828 E5.41399
G1 X145.271 Y159.498 E5.42516
G1 X145.534 Y158.419 E5.4621
G1 X145.624 Y158.119 E5.47251
G1 X145.922 Y157.266 E5.50257
G1 X146.149 Y156.737 E5.52171
G1 X146.365 Y156.271 E5.5388
G1 X146.799 Y155.436 E5.5701
G1 X147.393 Y154.519 E5.60644
G1 X147.686 Y154.116 E5.62301
G1 X148.495 Y153.132 E5.66538
G1 X148.727 Y152.884 E5.67667
G0 F6000 X149.001 Y153.175
G1 F600 X149.973 Y152.259 E5.72109
G1 X150.232 Y152.045 E5.73227
G1 X151.224 Y151.321 E5.77312
G1 X151.575 Y151.096 E5.78698
G1 X152.357 Y150.643 E5.81704
G1 X152.932 Y150.364 E5.8383
G1 X153.26 Y150.218 E5.85024
G1 X154.101 Y149.888 E5.88029
G1 X154.967 Y149.633 E5.91031
G1 X155.853 Y149.456 E5.94036
G1 X156.75 Y149.358 E5.97038
G1 X157.296 Y149.338 E5.98855
G1 X157.844 Y149.332 E6.00678
G1 X159.404 Y149.338 E6.05866
G1 X160.306 Y149.379 E6.08869
G1 X161.201 Y149.499 E6.11873
G1 X162.082 Y149.698 E6.14877
G1 X162.942 Y149.974 E6.17881
G1 X163.615 Y150.251 E6.20301
G1 X163.91 Y150.385 E6.21379
G1 X164.887 Y150.894 E6.25043
G1 X165.181 Y151.068 E6.26179
G1 X166.185 Y151.737 E6.30192
G1 X167.074 Y152.476 E6.34037
G1 X167.274 Y152.66 E6.34941
G1 X167.847 Y153.23 E6.37629
G1 X168.09 Y153.492 E6.38818
G1 X168.674 Y154.18 E6.41819
G1 X169.216 Y154.952 E6.44957
G1 X169.398 Y155.238 E6.46084
G1 X169.868 Y156.057 E6.49225
G1 X170.063 Y156.437 E6.50645
G1 X170.439 Y157.258 E6.53649
G1 X170.654 Y157.836 E6.557
G1 X170.774 Y158.192 E6.56949
G1 X171.024 Y159.06 E6.59954
G1 X171.177 Y159.823 E6.62542
G1 X171.241 Y160.219 E6.63876
G1 X171.35 Y161.179 E6.6709
G1 X171.377 Y161.591 E6.68463
G1 X171.396 Y162.494 E6.71467
G1 X171.325 Y163.486 E6.74775
G1 X171.268 Y163.956 E6.7635
G1 X171.119 Y164.847 E6.79354
G1 X170.906 Y165.678 E6.82207
G1 X170.767 Y166.138 E6.83806
G1 X170.468 Y166.991 E6.86812
G1 X170.102 Y167.802 E6.89771
G1 X169.71 Y168.538 E6.92545
G1 X169.517 Y168.867 E6.93814
G1 X168.987 Y169.679 E6.97039
G1 X168.823 Y169.906 E6.9797
G1 X168.007 Y170.908 E7.02268
G1 X167.316 Y171.601 E7.05523
G1 X167.061 Y171.837 E7.06679
G1 X166.372 Y172.42 E7.09681
G1 X165.693 Y172.902 E7.1245
G1 X165.307 Y173.153 E7.13982
G1 X164.529 Y173.611 E7.16984
G1 X164.077 Y173.837 E7.18665
G1 X163.612 Y174.055 E7.20373
G1 X162.778 Y174.402 E7.23378
G1 X161.917 Y174.674 E7.26381
G1 X161.035 Y174.868 E7.29385
G1 X160.139 Y174.984 E7.32389
G1 X159.587 Y175.015 E7.34228
G1 X158.917 Y175.029 E7.36457
G1 X157.48 Y175.02 E7.41237
G1 X156.578 Y174.974 E7.44241
G1 X155.684 Y174.849 E7.47243
G1 X154.804 Y174.645 E7.50248
G1 X153.946 Y174.364 E7.53251
G1 X153.392 Y174.137 E7.55242
G1 X152.822 Y173.883 E7.57317
G1 X152.014 Y173.479 E7.60322
G1 X150.977 Y172.817 E7.64414
G1 X150.589 Y172.535 E7.66009
G1 X149.883 Y171.972 E7.69013
G1 X149.333 Y171.456 E7.71521
G1 X148.979 Y171.098 E7.73196
G1 X148.373 Y170.428 E7.762
G1 X147.885 Y169.788 E7.78877
G1 X147.675 Y169.489 E7.80092
G1 X147.189 Y168.728 E7.83096
G1 X146.907 Y168.205 E7.85072
G1 X146.684 Y167.761 E7.86724
G1 X146.315 Y166.937 E7.89727
G1 X146.062 Y166.233 E7.92215
G1 X145.784 Y165.29 E7.95485
G1 X145.581 Y164.29 E7.98879
G1 X145.507 Y163.724 E8.00778
G1 X145.456 Y163.218 E8.02469
G1 X145.406 Y162.316 E8.05474
G1 X145.42 Y161.633 E8.07746
G1 X145.443 Y161.216 E8.09135
G1 X145.602 Y159.902 E8.13537
G1 X145.66 Y159.592 E8.14586
G1 X145.917 Y158.534 E8.18208
G1 X146.002 Y158.251 E8.1919
G1 X146.3 Y157.398 E8.22196
G1 X146.512 Y156.905 E8.23981
G1 X146.72 Y156.455 E8.25629
G1 X147.135 Y155.653 E8.28633
G1 X147.717 Y154.754 E8.32195
G1 X147.995 Y154.37 E8.33772
G1 X148.788 Y153.404 E8.37928
G1 X149.001 Y153.175 E8.38969
G1 F2700 E3.38969
;MESH:holder.stl(2)
G0 F6000 X155.052 Y161.231
G0 X156.088 Y161.55
G0 X157.444 Y163.804
G0 X157.341 Y164.025
;TYPE:WALL-INNER
G1 F2700 E8.38969
G1 F483.9 X157.664 Y164.18 E8.40446
G1 F512.8 X158.336 Y164.208 E8.43063
G1 F535.7 X158.731 Y164.201 E8.44535
G1 F499 X159.138 Y164.175 E8.46166
G1 F475.2 X159.428 Y164.041 E8.47508
G1 F472.4 X159.717 Y163.849 E8.48973
G1 F470.6 X159.913 Y163.674 E8.50088
G1 F478.1 X160.129 Y163.446 E8.51399
G1 F480 X160.293 Y163.175 E8.52715
G1 F472.4 X160.403 Y162.942 E8.53804
G1 F474.3 X160.508 Y162.614 E8.55253
G1 F476.2 X160.553 Y162.218 E8.56923
G1 X160.541 Y161.847 E8.58479
G1 F480 X160.468 Y161.545 E8.5977
G1 X160.328 Y161.164 E8.61458
G1 X160.047 Y160.759 E8.63507
G1 F478.1 X160.046 Y162.434 E8.70499
G1 F472.4 X159.929 Y162.751 E8.71926
G1 X159.76 Y163.139 E8.73714
G1 F476.2 X159.255 Y163.567 E8.76488
G1 X159 Y163.681 E8.77659
G1 F499 X158.692 Y163.75 E8.78921
G1 F519.5 X158.281 Y163.771 E8.80502
G1 F497.9 X157.798 Y163.698 E8.8246
G1 F478.1 X157.576 Y163.58 E8.83509
G1 F475.2 X157.129 Y163.253 E8.85835
G1 F477.1 X156.845 Y162.728 E8.88331
G1 F479 X156.743 Y162.332 E8.90035
G1 F483.9 X156.749 Y160.759 E8.96522
G1 F484.8 X156.609 Y160.939 E8.97461
G1 X156.392 Y161.338 E8.9933
G1 X156.304 Y161.615 E9.00527
G1 X156.255 Y161.875 E9.01616
G1 F480 X156.238 Y162.156 E9.02786
G1 F476.2 X156.265 Y162.478 E9.0414
G1 X156.331 Y162.757 E9.05342
G1 F474.3 X156.421 Y163.002 E9.0644
G1 X156.537 Y163.236 E9.07539
G1 F478.1 X156.725 Y163.517 E9.0895
G1 X156.972 Y163.769 E9.10423
G1 F472.4 X157.3 Y164.005 E9.1213
G1 F478.1 X157.341 Y164.025 E9.1232
G0 F6000 X157.118 Y164.42
;TYPE:WALL-OUTER
G1 F600 X157.565 Y164.628 E9.1396
G1 X159.239 Y164.628 E9.19528
G1 X159.647 Y164.436 E9.21028
G1 X159.997 Y164.212 E9.2241
G1 X160.234 Y163.994 E9.23481
G1 X160.487 Y163.718 E9.24726
G1 X160.689 Y163.394 E9.25996
G1 X160.829 Y163.11 E9.27049
G1 X160.951 Y162.706 E9.28453
G1 X161.007 Y162.236 E9.30027
G1 X160.989 Y161.784 E9.31531
G1 X160.9 Y161.414 E9.32797
G1 X160.791 Y161.118 E9.33846
G1 X160.684 Y160.892 E9.34678
G1 X160.406 Y160.485 E9.36317
G1 X160.124 Y160.186 E9.37684
G1 X159.855 Y159.99 E9.38791
G1 X159.6 Y159.839 E9.39777
G1 X159.592 Y162.376 E9.48215
G1 X159.388 Y162.864 E9.49974
G1 X158.938 Y163.222 E9.51887
G1 X158.623 Y163.331 E9.52996
G1 X158.297 Y163.345 E9.54081
G1 X157.921 Y163.27 E9.55356
G1 X157.475 Y162.943 E9.57195
G1 X157.268 Y162.554 E9.58661
G1 X157.196 Y162.274 E9.59623
G1 X157.196 Y159.83 E9.67751
G1 X156.874 Y160.035 E9.69021
G1 X156.61 Y160.25 E9.70153
G1 X156.304 Y160.582 E9.71655
G1 X156.104 Y160.905 E9.72919
G1 X155.975 Y161.174 E9.73911
G1 X155.871 Y161.506 E9.75068
G1 X155.811 Y161.815 E9.76115
G1 X155.785 Y162.158 E9.77259
G1 X155.819 Y162.548 E9.78561
G1 X155.897 Y162.886 E9.79715
G1 X156.004 Y163.181 E9.80759
G1 X156.145 Y163.466 E9.81816
G1 X156.376 Y163.801 E9.8317
G1 X156.672 Y164.112 E9.84598
G1 X157.07 Y164.398 E9.86228
G1 X157.118 Y164.42 E9.86403
;MESH:NONMESH
G0 F300 X157.118 Y164.42 Z0.4
G0 F6000 X157.334 Y164.036
;TIME_ELAPSED:35.345650
;LAYER:1
;note -- min layer time used
M106 S85
;TYPE:WALL-INNER
;MESH:holder.stl(2)
G1 F470.6 X157.633 Y164.172 E9.87796
G1 F502.1 X158.28 Y164.206 E9.90371
G1 F535.7 X158.678 Y164.203 E9.91854
G1 F497.9 X159.152 Y164.172 E9.93758
G1 F468.8 X159.409 Y164.069 E9.94937
G1 X159.73 Y163.857 E9.96574
G1 X159.935 Y163.666 E9.97767
G1 X160.184 Y163.384 E9.99369
G1 F469.7 X160.33 Y163.122 E10.00643
G1 F468.8 X160.433 Y162.885 E10.01743
G1 F470.6 X160.515 Y162.616 E10.02936
G1 F474.3 X160.553 Y162.359 E10.04029
G1 F476.2 X160.566 Y162.058 E10.05292
G1 F485.8 X160.519 Y161.672 E10.06889
G1 F492.8 X160.416 Y161.315 E10.08393
G1 X160.236 Y160.976 E10.09948
G1 X160.04 Y160.723 E10.11244
G1 X160.037 Y161.725 E10.15301
G1 F481.9 X160.048 Y161.979 E10.16354
G1 F472.4 X160.036 Y162.51 E10.18598
G1 F471.5 X159.82 Y163.005 E10.20883
G1 F470.6 X159.487 Y163.407 E10.23097
G1 F482.9 X159.108 Y163.651 E10.2496
G1 F510.6 X158.647 Y163.762 E10.26813
G1 F526.3 X158.176 Y163.762 E10.28599
G1 F497.9 X157.767 Y163.674 E10.30275
G1 F468.8 X157.587 Y163.592 E10.31118
G1 F466.9 X157.161 Y163.268 E10.33405
G1 X156.869 Y162.796 E10.35777
G1 F468.8 X156.744 Y162.36 E10.37708
G1 F480 X156.752 Y160.718 E10.44535
G1 F490.8 X156.497 Y161.076 E10.46322
G1 X156.349 Y161.415 E10.47826
G1 X156.267 Y161.676 E10.48938
G1 F485.8 X156.227 Y162.071 E10.50569
G1 F478.1 X156.242 Y162.359 E10.51773
G1 F471.5 X156.283 Y162.62 E10.52891
G1 F468.8 X156.384 Y162.95 E10.5436
G1 F466 X156.508 Y163.197 E10.55544
G1 F463.3 X156.65 Y163.426 E10.56704
G1 F465.1 X156.872 Y163.689 E10.58181
G1 F466 X157.085 Y163.865 E10.59364
G1 F465.1 X157.318 Y164.029 E10.60587
G1 F468.8 X157.334 Y164.036 E10.60661
G0 F7500 X157.109 Y164.437
;TYPE:WALL-OUTER
G1 F600 X157.535 Y164.627 E10.62213
G1 X159.241 Y164.628 E10.67887
G1 X159.628 Y164.47 E10.69277
G1 X160.012 Y164.217 E10.70807
G1 X160.253 Y163.995 E10.71896
G1 X160.467 Y163.755 E10.72966
G1 X160.684 Y163.446 E10.74222
G1 X160.863 Y163.043 E10.75688
G1 X160.959 Y162.713 E10.76831
G1 X161.004 Y162.404 E10.7787
G1 X161.026 Y162.031 E10.79113
G1 X160.952 Y161.576 E10.80646
G1 X160.829 Y161.148 E10.82127
G1 X160.61 Y160.736 E10.83679
G1 X160.414 Y160.477 E10.84759
G1 X160.129 Y160.168 E10.86158
G1 X159.6 Y159.806 E10.8829
G1 X159.591 Y162.361 E10.96788
G1 X159.435 Y162.755 E10.98197
G1 X159.18 Y163.059 E10.99517
G1 X158.95 Y163.214 E11.00439
G1 X158.567 Y163.337 E11.01777
G1 X158.251 Y163.34 E11.02828
