;FLAVOR:Marlin
;TIME:1534
;Filament used: 0.740931m
;Layer height: 0.2
;MINX:96.837
;MINY:100.837
;MINZ:0.24
;MAXX:132.163
;MAXY:136.163
;MAXZ:5.49
;TARGET_MACHINE.NAME:Creality Ender-3
;Generated with Cura_SteamEngine 5.10.0
M140 S75
M105
M190 S75
M104 S220
M105
M109 S220
; Ender 3 Custom Start G-code
G92 E0 ; Reset Extruder
G28 ; Home all axes
G1 Z2.0 F3000 ; Move Z Axis up little to prevent scratching of Heat Bed
G1 X0.1 Y20 Z0.3 F5000.0 ; Move to start position
G1 X0.1 Y200.0 Z0.3 F1500.0 E15 ; Draw the first line
G1 X0.4 Y200.0 Z0.3 F5000.0 ; Move to side a little
G1 X0.4 Y20 Z0.3 F1500.0 E30 ; Draw the second line
G92 E0 ; Reset Extruder
G1 Z2.0 F3000 ; Move Z Axis up little to prevent scratching of Heat Bed
G1 X5 Y20 Z0.3 F5000.0 ; Move over to prevent blob squish
M82 ;absolute extrusion mode
G92 E0
G92 E0
G1 F2700 E-5
;LAYER_COUNT:22
;LAYER:-6
M107
G0 F9000 X102.893 Y106.641 Z0.24
;TYPE:SUPPORT-INTERFACE
G1 F2700 E0
G1 F1125 X105.261 Y104.697 E0.24456
G1 X107.966 Y103.249 E0.48948
G1 X108.305 Y103.085 E0.51954
G1 X108.324 Y103.099 E0.52142
G1 X111.098 Y102.261 E0.75274
G1 X111.459 Y102.189 E0.78212
G1 X114.306 Y101.911 E1.01046
G1 X114.567 Y101.898 E1.03132
G1 X117.653 Y102.2 E1.27884
G1 X117.915 Y102.263 E1.30035
G1 X120.665 Y103.098 E1.52976
G1 X121.049 Y103.255 E1.56288
G1 X123.671 Y104.662 E1.80041
G1 X123.884 Y104.823 E1.82172
G1 X126.095 Y106.633 E2.04981
G1 X126.355 Y106.893 E2.07916
G1 X128.313 Y109.279 E2.32554
G1 X129.84 Y112.139 E2.58434
G1 X130.739 Y115.096 E2.83105
G1 X130.803 Y115.438 E2.85882
G1 X131.088 Y118.304 E3.08873
G1 X131.099 Y118.564 E3.1095
G1 X130.783 Y121.752 E3.36523
G1 X129.903 Y124.664 E3.60806
G1 X129.742 Y125.047 E3.64122
G1 X128.31 Y127.722 E3.88342
G1 X126.297 Y130.176 E4.13678
G1 X126.014 Y130.448 E4.16812
G1 X125.995 Y130.447 E4.16964
G1 X123.726 Y132.309 E4.40394
G1 X121.036 Y133.75 E4.64753
G1 X120.688 Y133.913 E4.67821
G1 X120.672 Y133.901 E4.6798
G1 X117.904 Y134.738 E4.91064
G1 X117.539 Y134.807 E4.94029
G1 X114.692 Y135.088 E5.16866
G1 X114.432 Y135.099 E5.18943
G1 X111.343 Y134.796 E5.43719
G1 X111.081 Y134.733 E5.4587
G1 X108.332 Y133.903 E5.68792
G1 X107.949 Y133.742 E5.72108
G1 X105.272 Y132.307 E5.96354
G1 X103.004 Y130.446 E6.19773
G1 X102.984 Y130.447 E6.19933
G1 X102.69 Y130.167 E6.23173
G1 X100.695 Y127.731 E6.48307
G1 X99.246 Y125.027 E6.72796
G1 X99.085 Y124.691 E6.7577
G1 X99.099 Y124.672 E6.75958
G1 X98.211 Y121.732 E7.00474
G1 X97.911 Y118.689 E7.24882
G1 X97.898 Y118.43 E7.26952
G1 X98.212 Y115.251 E7.52452
G1 X99.127 Y112.224 E7.77694
G1 X99.25 Y111.96 E7.80019
G1 X100.697 Y109.261 E8.04465
G1 X102.633 Y106.901 E8.28831
G1 X102.893 Y106.641 E8.31766
G0 F9000 X102.801 Y107.326
G1 F1125 X125.669 Y130.195 E10.89926
G1 F2700 E5.89926
G0 F9000 X126.741 Y129.004
G1 F2700 E10.89926
G1 F1125 X103.993 Y106.256 E13.46725
G1 F2700 E8.46725
G0 F9000 X105.236 Y105.236
G1 F2700 E13.46725
G1 F1125 X127.761 Y127.761 E16.01006
G1 F2700 E11.01006
G0 F9000 X128.599 Y126.336
G1 F2700 E16.01006
G1 F1125 X106.664 Y104.401 E18.48628
G1 F2700 E13.48628
G0 F9000 X108.137 Y103.612
G1 F2700 E18.48628
G1 F1125 X129.386 Y124.861 E20.88505
G1 F2700 E15.88505
G0 F9000 X129.941 Y123.153
G1 F2700 E20.88505
G1 F1125 X109.846 Y103.057 E23.1536
G1 F2700 E18.1536
G0 F9000 X111.626 Y102.575
G1 F2700 E23.1536
G1 F1125 X130.419 Y121.368 E25.27512
G1 F2700 E20.27512
G0 F9000 X130.623 Y119.309
G1 F2700 E25.27512
G1 F1125 X113.688 Y102.374 E27.18688
G1 F2700 E22.18688
G0 F9000 X116.019 Y102.443
G1 F2700 E27.18688
G1 F1125 X130.555 Y116.978 E28.82778
G1 F2700 E23.82778
G0 F9000 X130.052 Y114.213
G1 F2700 E28.82778
G1 F1125 X118.785 Y102.946 E30.09969
G1 F2700 E25.09969
G0 F9000 X122.694 Y104.592
G1 F2700 E30.09969
G1 F1125 X128.409 Y110.307 E30.74485
G1 F2700 E25.74485
G0 F9000 X129.701 Y109.616
G0 X130.836 Y111.776
G0 X131.829 Y115.079
G0 X132.163 Y118.537
G0 X131.814 Y121.987
G0 X130.809 Y125.287
G0 X129.163 Y128.346
G0 X126.964 Y131.017
G0 X125.358 Y132.348
G0 X124.427 Y131.215
G1 F2700 E30.74485
G1 F1125 X101.782 Y108.57 E33.30122
G1 F2700 E28.30122
G0 F9000 X100.822 Y109.873
G1 F2700 E33.30122
G1 F1125 X123.124 Y132.175 E35.81886
G1 F2700 E30.81886
G0 F9000 X121.651 Y132.965
G1 F2700 E35.81886
G1 F1125 X100.032 Y111.346 E38.2594
G1 F2700 E33.2594
G0 F9000 X99.336 Y112.913
G1 F2700 E38.2594
G1 F1125 X120.084 Y133.66 E40.60156
G1 F2700 E35.60156
G0 F9000 X118.347 Y134.186
G1 F2700 E40.60156
G1 F1125 X98.811 Y114.65 E42.80695
G1 F2700 E37.80695
G0 F9000 X98.482 Y116.584
G1 F2700 E42.80695
G1 F1125 X116.414 Y134.516 E44.83127
G1 F2700 E39.83127
G0 F9000 X114.321 Y134.685
G1 F2700 E44.83127
G1 F1125 X98.312 Y118.677 E46.63844
G1 F2700 E41.63844
G0 F9000 X98.559 Y121.186
G1 F2700 E46.63844
G1 F1125 X111.813 Y134.441 E48.13473
G1 F2700 E43.13473
G0 F9000 X108.709 Y133.599
G1 F2700 E48.13473
G1 F1125 X99.402 Y124.292 E49.18538
G1 F2700 E44.18538
G0 F300 X99.402 Y124.292 Z0.54
G0 F9000 X98 Y124.717
G0 X97.171 Y121.921
G0 X96.837 Y118.463
G0 X97.186 Y115.013
G0 X98.194 Y111.708
G0 X99.508 Y109.225
G0 X100.802 Y109.916
;TIME_ELAPSED:48.241742
;LAYER:-5
;TYPE:SUPPORT
G1 F2700 E49.18538
G1 F1125 X101.031 Y109.487 E49.2339
G1 X103.043 Y107.037 E49.55024
G1 X105.493 Y105.027 E49.86644
G1 X105.919 Y104.799 E49.91465
G1 X100.802 Y109.916 E50.63672
G1 X99.526 Y112.296 E50.90617
G1 X99.392 Y112.74 E50.95245
G1 X108.739 Y103.393 E52.27141
G1 X110.768 Y102.779 E52.48293
G1 X98.779 Y114.768 E54.17471
G1 X98.652 Y115.186 E54.2183
G1 X98.588 Y115.514 E54.25164
G1 X98.495 Y116.465 E54.34699
G1 X112.466 Y102.494 E56.31845
G1 X114.035 Y102.34 E56.47575
G1 X98.34 Y118.035 E58.69049
G1 X98.294 Y118.499 E58.73701
G1 X98.384 Y119.405 E58.82786
G1 X115.406 Y102.383 E61.22985
G1 X116.693 Y102.51 E61.35889
G1 X98.511 Y120.693 E63.92464
G1 X98.605 Y121.655 E64.02108
G1 X98.688 Y121.929 E64.04965
G1 X117.931 Y102.687 E66.76497
G1 X119.016 Y103.016 E66.8781
G1 X99.017 Y123.015 E69.70018
G1 X99.345 Y124.101 E69.81337
G1 X120.101 Y103.344 E72.74234
G1 X120.705 Y103.528 E72.80534
G1 X121.114 Y103.746 E72.85159
G1 X99.747 Y125.113 E75.8667
G1 X100.24 Y126.034 E75.97094
G1 X122.035 Y104.24 E79.04638
G1 X122.956 Y104.732 E79.15056
G1 X100.732 Y126.956 E82.28661
G1 X101.028 Y127.509 E82.3492
G1 X101.283 Y127.819 E82.38925
G1 X123.82 Y105.283 E85.56939
G1 X124.596 Y105.92 E85.66957
G1 X101.921 Y128.596 E88.86933
G1 X102.558 Y129.373 E88.96958
G1 X125.373 Y106.558 E92.18902
G1 X125.963 Y107.043 E92.26523
G1 X126.115 Y107.23 E92.28928
G1 X103.23 Y130.115 E95.5186
G1 X104.006 Y130.753 E95.61884
G1 X126.752 Y108.007 E98.82854
G1 X127.39 Y108.783 E98.92878
G1 X104.783 Y131.391 E102.11894
G1 X105.559 Y132.028 E102.21912
G1 X128.015 Y109.573 E105.38783
G1 X128.508 Y110.494 E105.49207
G1 X106.494 Y132.508 E108.59848
G1 X107.414 Y133.002 E108.70268
G1 X129.001 Y111.415 E111.74884
G1 X129.494 Y112.337 E111.85316
G1 X108.344 Y133.486 E114.83758
G1 X109.429 Y133.816 E114.95074
G1 X129.816 Y113.429 E117.82757
G1 X130.144 Y114.515 E117.94076
G1 X110.514 Y134.145 E120.71077
G1 X111.183 Y134.347 E120.7805
G1 X111.637 Y134.436 E120.82666
G1 X130.424 Y115.649 E123.47771
G1 X130.552 Y116.936 E123.60676
G1 X112.936 Y134.552 E126.09257
G1 X114.222 Y134.679 E126.22151
G1 X130.68 Y118.222 E128.54384
G1 X130.707 Y118.498 E128.57151
G1 X130.585 Y119.731 E128.69514
G1 X115.731 Y134.585 E130.7912
G1 X117.299 Y134.431 E130.94841
G1 X130.43 Y121.3 E132.80134
G1 X130.412 Y121.483 E132.81968
G1 X130.348 Y121.815 E132.85342
G1 X129.922 Y123.223 E133.0002
G1 X119.222 Y133.922 E134.51002
G1 X120.7 Y133.474 E134.66412
G1 X121.525 Y133.033 E134.75746
G1 X129.031 Y125.528 E135.81657
G1 X127.97 Y127.51 E136.04088
G1 X125.958 Y129.961 E136.35729
G1 X123.508 Y131.973 E136.67362
G1 F2700 E131.67362
G0 F300 X123.508 Y131.973 Z0.74
G0 F9000 X124.083 Y133.327
G0 X121.216 Y134.838
G0 X117.912 Y135.83
G0 X114.463 Y136.163
G0 X111.022 Y135.818
G0 X107.713 Y134.809
G0 X104.654 Y133.163
G0 X102.378 Y131.311
G0 X103.18 Y130.333
;TIME_ELAPSED:96.950893
;LAYER:-4
;TYPE:SUPPORT-INTERFACE
G1 F2700 E136.67362
G1 F1500 X102.663 Y129.816 E136.69794
G1 X100.855 Y127.613 E136.79273
G1 X100.658 Y127.245 E136.80661
G1 X105.753 Y132.34 E137.04627
G1 X106.969 Y132.991 E137.09214
G1 X100.009 Y126.03 E137.41954
G1 X99.375 Y124.831 E137.46465
G1 X108.198 Y133.654 E137.87966
G1 X109.009 Y133.899 E137.90784
G1 X99.101 Y123.991 E138.37388
G1 X98.856 Y123.181 E138.40203
G1 X109.82 Y134.145 E138.91774
G1 X110.631 Y134.39 E138.94592
G1 X98.611 Y122.37 E139.5113
G1 X98.408 Y121.699 E139.53462
G1 X98.397 Y121.59 E139.53826
G1 X111.412 Y134.605 E140.15045
G1 X112.038 Y134.665 E140.17136
G1 X98.335 Y120.963 E140.81589
G1 X98.274 Y120.335 E140.83687
G1 X112.665 Y134.726 E141.51378
G1 X113.293 Y134.789 E141.53477
G1 X98.211 Y119.708 E142.24416
G1 X98.15 Y119.08 E142.26515
G1 X113.92 Y134.85 E143.00692
G1 X114.547 Y134.911 E143.02787
G1 X98.097 Y118.462 E143.80161
G1 X98.148 Y117.947 E143.81882
G1 X115.054 Y134.853 E144.61403
G1 X115.569 Y134.802 E144.63124
G1 X98.198 Y117.431 E145.44832
G1 X98.249 Y116.917 E145.4655
G1 X116.084 Y134.751 E146.30438
G1 X116.598 Y134.7 E146.32156
G1 X98.3 Y116.402 E147.18224
G1 X98.35 Y115.886 E147.19948
G1 X117.113 Y134.649 E148.08204
G1 X117.628 Y134.599 E148.09924
G1 X98.409 Y115.38 E149.00325
G1 X98.52 Y114.925 E149.01882
G1 X118.073 Y134.478 E149.93854
G1 X118.508 Y134.347 E149.95365
G1 X98.652 Y114.491 E150.88761
G1 X98.784 Y114.057 E150.9027
G1 X118.942 Y134.216 E151.8509
G1 X119.377 Y134.084 E151.86601
G1 X98.915 Y113.623 E152.82846
G1 X99.047 Y113.189 E152.84355
G1 X119.811 Y133.953 E153.82022
G1 X120.245 Y133.821 E153.83531
G1 X99.177 Y112.754 E154.82626
G1 X99.309 Y112.32 E154.84135
G1 X120.679 Y133.69 E155.84653
G1 X121.063 Y133.508 E155.86066
G1 X99.491 Y111.936 E156.87534
G1 X99.689 Y111.568 E156.88924
G1 X121.431 Y133.311 E157.91194
G1 X121.8 Y133.114 E157.92586
G1 X99.885 Y111.199 E158.95667
G1 X100.082 Y110.831 E158.97055
G1 X122.168 Y132.916 E160.00939
G1 X122.537 Y132.719 E160.0233
G1 X100.28 Y110.462 E161.0702
G1 X100.477 Y110.094 E161.08408
G1 X122.906 Y132.522 E162.13905
G1 X123.274 Y132.325 E162.15294
G1 X100.674 Y109.725 E163.21597
G1 X100.876 Y109.361 E163.22982
G1 X123.638 Y132.124 E164.30049
G1 X123.949 Y131.868 E164.31389
G1 X101.131 Y109.051 E165.38716
G1 X101.386 Y108.74 E165.40053
G1 X124.26 Y131.614 E166.47646
G1 X124.57 Y131.359 E166.48981
G1 X101.641 Y108.429 E167.56834
G1 X101.896 Y108.118 E167.58172
G1 X124.881 Y131.103 E168.66286
G1 X125.192 Y130.849 E168.67622
G1 X102.151 Y107.808 E169.75999
G1 X102.406 Y107.497 E169.77337
G1 X125.502 Y130.593 E170.85974
G1 X125.813 Y130.339 E170.87309
G1 X102.661 Y107.186 E171.96211
G1 X102.92 Y106.88 E171.97545
G1 X126.121 Y130.081 E173.06675
G1 X126.376 Y129.77 E173.08013
G1 X103.231 Y106.625 E174.1688
G1 X103.542 Y106.37 E174.18217
G1 X126.631 Y129.459 E175.26821
G1 X126.885 Y129.148 E175.28157
G1 X103.853 Y106.116 E176.36492
G1 X104.163 Y105.86 E176.37829
G1 X127.141 Y128.838 E177.45911
G1 X127.395 Y128.527 E177.47246
G1 X104.474 Y105.606 E178.5506
G1 X104.785 Y105.35 E178.56399
G1 X127.65 Y128.216 E179.63952
G1 X127.906 Y127.906 E179.65289
G1 X105.095 Y105.095 E180.72585
G1 X105.409 Y104.843 E180.73924
G1 X128.157 Y127.591 E181.80923
G1 X128.354 Y127.223 E181.82312
G1 X105.778 Y104.647 E182.88502
G1 X106.147 Y104.45 E182.89894
G1 X128.551 Y126.854 E183.95275
G1 X128.748 Y126.485 E183.96666
G1 X106.515 Y104.252 E185.01244
G1 X106.884 Y104.056 E185.02633
G1 X128.945 Y126.117 E186.06402
G1 X129.142 Y125.748 E186.07793
G1 X107.253 Y103.858 E187.10754
G1 X107.621 Y103.661 E187.12143
G1 X129.34 Y125.38 E188.14302
G1 X129.537 Y125.012 E188.1569
G1 X107.99 Y103.465 E189.17041
G1 X108.37 Y103.279 E189.18448
G1 X129.71 Y124.618 E190.18823
G1 X129.841 Y124.184 E190.2033
G1 X108.817 Y103.161 E191.19218
G1 X109.252 Y103.029 E191.2073
G1 X129.972 Y123.749 E192.18191
G1 X130.103 Y123.315 E192.19699
G1 X109.686 Y102.897 E193.15736
G1 X110.12 Y102.766 E193.17244
G1 X130.235 Y122.881 E194.11859
G1 X130.366 Y122.447 E194.13367
G1 X110.554 Y102.634 E195.06559
G1 X110.988 Y102.503 E195.08067
G1 X130.511 Y122.026 E195.99897
G1 X130.603 Y121.552 E196.01503
G1 X111.448 Y102.397 E196.91602
G1 X111.96 Y102.344 E196.93314
G1 X130.657 Y121.04 E197.81257
G1 X130.708 Y120.526 E197.82975
G1 X112.475 Y102.293 E198.68737
G1 X112.99 Y102.242 E198.70458
G1 X130.758 Y120.01 E199.54033
G1 X130.809 Y119.495 E199.55755
G1 X113.505 Y102.191 E200.37147
G1 X114.02 Y102.14 E200.38869
G1 X130.86 Y118.981 E201.18081
G1 X130.91 Y118.465 E201.19806
G1 X114.543 Y102.098 E201.96791
G1 X115.17 Y102.159 E201.98886
G1 X130.842 Y117.832 E202.72605
G1 X130.78 Y117.204 E202.74704
G1 X115.797 Y102.221 E203.45179
G1 X116.424 Y102.282 E203.47274
G1 X130.719 Y116.576 E204.14511
G1 X130.656 Y115.949 E204.16607
G1 X117.052 Y102.344 E204.80599
G1 X117.679 Y102.405 E204.82694
G1 X130.594 Y115.321 E205.43444
G1 X130.355 Y114.516 E205.46237
G1 X118.485 Y102.646 E206.0207
G1 X119.297 Y102.892 E206.04892
G1 X130.11 Y113.705 E206.55753
G1 X129.864 Y112.894 E206.58572
G1 X120.108 Y103.137 E207.04464
G1 X120.714 Y103.321 E207.0657
G1 X120.988 Y103.452 E207.0758
G1 X129.55 Y112.013 E207.47851
G1 X128.898 Y110.797 E207.5244
G1 X122.205 Y104.103 E207.83924
G1 X123.422 Y104.754 E207.88515
G1 X128.247 Y109.58 E208.11212
G1 X128.144 Y109.387 E208.1194
G1 X126.1 Y106.897 E208.22655
G1 X123.614 Y104.857 E208.33351
G1 X123.422 Y104.754 E208.34075
G1 F2700 E203.34075
G0 F300 X123.422 Y104.754 Z0.94
G0 F9000 X124.018 Y103.638
G0 X121.216 Y102.162
G0 X117.912 Y101.17
G0 X114.463 Y100.837
G0 X111.022 Y101.182
G0 X107.713 Y102.191
G0 X104.654 Y103.837
G0 X102.504 Y105.585
G0 X103.307 Y106.562
;TIME_ELAPSED:187.621275
;LAYER:-3
;TYPE:SUPPORT-INTERFACE
G1 F2700 E208.34075
G1 F1500 X102.562 Y107.308 E208.37582
G1 X100.857 Y109.386 E208.46522
G1 X100.635 Y109.8 E208.48085
G1 X105.802 Y104.633 E208.72389
G1 X107.017 Y103.984 E208.7697
G1 X99.984 Y111.016 E209.10049
G1 X99.337 Y112.229 E209.14621
G1 X108.23 Y103.337 E209.56449
G1 X109.04 Y103.092 E209.59263
G1 X99.092 Y113.04 E210.06056
G1 X98.846 Y113.851 E210.08875
G1 X109.851 Y102.847 E210.60636
G1 X110.662 Y102.601 E210.63455
G1 X98.601 Y114.662 E211.20186
G1 X98.457 Y115.137 E211.21837
G1 X98.401 Y115.428 E211.22823
G1 X111.429 Y102.4 E211.84103
G1 X112.062 Y102.333 E211.8622
G1 X98.334 Y116.061 E212.50792
G1 X98.272 Y116.688 E212.52888
G1 X112.689 Y102.271 E213.20701
G1 X113.317 Y102.209 E213.228
G1 X98.21 Y117.316 E213.93858
G1 X98.149 Y117.943 E213.95954
G1 X113.945 Y102.147 E214.70253
G1 X114.571 Y102.086 E214.72345
G1 X98.099 Y118.558 E215.49824
G1 X98.15 Y119.073 E215.51546
G1 X115.074 Y102.149 E216.31151
G1 X115.589 Y102.2 E216.32872
G1 X98.201 Y119.588 E217.1466
G1 X98.251 Y120.104 E217.16384
G1 X116.104 Y102.25 E218.00362
G1 X116.62 Y102.301 E218.02086
G1 X98.302 Y120.618 E218.88246
G1 X98.353 Y121.133 E218.89967
G1 X117.134 Y102.352 E219.78307
G1 X117.649 Y102.402 E219.80028
G1 X98.395 Y121.657 E220.70596
G1 X98.527 Y122.09 E220.72101
G1 X118.092 Y102.526 E221.64127
G1 X118.526 Y102.657 E221.65634
G1 X98.658 Y122.525 E222.59087
G1 X98.79 Y122.959 E222.60596
G1 X118.96 Y102.789 E223.5547
G1 X119.394 Y102.92 E223.56978
G1 X98.921 Y123.393 E224.53276
G1 X99.052 Y123.828 E224.54787
G1 X119.828 Y103.052 E225.52511
G1 X120.262 Y103.184 E225.5402
G1 X99.184 Y124.262 E226.53164
G1 X99.315 Y124.696 E226.54672
G1 X120.696 Y103.315 E227.55242
G1 X121.078 Y103.499 E227.56652
G1 X99.501 Y125.077 E228.58146
G1 X99.697 Y125.446 E228.59536
G1 X121.446 Y103.697 E229.61836
G1 X121.815 Y103.894 E229.63228
G1 X99.894 Y125.814 E230.66335
G1 X100.091 Y126.183 E230.67726
G1 X122.183 Y104.091 E231.7164
G1 X122.552 Y104.288 E231.73031
G1 X100.288 Y126.552 E232.77754
G1 X100.485 Y126.921 E232.79146
G1 X122.921 Y104.485 E233.84678
G1 X123.289 Y104.682 E233.86066
G1 X100.682 Y127.289 E234.92403
G1 X100.879 Y127.657 E234.93791
G1 X123.65 Y104.887 E236.00896
G1 X123.961 Y105.141 E236.02232
G1 X101.141 Y127.962 E237.09572
G1 X101.396 Y128.272 E237.10908
G1 X124.272 Y105.396 E238.18509
G1 X124.583 Y105.651 E238.19847
