;FLAVOR:Marlin
;TIME:36362
;Filament used: 13.9431m
;Layer height: 0.2
;MINX:39
;MINY:26.5
;MINZ:0.2
;MAXX:181
;MAXY:193.5
;MAXZ:3
;TARGET_MACHINE.NAME:Creality Ender-3 Pro
;Generated with Cura_SteamEngine 5.6.0
M82 ;absolute extrusion mode
; Ender 3 Custom Start G-code
G92 E0 ; Reset Extruder
G28 ; Home all axes
G1 Z5.0 F3000 ; Move Z Axis up a bit during heating to not damage bed
M104 S175 ; Start heating up the nozzle most of the way
M190 S85 ; Start heating the bed, wait until target temperature reached
M109 S215.0 ; Finish heating the nozzle
G1 Z2.0 F3000 ; Move Z Axis up little to prevent scratching of Heat Bed
G1 X0.1 Y20 Z0.3 F5000.0 ; Move to start position
G1 X0.1 Y200.0 Z0.3 F1500.0 E15 ; Draw the first line
G1 X0.4 Y200.0 Z0.3 F5000.0 ; Move to side a little
G1 X0.4 Y20 Z0.3 F1500.0 E30 ; Draw the second line
G92 E0 ; Reset Extruder
G1 Z2.0 F3000 ; Move Z Axis up little to prevent scratching of Heat Bed
G1 X5 Y20 Z0.3 F5000.0 ; Move over to prevent blob squish
G92 E0
G92 E0
G1 F1500 E-6.5
;LAYER_COUNT:15
;LAYER:0
M107
G0 X40.204 Y33.371 Z0.2
;TYPE:SKIRT
G1 F1500 E0
G1 F300 X39.883 Y33.766 E0.03174
G1 X39.626 Y34.238 E0.06526
G1 X39.363 Y34.838 E0.10611
G1 X39.251 Y35.124 E0.12527
G1 X39.078 Y35.691 E0.16224
G1 X39.015 Y36.287 E0.19961
G1 X39 Y37.049 E0.24714
G1 X39 Y183.008 E9.34955
G1 X39.01 Y183.652 E9.38971
G1 X39.068 Y184.264 E9.42805
G1 X39.22 Y184.783 E9.46177
G1 X39.417 Y185.294 E9.49593
G1 X39.609 Y185.731 E9.5257
G1 X39.872 Y186.218 E9.56021
G1 X40.242 Y186.673 E9.59678
G1 X40.751 Y187.2 E9.64248
G1 X45.306 Y191.756 E10.04424
G1 X45.871 Y192.296 E10.09298
G1 X46.266 Y192.617 E10.12473
G1 X46.784 Y192.897 E10.16145
G1 X47.225 Y193.09 E10.19147
G1 X47.648 Y193.255 E10.21978
G1 X48.212 Y193.425 E10.25652
G1 X48.802 Y193.487 E10.29352
G1 X49.555 Y193.5 E10.34048
G1 X170.508 Y193.5 E17.88344
G1 X171.15 Y193.49 E17.92349
G1 X171.758 Y193.433 E17.96157
G1 X172.277 Y193.281 E17.99529
G1 X172.789 Y193.084 E18.02951
G1 X173.23 Y192.892 E18.0595
G1 X173.712 Y192.63 E18.09371
G1 X174.131 Y192.295 E18.12717
G1 X174.706 Y191.743 E18.17688
G1 X179.256 Y187.194 E18.57812
G1 X179.73 Y186.704 E18.62063
G1 X180.144 Y186.196 E18.6615
G1 X180.397 Y185.715 E18.69539
G1 X180.762 Y184.832 E18.75498
G1 X180.921 Y184.312 E18.78889
G1 X180.985 Y183.715 E18.82633
G1 X181 Y182.95 E18.87405
G1 X181 Y36.977 E27.97733
G1 X180.986 Y36.287 E28.02037
G1 X180.932 Y35.744 E28.0544
G1 X180.781 Y35.224 E28.08817
G1 X180.586 Y34.715 E28.12216
G1 X180.395 Y34.275 E28.15207
G1 X180.127 Y33.778 E28.18728
G1 X179.715 Y33.277 E28.22774
G1 X179.239 Y32.789 E28.27025
G1 X174.694 Y28.244 E28.67109
G1 X174.129 Y27.704 E28.71983
G1 X173.734 Y27.383 E28.75157
G1 X173.216 Y27.103 E28.78829
G1 X172.775 Y26.91 E28.81831
G1 X172.352 Y26.745 E28.84663
G1 X171.788 Y26.575 E28.88337
G1 X171.198 Y26.513 E28.92036
G1 X170.444 Y26.5 E28.96739
G1 X49.492 Y26.5 E36.51029
G1 X48.847 Y26.51 E36.55052
G1 X48.231 Y26.568 E36.5891
G1 X47.712 Y26.721 E36.62285
G1 X47.18 Y26.928 E36.65845
G1 X46.769 Y27.108 E36.68643
G1 X46.29 Y27.368 E36.72042
G1 X45.829 Y27.742 E36.75744
G1 X45.3 Y28.252 E36.80326
G1 X40.744 Y32.806 E37.20499
G1 X40.204 Y33.371 E37.25373
G0 F1500 X40.67 Y33.749
G1 F300 X41.168 Y33.23 E37.29858
G1 X45.716 Y28.684 E37.6996
G1 X46.245 Y28.174 E37.74543
G1 X46.624 Y27.869 E37.77577
G1 X47.01 Y27.658 E37.8032
G1 X47.421 Y27.478 E37.83118
G1 X47.881 Y27.297 E37.86201
G1 X48.347 Y27.16 E37.8923
G1 X48.856 Y27.11 E37.9242
G1 X49.501 Y27.1 E37.96442
G1 X170.434 Y27.1 E45.50614
G1 X171.188 Y27.113 E45.55317
G1 X171.667 Y27.165 E45.58321
G1 X172.134 Y27.304 E45.6136
G1 X172.534 Y27.46 E45.64038
G1 X172.975 Y27.653 E45.6704
G1 X173.399 Y27.884 E45.70051
G1 X173.751 Y28.17 E45.72879
G1 X174.27 Y28.668 E45.77365
G1 X178.809 Y33.208 E46.17401
G1 X179.285 Y33.696 E46.21652
G1 X179.626 Y34.113 E46.25011
G1 X179.867 Y34.56 E46.28178
G1 X180.027 Y34.932 E46.30704
G1 X180.205 Y35.391 E46.33774
G1 X180.34 Y35.856 E46.36793
G1 X180.386 Y36.299 E46.39571
G1 X180.4 Y36.989 E46.43875
G1 X180.4 Y182.938 E55.54053
G1 X180.385 Y183.703 E55.58825
G1 X180.331 Y184.189 E55.61874
G1 X180.188 Y184.657 E55.64926
G1 X179.866 Y185.435 E55.70177
G1 X179.64 Y185.864 E55.73201
G1 X179.298 Y186.287 E55.76593
G1 X178.832 Y186.77 E55.80778
G1 X174.289 Y191.312 E56.20841
G1 X173.756 Y191.827 E56.25463
G1 X173.379 Y192.129 E56.28475
G1 X172.99 Y192.342 E56.31241
G1 X172.571 Y192.525 E56.34092
G1 X172.109 Y192.705 E56.37184
G1 X171.644 Y192.841 E56.40206
G1 X171.141 Y192.89 E56.43357
G1 X170.499 Y192.9 E56.47362
G1 X49.565 Y192.9 E64.01539
G1 X48.812 Y192.887 E64.06236
G1 X48.333 Y192.835 E64.09241
G1 X47.866 Y192.696 E64.12279
G1 X47.466 Y192.54 E64.14957
G1 X47.025 Y192.347 E64.17959
G1 X46.601 Y192.116 E64.2097
G1 X46.249 Y191.83 E64.23798
G1 X45.73 Y191.332 E64.28284
G1 X41.183 Y186.783 E64.68395
G1 X40.674 Y186.256 E64.72964
G1 X40.371 Y185.881 E64.75971
G1 X40.158 Y185.489 E64.78753
G1 X39.976 Y185.076 E64.81567
G1 X39.796 Y184.615 E64.84654
G1 X39.66 Y184.15 E64.87675
G1 X39.61 Y183.643 E64.90852
G1 X39.6 Y182.999 E64.94869
G1 X39.6 Y37.061 E74.04978
G1 X39.615 Y36.299 E74.09731
G1 X39.668 Y35.816 E74.12761
G1 X39.81 Y35.343 E74.15841
G1 X39.922 Y35.057 E74.17757
G1 X40.153 Y34.525 E74.21374
G1 X40.384 Y34.101 E74.24385
G1 X40.67 Y33.749 E74.27213
G0 F1500 X41.136 Y34.127
G1 F300 X41.592 Y33.654 E74.31311
G1 X46.134 Y29.114 E74.7136
G1 X46.621 Y28.641 E74.75593
G1 X46.954 Y28.373 E74.78259
G1 X47.298 Y28.185 E74.80704
G1 X47.643 Y28.035 E74.8305
G1 X48.05 Y27.873 E74.85782
G1 X48.462 Y27.752 E74.8846
G1 X48.865 Y27.71 E74.90986
G1 X49.51 Y27.7 E74.95009
G1 X170.425 Y27.7 E82.49068
G1 X171.124 Y27.71 E82.53428
G1 X171.55 Y27.756 E82.561
G1 X171.916 Y27.863 E82.58478
G1 X172.296 Y28.011 E82.61021
G1 X172.688 Y28.18 E82.63683
G1 X173.064 Y28.385 E82.66354
G1 X173.373 Y28.636 E82.68837
G1 X173.846 Y29.092 E82.72934
G1 X178.379 Y33.627 E83.12921
G1 X178.855 Y34.115 E83.17173
G1 X179.125 Y34.448 E83.19846
G1 X179.316 Y34.798 E83.22333
G1 X179.469 Y35.152 E83.24738
G1 X179.629 Y35.558 E83.27459
G1 X179.748 Y35.969 E83.30128
G1 X179.789 Y36.361 E83.32586
G1 X179.8 Y36.999 E83.36565
G1 X179.8 Y182.929 E92.46625
G1 X179.789 Y183.637 E92.5104
G1 X179.742 Y184.063 E92.53713
G1 X179.614 Y184.481 E92.56439
G1 X179.335 Y185.155 E92.60989
G1 X179.135 Y185.534 E92.63661
G1 X178.866 Y185.871 E92.6635
G1 X178.408 Y186.346 E92.70465
G1 X173.871 Y190.882 E93.10474
G1 X173.38 Y191.359 E93.14743
G1 X173.046 Y191.627 E93.17414
G1 X172.702 Y191.815 E93.19859
G1 X172.351 Y191.967 E93.22244
G1 X171.941 Y192.129 E93.24993
G1 X171.53 Y192.249 E93.27663
G1 X171.132 Y192.29 E93.30159
G1 X170.49 Y192.3 E93.34163
G1 X49.574 Y192.3 E100.88228
G1 X48.876 Y192.29 E100.92582
G1 X48.45 Y192.244 E100.95254
G1 X48.084 Y192.137 E100.97632
G1 X47.704 Y191.989 E101.00175
G1 X47.312 Y191.82 E101.02837
G1 X46.936 Y191.615 E101.05508
G1 X46.627 Y191.364 E101.0799
G1 X46.154 Y190.908 E101.12088
G1 X41.613 Y186.365 E101.52145
G1 X41.141 Y185.879 E101.5637
G1 X40.872 Y185.546 E101.5904
G1 X40.685 Y185.202 E101.61482
G1 X40.534 Y184.855 E101.63842
G1 X40.372 Y184.447 E101.66579
G1 X40.252 Y184.036 E101.6925
G1 X40.21 Y183.634 E101.7177
G1 X40.2 Y182.99 E101.75787
G1 X40.2 Y37.07 E110.85784
G1 X40.211 Y36.365 E110.90181
G1 X40.258 Y35.939 E110.92854
G1 X40.369 Y35.562 E110.95305
G1 X40.481 Y35.276 E110.9722
G1 X40.68 Y34.812 E111.00369
G1 X40.885 Y34.436 E111.0304
G1 X41.136 Y34.127 E111.05522
G1 F1500 E104.55522
;MESH:Front+panel.stl
G0 X44.158 Y33.826
G0 X45.857 Y35.524
G0 X46.473 Y37.173
G0 X46.995 Y37.794
G0 X47.7 Y38.202
G0 X48.348 Y38.316
G0 X49.331 Y38.254
G0 X49.329 Y38.254
;TYPE:WALL-INNER
G1 F1500 E111.05522
G1 F300 X48.956 Y38.356 E111.07934
G1 X48.508 Y38.405 E111.10744
G1 X48.08 Y38.366 E111.13424
G1 X47.677 Y38.26 E111.16023
G1 X47.292 Y38.079 E111.18676
G1 X46.956 Y37.844 E111.21233
G1 X46.656 Y37.544 E111.23879
G1 X46.422 Y37.209 E111.26427
G1 X46.242 Y36.83 E111.29044
G1 X46.134 Y36.419 E111.31694
G1 X46.095 Y36 E111.34318
G1 X46.134 Y35.578 E111.36961
G1 X46.242 Y35.169 E111.39599
G1 F297.5 X46.458 Y34.731 E111.4267
G1 F289.4 X46.599 Y34.51 E111.44365
G1 F284.4 X46.965 Y34.128 E111.47846
G1 F289.4 X47.231 Y33.958 E111.49887
G1 F297.5 X47.656 Y33.746 E111.52873
G1 F300 X48.079 Y33.634 E111.55602
G1 X48.499 Y33.595 E111.58233
G1 X48.921 Y33.634 E111.60876
G1 X49.328 Y33.741 E111.635
G1 X49.709 Y33.922 E111.6613
G1 X50.044 Y34.156 E111.68679
G1 X50.344 Y34.456 E111.71325
G1 X50.578 Y34.791 E111.73873
G1 X50.758 Y35.17 E111.7649
G1 X50.866 Y35.579 E111.79128
G1 X50.905 Y36.005 E111.81795
G1 X50.86 Y36.436 E111.84498
G1 X50.758 Y36.82 E111.86976
G1 X50.577 Y37.213 E111.89674
G1 X50.303 Y37.585 E111.92555
G1 X50.043 Y37.84 E111.94826
G1 X49.701 Y38.079 E111.97428
G1 X49.329 Y38.254 E111.99992
G1 F1500 E105.49992
G0 X49.331 Y38.254
G0 X50.547 Y37.739
G0 X119.983 Y60.466
G0 X121.948 Y62.317
G0 X122.635 Y62.862
G0 X123.315 Y63.303
G0 X124.173 Y63.729
G0 X124.64 Y63.903
G0 X126.623 Y64.435
G0 X126.618 Y64.434
G1 F1500 E111.99992
G1 F300 X125.757 Y64.3 E112.05426
G1 X124.94 Y64.078 E112.10706
G1 X124.15 Y63.786 E112.15958
G1 X123.281 Y63.354 E112.2201
G1 X122.599 Y62.909 E112.27089
G1 X121.932 Y62.383 E112.32386
G1 X121.288 Y61.757 E112.37987
G1 X120.706 Y61.051 E112.43693
G1 X120.224 Y60.323 E112.49138
G1 X119.808 Y59.526 E112.54745
G1 X119.483 Y58.7 E112.6028
G1 X119.241 Y57.805 E112.66062
G1 X119.097 Y56.912 E112.71703
G1 X119.052 Y56.137 E112.76544
G1 X119.088 Y55.237 E112.82161
G1 X119.235 Y54.271 E112.88255
G1 X119.465 Y53.416 E112.93777
G1 X119.763 Y52.63 E112.99019
G1 X120.167 Y51.831 E113.04602
G1 X120.674 Y51.047 E113.10425
G1 X121.199 Y50.397 E113.15635
G1 X121.828 Y49.764 E113.212
G1 X122.556 Y49.176 E113.27036
G1 X123.291 Y48.702 E113.32491
G1 X124.1 Y48.292 E113.38147
G1 X124.839 Y48.008 E113.43084
G1 X125.778 Y47.754 E113.4915
G1 X126.563 Y47.631 E113.54105
G1 X127.5 Y47.58 E113.59957
G1 X128.436 Y47.631 E113.65803
G1 X129.215 Y47.754 E113.70721
G1 X130.166 Y48.012 E113.76867
G1 X130.992 Y48.335 E113.82398
G1 X131.781 Y48.744 E113.8794
G1 X132.523 Y49.235 E113.93488
G1 X133.205 Y49.797 E113.99
G1 X133.83 Y50.433 E114.0456
G1 X134.355 Y51.088 E114.09795
G1 X134.854 Y51.871 E114.15586
G1 X135.234 Y52.627 E114.20862
G1 X135.551 Y53.462 E114.26432
G1 X135.776 Y54.32 E114.31964
G1 X135.902 Y55.144 E114.37162
G1 X135.949 Y56.042 E114.4277
G1 X135.897 Y56.963 E114.48523
G1 X135.739 Y57.897 E114.5443
G1 X135.5 Y58.747 E114.59937
G1 X135.19 Y59.528 E114.65177
G1 X134.778 Y60.321 E114.7075
G1 X134.319 Y61.016 E114.75944
G1 X133.784 Y61.681 E114.81267
G1 X133.203 Y62.267 E114.86413
G1 X132.477 Y62.861 E114.92263
G1 X131.743 Y63.338 E114.97722
G1 X130.953 Y63.743 E115.03258
G1 X130.125 Y64.063 E115.08794
G1 X129.268 Y64.295 E115.14331
G1 X128.444 Y64.427 E115.19535
G1 X127.522 Y64.481 E115.25295
G1 X126.618 Y64.434 E115.3094
G1 F1500 E108.8094
G0 X126.623 Y64.435
G0 X127.524 Y64.764
G0 X127.503 Y72.474
G0 X125.431 Y73.248
G0 X124.804 Y73.577
G0 X124.226 Y73.991
G0 X123.712 Y74.479
G0 X123.27 Y75.033
G0 X122.911 Y75.639
G0 X122.65 Y76.241
G0 X122.454 Y76.976
G0 X122.368 Y77.612
G0 X122.369 Y78.309
G0 X122.466 Y79.017
G0 X122.658 Y79.687
G0 X122.937 Y80.329
G0 X123.275 Y80.88
G0 X123.713 Y81.43
G0 X124.227 Y81.918
G0 X124.804 Y82.332
G0 X125.312 Y82.598
G0 X126.791 Y83.109
G1 F1500 E115.3094
G1 F300 X126.084 Y82.96 E115.35446
G1 X125.44 Y82.728 E115.39715
G1 X124.77 Y82.381 E115.4442
G1 X124.189 Y81.966 E115.48873
G1 X123.666 Y81.47 E115.53368
G1 X123.21 Y80.891 E115.57964
G1 X122.883 Y80.358 E115.61864
G1 X122.6 Y79.702 E115.66319
G1 X122.403 Y79.001 E115.7086
G1 X122.31 Y78.313 E115.7519
G1 X122.308 Y77.608 E115.79586
G1 X122.396 Y76.963 E115.83646
G1 X122.592 Y76.222 E115.88426
G1 X122.863 Y75.601 E115.92651
G1 X123.219 Y74.998 E115.97018
G1 X123.67 Y74.433 E116.01527
G1 X124.189 Y73.941 E116.05987
G1 X124.782 Y73.519 E116.10525
G1 X125.376 Y73.208 E116.14707
G1 X126.077 Y72.953 E116.19359
G1 X126.827 Y72.798 E116.24135
G1 X127.454 Y72.757 E116.28053
G1 X128.187 Y72.8 E116.32632
G1 X128.879 Y72.942 E116.37038
G1 X129.568 Y73.186 E116.41596
G1 X130.195 Y73.507 E116.45989
G1 X130.78 Y73.923 E116.50465
G1 X131.332 Y74.44 E116.55182
G1 X131.772 Y74.992 E116.59584
G1 X132.094 Y75.515 E116.63414
G1 X132.399 Y76.202 E116.68102
G1 X132.582 Y76.838 E116.72229
G1 X132.691 Y77.598 E116.77017
G1 X132.69 Y78.32 E116.8152
G1 X132.611 Y78.901 E116.85176
G1 X132.434 Y79.595 E116.89643
G1 X132.129 Y80.325 E116.94577
G1 X131.781 Y80.906 E116.988
G1 X131.332 Y81.472 E117.03306
G1 X130.817 Y81.964 E117.07747
G1 X130.23 Y82.386 E117.12256
G1 X129.596 Y82.717 E117.16716
G1 X128.919 Y82.96 E117.21202
G1 X128.246 Y83.102 E117.25491
G1 X127.503 Y83.156 E117.30137
G1 X126.791 Y83.109 E117.34587
G1 F1500 E110.84587
G0 X127.938 Y83.059
G0 X130.373 Y82.627
G0 X151.367 Y82.622
G0 X152.834 Y82.96
G1 F1500 E117.34587
G1 F300 X152.19 Y82.728 E117.38856
G1 X151.52 Y82.381 E117.43561
G1 X150.939 Y81.966 E117.48014
G1 X150.417 Y81.471 E117.525
G1 X149.977 Y80.916 E117.56917
G1 X149.648 Y80.381 E117.60834
G1 X149.365 Y79.742 E117.65192
G1 X149.156 Y79.018 E117.69891
G1 X149.06 Y78.313 E117.74329
G1 X149.06 Y77.59 E117.78837
G1 X149.147 Y76.958 E117.82816
G1 X149.348 Y76.213 E117.87628
G1 X149.611 Y75.606 E117.91754
G1 X149.969 Y74.999 E117.96148
G1 X150.419 Y74.433 E118.00658
G1 X150.939 Y73.941 E118.05122
G1 X151.532 Y73.519 E118.09661
G1 X152.126 Y73.208 E118.13842
G1 X152.827 Y72.953 E118.18494
G1 X153.577 Y72.798 E118.2327
G1 X154.204 Y72.757 E118.27189
G1 X154.937 Y72.8 E118.31768
G1 X155.629 Y72.942 E118.36173
G1 X156.318 Y73.186 E118.40731
G1 X156.945 Y73.507 E118.45124
G1 X157.53 Y73.923 E118.49601
G1 X158.082 Y74.44 E118.54317
G1 X158.526 Y74.998 E118.58764
G1 X158.866 Y75.55 E118.62807
G1 X159.149 Y76.201 E118.67234
G1 X159.341 Y76.878 E118.71623
G1 X159.44 Y77.597 E118.76149
G1 X159.442 Y78.302 E118.80546
G1 X159.357 Y78.926 E118.84473
G1 X159.173 Y79.632 E118.89023
G1 X158.898 Y80.289 E118.93464
G1 X158.531 Y80.906 E118.97941
G1 X158.082 Y81.472 E119.02447
G1 X157.567 Y81.964 E119.06889
G1 X156.98 Y82.386 E119.11397
G1 X156.346 Y82.717 E119.15857
G1 X155.669 Y82.96 E119.20343
G1 X154.996 Y83.102 E119.24633
G1 X154.253 Y83.156 E119.29278
G1 X153.541 Y83.109 E119.33728
G1 X152.834 Y82.96 E119.38234
G1 F1500 E112.88234
G0 X151.554 Y82.332
G0 X150.977 Y81.918
G0 X150.463 Y81.43
G0 X150.025 Y80.88
G0 X149.687 Y80.329
G0 X149.408 Y79.687
G0 X149.216 Y79.017
G0 X149.119 Y78.309
G0 X149.118 Y77.612
G0 X149.204 Y76.976
G0 X149.4 Y76.241
G0 X149.661 Y75.639
G0 X150.02 Y75.033
G0 X150.462 Y74.479
G0 X150.976 Y73.991
G0 X151.304 Y73.756
G0 X153.5 Y72.521
G0 X153.933 Y64.746
G0 X152.507 Y64.3
G1 F1500 E119.38234
G1 F300 X151.69 Y64.078 E119.43514
G1 X150.9 Y63.786 E119.48766
G1 X150.031 Y63.354 E119.54818
G1 X149.349 Y62.909 E119.59897
G1 X148.682 Y62.383 E119.65194
G1 X148.018 Y61.736 E119.70976
G1 X147.48 Y61.082 E119.76257
G1 X146.975 Y60.324 E119.81937
G1 X146.558 Y59.526 E119.87552
G1 X146.218 Y58.654 E119.93389
G1 X146.011 Y57.896 E119.98289
G1 X145.851 Y56.961 E120.04205
G1 X145.801 Y56.035 E120.09988
G1 X145.842 Y55.19 E120.15264
G1 X145.974 Y54.318 E120.20764
G1 X146.2 Y53.459 E120.26303
G1 X146.513 Y52.629 E120.31835
G1 X146.895 Y51.871 E120.37128
G1 X147.396 Y51.084 E120.42947
G1 X147.982 Y50.362 E120.48746
G1 X148.548 Y49.792 E120.53755
G1 X149.306 Y49.176 E120.59846
G1 X150.041 Y48.702 E120.653
G1 X150.85 Y48.292 E120.70956
G1 X151.589 Y48.008 E120.75894
G1 X152.528 Y47.754 E120.8196
G1 X153.313 Y47.631 E120.86915
G1 X154.25 Y47.58 E120.92767
G1 X155.186 Y47.631 E120.98613
G1 X155.965 Y47.754 E121.03531
G1 X156.916 Y48.012 E121.09676
G1 X157.699 Y48.314 E121.1491
G1 X158.483 Y48.715 E121.20402
G1 X159.198 Y49.18 E121.25721
G1 X159.921 Y49.764 E121.31517
G1 X160.55 Y50.398 E121.37086
G1 X161.105 Y51.089 E121.42613
G1 X161.557 Y51.788 E121.47804
G1 X162.002 Y52.671 E121.53971
G1 X162.314 Y53.508 E121.59541
G1 X162.534 Y54.368 E121.65077
G1 X162.66 Y55.236 E121.70547
G1 X162.7 Y56.083 E121.75835
