;FLAVOR:Marlin
;TIME:1150
;Filament used: 0.297523m
;Layer height: 0.2
;MINX:27.314
;MINY:28.822
;MINZ:0.2
;MAXX:193.884
;MAXY:194.266
;MAXZ:12
;TARGET_MACHINE.NAME:Creality Ender-3 Pro
;Generated with Cura_SteamEngine 5.6.0
M82 ;absolute extrusion mode
; Ender 3 Custom Start G-code
G92 E0 ; Reset Extruder
G28 ; Home all axes
G1 Z5.0 F3000 ; Move Z Axis up a bit during heating to not damage bed
M104 S175 ; Start heating up the nozzle most of the way
M190 S85 ; Start heating the bed, wait until target temperature reached
M109 S215.0 ; Finish heating the nozzle
G1 Z2.0 F3000 ; Move Z Axis up little to prevent scratching of Heat Bed
G1 X0.1 Y20 Z0.3 F5000.0 ; Move to start position
G1 X0.1 Y200.0 Z0.3 F1500.0 E15 ; Draw the first line
G1 X0.4 Y200.0 Z0.3 F5000.0 ; Move to side a little
G1 X0.4 Y20 Z0.3 F1500.0 E30 ; Draw the second line
G92 E0 ; Reset Extruder
G1 Z2.0 F3000 ; Move Z Axis up little to prevent scratching of Heat Bed
G1 X5 Y20 Z0.3 F5000.0 ; Move over to prevent blob squish
G92 E0
G92 E0
G1 F1500 E-6.5
;LAYER_COUNT:35
;LAYER:0
M107
G0 X108.64 Y180.272 Z0.2
;TYPE:SKIRT
G1 F1500 E0
G1 F300 X108.95 Y180.089 E0.02245
G1 X109.354 Y179.882 E0.05076
G1 X110.038 Y179.602 E0.09685
G1 X111.066 Y179.453 E0.16163
G1 X111.484 Y179.443 E0.1877
G1 X112.791 Y179.442 E0.26921
G1 X113.628 Y179.461 E0.32142
G1 X114.248 Y179.528 E0.36031
G1 X115.098 Y179.823 E0.41642
G1 X115.651 Y180.089 E0.45469
G1 X116.183 Y180.415 E0.4936
G1 X116.727 Y180.823 E0.53601
G1 X117.069 Y181.124 E0.56442
G1 X117.377 Y181.433 E0.59163
G1 X117.658 Y181.753 E0.61819
G1 X117.942 Y182.116 E0.64693
G1 X118.31 Y182.697 E0.68982
G1 X118.538 Y183.137 E0.72072
G1 X118.765 Y183.662 E0.75639
G1 X118.897 Y184.035 E0.78107
G1 X119.041 Y184.541 E0.81388
G1 X119.1 Y184.805 E0.83075
G1 X119.196 Y185.483 E0.87345
G1 X119.215 Y185.753 E0.89033
G1 X119.222 Y186.199 E0.91815
G1 X119.204 Y186.66 E0.94692
G1 X119.136 Y187.261 E0.98464
G1 X119.027 Y187.805 E1.01924
G1 X118.799 Y188.548 E1.06771
G1 X118.454 Y189.32 E1.12044
G1 X118.045 Y190.004 E1.17014
G1 X117.802 Y190.343 E1.19615
G1 X117.185 Y191.049 E1.25462
G1 X116.728 Y191.466 E1.2932
G1 X116.094 Y191.936 E1.34242
G1 X115.601 Y192.232 E1.37828
G1 X115.098 Y192.472 E1.41304
G1 X114.521 Y192.695 E1.45162
G1 X113.982 Y192.85 E1.48659
G1 X113.232 Y193.001 E1.5343
G1 X111.467 Y192.985 E1.64438
G1 X110.639 Y192.877 E1.69645
G1 X110.076 Y192.694 E1.73337
G1 X109.553 Y192.491 E1.76836
G1 X109.265 Y192.359 E1.78811
G1 X108.86 Y192.147 E1.81662
G1 X108.334 Y191.813 E1.85548
G1 X107.872 Y191.461 E1.8917
G1 X107.513 Y191.142 E1.92165
G1 X107.272 Y190.897 E1.94308
G1 X107.035 Y190.63 E1.96535
G1 X106.68 Y190.178 E2.00119
G1 X106.497 Y189.909 E2.02148
G1 X106.199 Y189.408 E2.05783
G1 X105.889 Y188.745 E2.10347
G1 X105.645 Y188.044 E2.14976
G1 X105.544 Y187.631 E2.17628
G1 X105.456 Y187.144 E2.20714
G1 X105.392 Y186.566 E2.24341
G1 X105.379 Y186.158 E2.26886
G1 X105.405 Y185.604 E2.30345
G1 X105.432 Y185.355 E2.31907
G1 X105.559 Y184.61 E2.3662
G1 X105.7 Y184.051 E2.40215
G1 X105.932 Y183.445 E2.44262
G1 X106.207 Y182.873 E2.4822
G1 X106.535 Y182.326 E2.52197
G1 X106.927 Y181.79 E2.56339
G1 X107.266 Y181.397 E2.59575
G1 X107.683 Y180.984 E2.63235
G1 X108.064 Y180.668 E2.66322
G1 X108.64 Y180.272 E2.70681
G0 F1500 X108.945 Y180.789
G1 F300 X109.255 Y180.606 E2.72926
G1 X109.626 Y180.417 E2.75523
G1 X110.2 Y180.184 E2.79386
G1 X111.081 Y180.053 E2.84941
G1 X111.484 Y180.043 E2.87455
G1 X112.779 Y180.042 E2.95531
G1 X113.563 Y180.058 E3.00421
G1 X114.117 Y180.118 E3.03896
G1 X114.841 Y180.365 E3.08667
G1 X115.34 Y180.602 E3.12112
G1 X115.824 Y180.896 E3.15643
G1 X116.332 Y181.275 E3.19596
G1 X116.644 Y181.548 E3.22181
G1 X116.952 Y181.857 E3.24902
G1 X117.185 Y182.123 E3.27107
G1 X117.469 Y182.486 E3.29982
G1 X117.802 Y183.016 E3.33885
G1 X117.988 Y183.376 E3.36412
G1 X118.199 Y183.862 E3.39716
G1 X118.331 Y184.235 E3.42184
G1 X118.455 Y184.672 E3.45017
G1 X118.514 Y184.936 E3.46704
G1 X118.597 Y185.525 E3.50413
G1 X118.616 Y185.795 E3.52101
G1 X118.622 Y186.176 E3.54477
G1 X118.604 Y186.637 E3.57354
G1 X118.547 Y187.146 E3.60549
G1 X118.452 Y187.633 E3.63643
G1 X118.25 Y188.306 E3.68025
G1 X117.938 Y189.013 E3.72844
G1 X117.557 Y189.654 E3.77494
G1 X117.314 Y189.993 E3.80096
G1 X116.778 Y190.608 E3.85183
G1 X116.369 Y190.985 E3.88652
G1 X115.782 Y191.423 E3.93219
G1 X115.341 Y191.691 E3.96438
G1 X114.879 Y191.913 E3.99634
G1 X114.355 Y192.118 E4.03143
G1 X113.816 Y192.273 E4.06641
G1 X113.174 Y192.4 E4.10722
G1 X111.545 Y192.39 E4.20881
G1 X110.772 Y192.289 E4.25743
G1 X110.261 Y192.123 E4.29093
G1 X109.802 Y191.945 E4.32164
G1 X109.543 Y191.827 E4.33938
G1 X109.138 Y191.615 E4.36789
G1 X108.696 Y191.334 E4.40056
G1 X108.269 Y191.011 E4.43394
G1 X107.941 Y190.721 E4.46125
G1 X107.7 Y190.476 E4.48268
G1 X107.484 Y190.232 E4.503
G1 X107.175 Y189.838 E4.53423
G1 X107.013 Y189.602 E4.55208
G1 X106.715 Y189.101 E4.58843
G1 X106.455 Y188.546 E4.62665
G1 X106.228 Y187.901 E4.6693
G1 X106.127 Y187.488 E4.69581
G1 X106.052 Y187.077 E4.72187
G1 X105.992 Y186.547 E4.75513
G1 X105.979 Y186.139 E4.78059
G1 X106.002 Y185.669 E4.80993
G1 X106.029 Y185.42 E4.82555
G1 X106.141 Y184.757 E4.86748
G1 X106.282 Y184.198 E4.90344
G1 X106.474 Y183.703 E4.93655
G1 X106.722 Y183.182 E4.97253
G1 X107.05 Y182.635 E5.01231
G1 X107.41 Y182.146 E5.05017
G1 X107.69 Y181.822 E5.07688
G1 X108.069 Y181.444 E5.11026
G1 X108.405 Y181.162 E5.13762
G1 X108.945 Y180.789 E5.17854
G0 F1500 X109.251 Y181.305
G1 F300 X109.527 Y181.141 E5.19857
G1 X109.898 Y180.952 E5.22453
G1 X110.357 Y180.767 E5.25539
G1 X111.096 Y180.653 E5.30203
G1 X111.484 Y180.643 E5.32623
G1 X112.768 Y180.642 E5.4063
G1 X113.498 Y180.655 E5.45184
G1 X113.988 Y180.708 E5.48257
G1 X114.647 Y180.933 E5.526
G1 X115.078 Y181.142 E5.55587
G1 X115.51 Y181.407 E5.58748
G1 X115.939 Y181.728 E5.62089
G1 X116.22 Y181.972 E5.6441
G1 X116.501 Y182.253 E5.66888
G1 X116.712 Y182.493 E5.68881
G1 X116.996 Y182.856 E5.71755
G1 X117.27 Y183.294 E5.74977
G1 X117.438 Y183.616 E5.77242
G1 X117.634 Y184.064 E5.80292
G1 X117.754 Y184.399 E5.82511
G1 X117.869 Y184.803 E5.8513
G1 X117.928 Y185.067 E5.86817
G1 X117.998 Y185.567 E5.89966
G1 X118.017 Y185.837 E5.91654
G1 X118.022 Y186.153 E5.93625
G1 X118.004 Y186.614 E5.96502
G1 X117.957 Y187.035 E5.99144
G1 X117.876 Y187.465 E6.01872
G1 X117.7 Y188.067 E6.05784
G1 X117.421 Y188.708 E6.10143
G1 X117.069 Y189.304 E6.1446
G1 X116.826 Y189.643 E6.17061
G1 X116.371 Y190.167 E6.21389
G1 X115.962 Y190.544 E6.24858
G1 X115.468 Y190.912 E6.287
G1 X115.079 Y191.151 E6.31547
G1 X114.658 Y191.355 E6.34464
G1 X114.189 Y191.541 E6.37611
G1 X113.65 Y191.696 E6.41108
G1 X113.116 Y191.8 E6.44501
G1 X111.623 Y191.795 E6.53812
G1 X110.905 Y191.701 E6.58328
G1 X110.446 Y191.552 E6.61337
G1 X110.049 Y191.398 E6.63993
G1 X109.821 Y191.295 E6.65553
G1 X109.416 Y191.083 E6.68404
G1 X109.057 Y190.855 E6.71056
G1 X108.665 Y190.56 E6.74115
G1 X108.369 Y190.3 E6.76572
G1 X108.128 Y190.055 E6.78716
G1 X107.934 Y189.835 E6.80545
G1 X107.67 Y189.498 E6.83214
G1 X107.508 Y189.262 E6.85
G1 X107.231 Y188.795 E6.88386
G1 X107.02 Y188.344 E6.91491
G1 X106.811 Y187.758 E6.95371
G1 X106.71 Y187.345 E6.98022
G1 X106.648 Y187.007 E7.00165
G1 X106.592 Y186.528 E7.03173
G1 X106.579 Y186.12 E7.05719
G1 X106.599 Y185.734 E7.08129
G1 X106.626 Y185.485 E7.09691
G1 X106.724 Y184.899 E7.13396
G1 X106.842 Y184.413 E7.16515
G1 X107.017 Y183.958 E7.19555
G1 X107.238 Y183.488 E7.22794
G1 X107.534 Y182.989 E7.26412
G1 X107.865 Y182.537 E7.29906
G1 X108.116 Y182.245 E7.32307
G1 X108.455 Y181.904 E7.35306
G1 X108.791 Y181.622 E7.38042
G1 X109.251 Y181.305 E7.41525
G0 F1500 X109.559 Y181.82
G1 F300 X109.803 Y181.674 E7.43299
G1 X110.122 Y181.509 E7.45538
G1 X110.52 Y181.349 E7.48214
G1 X111.112 Y181.253 E7.51954
G1 X111.484 Y181.243 E7.54274
G1 X112.759 Y181.242 E7.62226
G1 X113.434 Y181.252 E7.66436
G1 X113.86 Y181.298 E7.69108
G1 X114.389 Y181.475 E7.72586
G1 X114.767 Y181.655 E7.75197
G1 X115.152 Y181.888 E7.78004
G1 X115.548 Y182.183 E7.81083
G1 X115.797 Y182.397 E7.83131
G1 X116.051 Y182.65 E7.85366
G1 X116.239 Y182.863 E7.87138
G1 X116.523 Y183.226 E7.90013
G1 X116.739 Y183.574 E7.92567
G1 X116.889 Y183.858 E7.9457
G1 X117.07 Y184.268 E7.97365
G1 X117.177 Y184.564 E7.99328
G1 X117.283 Y184.934 E8.01728
G1 X117.342 Y185.198 E8.03415
G1 X117.399 Y185.609 E8.06002
G1 X117.418 Y185.879 E8.0769
G1 X117.422 Y186.13 E8.09256
G1 X117.404 Y186.591 E8.12133
G1 X117.367 Y186.924 E8.14222
G1 X117.286 Y187.354 E8.16951
G1 X117.125 Y187.896 E8.20477
G1 X116.904 Y188.404 E8.23932
G1 X116.581 Y188.954 E8.2791
G1 X116.338 Y189.293 E8.30511
G1 X115.962 Y189.728 E8.34097
G1 X115.602 Y190.064 E8.37168
G1 X115.15 Y190.403 E8.40691
G1 X114.817 Y190.611 E8.4314
G1 X114.396 Y190.815 E8.46057
G1 X114.02 Y190.965 E8.48582
G1 X113.535 Y191.107 E8.51733
G1 X113.058 Y191.2 E8.54764
G1 X111.701 Y191.2 E8.63227
G1 X111.038 Y191.113 E8.67397
G1 X110.631 Y190.981 E8.70065
G1 X110.296 Y190.851 E8.72306
G1 X110.068 Y190.748 E8.73866
G1 X109.735 Y190.575 E8.76206
G1 X109.417 Y190.375 E8.78549
G1 X109.059 Y190.107 E8.81338
G1 X108.797 Y189.879 E8.83504
G1 X108.556 Y189.634 E8.85647
G1 X108.385 Y189.439 E8.87264
G1 X108.165 Y189.158 E8.8949
G1 X108.003 Y188.922 E8.91275
G1 X107.773 Y188.538 E8.94067
G1 X107.584 Y188.139 E8.9682
G1 X107.394 Y187.615 E9.00296
G1 X107.293 Y187.202 E9.02947
G1 X107.244 Y186.934 E9.04646
G1 X107.192 Y186.509 E9.07317
G1 X107.179 Y186.101 E9.09862
G1 X107.196 Y185.799 E9.11749
G1 X107.223 Y185.55 E9.13311
G1 X107.309 Y185.034 E9.16573
G1 X107.403 Y184.626 E9.19184
G1 X107.561 Y184.211 E9.21953
G1 X107.756 Y183.791 E9.24841
G1 X108.019 Y183.342 E9.28086
G1 X108.322 Y182.926 E9.31296
G1 X108.543 Y182.666 E9.33424
G1 X108.841 Y182.364 E9.3607
G1 X109.177 Y182.082 E9.38805
G1 X109.559 Y181.82 E9.41694
G1 F1500 E2.91694
;MESH:holder.stl(8)
G0 X110.464 Y184.621
G0 X110.612 Y186.425
;TYPE:WALL-INNER
G1 F1500 E9.41694
G1 F180.9 X110.603 Y186.142 E9.44622
G1 F185 X110.637 Y185.583 E9.50286
G1 F220.6 X110.766 Y185.094 E9.54575
G1 F290.3 X110.94 Y184.776 E9.56911
G1 F340.9 X111.103 Y184.597 E9.5824
G1 F356.4 X111.434 Y184.394 E9.60278
G1 F373.4 X111.705 Y184.372 E9.6164
G1 F391.3 X112.906 Y184.372 E9.67382
G1 F375.8 X113.227 Y184.398 E9.68985
G1 F362.2 X113.517 Y184.607 E9.70832
G1 F344.2 X113.675 Y184.783 E9.72118
G1 F290.3 X113.845 Y185.095 E9.74407
G1 F232.9 X113.935 Y185.432 E9.7721
G1 F194.8 X114.004 Y185.902 E9.81772
G1 F180.2 X114.01 Y186.194 E9.84805
G1 F182.9 X113.991 Y186.519 E9.88134
G1 F1500 E3.38134
G0 X113.332 Y184.774
G0 X111.277 Y184.774
G0 X110.867 Y187.484
G0 X111.405 Y188.482
;TYPE:WALL-OUTER
G1 F1500 E9.88134
G1 F300 X111.406 Y185.167 E10.08807
G1 X111.501 Y184.981 E10.1011
G1 X111.653 Y184.906 E10.11167
G1 X112.971 Y184.902 E10.19386
G1 X113.146 Y185.018 E10.20696
G1 X113.205 Y185.168 E10.21701
G1 X113.214 Y188.475 E10.42324
G1 X113.516 Y188.336 E10.44398
G1 X113.784 Y188.164 E10.46383
G1 X114.018 Y187.971 E10.48275
G1 X114.315 Y187.653 E10.50989
G1 X114.507 Y187.339 E10.53284
G1 X114.64 Y187.068 E10.55166
G1 X114.758 Y186.68 E10.57696
G1 X114.814 Y186.224 E10.60561
G1 X114.795 Y185.793 E10.63251
G1 X114.711 Y185.435 E10.65544
G1 X114.559 Y185.016 E10.68324
G1 X114.189 Y184.474 E10.72417
G1 X113.897 Y184.207 E10.74884
G1 X113.585 Y183.981 E10.77287
G1 X113.294 Y183.843 E10.79295
G1 X111.314 Y183.842 E10.91643
G1 X111.102 Y183.939 E10.93097
G1 X110.764 Y184.158 E10.95608
G1 X110.443 Y184.453 E10.98327
G1 X110.233 Y184.731 E11.005
G1 X110.1 Y184.947 E11.02082
G1 X109.975 Y185.205 E11.0387
G1 X109.874 Y185.529 E11.05986
G1 X109.82 Y185.824 E11.07856
G1 X109.8 Y186.142 E11.09844
G1 X109.825 Y186.542 E11.12343
G1 X109.895 Y186.837 E11.14234
G1 X110.007 Y187.143 E11.16266
G1 X110.13 Y187.396 E11.1802
G1 X110.324 Y187.676 E11.20144
G1 X110.56 Y187.951 E11.22404
G1 X110.896 Y188.214 E11.25065
G1 X111.179 Y188.38 E11.27111
G1 X111.405 Y188.482 E11.28658
M104 S215
G1 F1500 E4.78658
;MESH:NONMESH
G0 F300 X111.405 Y188.482 Z0.4
G0 F1500 X110.867 Y187.484
G0 X110.464 Y184.621
G0 X109.559 Y181.82
;TIME_ELAPSED:49.768863
;LAYER:1
M140 S60
M106 S85
;TYPE:SKIRT
G1 F1500 E11.28658
G1 F300 X109.803 Y181.674 E11.29603
G1 X110.122 Y181.509 E11.30798
G1 X110.52 Y181.349 E11.32225
G1 X111.112 Y181.253 E11.34219
G1 X111.484 Y181.243 E11.35457
G1 X112.759 Y181.242 E11.39698
G1 X113.434 Y181.252 E11.41943
G1 X113.86 Y181.298 E11.43368
G1 X114.389 Y181.475 E11.45224
G1 X114.767 Y181.655 E11.46616
G1 X115.152 Y181.888 E11.48113
G1 X115.548 Y182.183 E11.49755
G1 X115.797 Y182.397 E11.50847
G1 X116.051 Y182.65 E11.5204
G1 X116.239 Y182.863 E11.52985
G1 X116.523 Y183.226 E11.54517
G1 X116.739 Y183.574 E11.5588
G1 X116.889 Y183.858 E11.56948
G1 X117.07 Y184.268 E11.58439
G1 X117.177 Y184.564 E11.59486
G1 X117.283 Y184.934 E11.60766
G1 X117.342 Y185.198 E11.61665
G1 X117.399 Y185.609 E11.63045
G1 X117.418 Y185.879 E11.63946
G1 X117.422 Y186.13 E11.64781
G1 X117.404 Y186.591 E11.66315
G1 X117.367 Y186.924 E11.67429
G1 X117.286 Y187.354 E11.68885
G1 X117.125 Y187.896 E11.70765
G1 X116.904 Y188.404 E11.72608
G1 X116.581 Y188.954 E11.74729
G1 X116.338 Y189.293 E11.76117
G1 X115.962 Y189.728 E11.78029
G1 X115.602 Y190.064 E11.79667
G1 X115.15 Y190.403 E11.81546
G1 X114.817 Y190.611 E11.82852
G1 X114.396 Y190.815 E11.84408
G1 X114.02 Y190.965 E11.85754
G1 X113.535 Y191.107 E11.87435
G1 X113.058 Y191.2 E11.89052
G1 X111.701 Y191.2 E11.93565
G1 X111.038 Y191.113 E11.95789
G1 X110.631 Y190.981 E11.97212
G1 X110.296 Y190.851 E11.98407
G1 X110.068 Y190.748 E11.99239
G1 X109.735 Y190.575 E12.00488
G1 X109.417 Y190.375 E12.01737
G1 X109.059 Y190.107 E12.03224
G1 X108.797 Y189.879 E12.0438
G1 X108.556 Y189.634 E12.05523
G1 X108.385 Y189.439 E12.06385
G1 X108.165 Y189.158 E12.07572
G1 X108.003 Y188.922 E12.08524
G1 X107.773 Y188.538 E12.10013
G1 X107.584 Y188.139 E12.11481
G1 X107.394 Y187.615 E12.13335
G1 X107.293 Y187.202 E12.14749
G1 X107.244 Y186.934 E12.15656
G1 X107.192 Y186.509 E12.1708
G1 X107.179 Y186.101 E12.18437
G1 X107.196 Y185.799 E12.19443
G1 X107.223 Y185.55 E12.20276
G1 X107.309 Y185.034 E12.22016
G1 X107.403 Y184.626 E12.23409
G1 X107.561 Y184.211 E12.24886
G1 X107.756 Y183.791 E12.26426
G1 X108.019 Y183.342 E12.28157
G1 X108.322 Y182.926 E12.29868
G1 X108.543 Y182.666 E12.31003
G1 X108.841 Y182.364 E12.32415
G1 X109.177 Y182.082 E12.33874
G1 X109.559 Y181.82 E12.35414
G1 F1500 E5.85414
;MESH:holder.stl(8)
G0 F5250 X109.839 Y183.677
G0 X111.105 Y188.013
;TYPE:WALL-INNER
G1 F1500 E12.35414
G1 F519.8 X111.105 Y185.066 E12.45314
G1 F480.5 X111.204 Y184.812 E12.46305
G1 F457.5 X111.364 Y184.676 E12.47106
G1 F474 X111.598 Y184.592 E12.48022
G1 F476.2 X113.091 Y184.586 E12.53497
G1 F479.5 X113.434 Y184.831 E12.55032
G1 F506 X113.505 Y185.168 E12.5622
G1 F525 X113.512 Y187.999 E12.65636
G1 X113.672 Y187.889 E12.66282
G1 X113.881 Y187.703 E12.67212
G1 X114.064 Y187.496 E12.68131
G1 X114.282 Y187.153 E12.69483
G1 X114.393 Y186.896 E12.70414
G1 X114.478 Y186.615 E12.71391
G1 X114.514 Y186.363 E12.72237
G1 X114.515 Y185.935 E12.73661
G1 X114.469 Y185.649 E12.74624
G1 X114.364 Y185.289 E12.75872
G1 X114.183 Y184.95 E12.7715
G1 F508.5 X113.971 Y184.679 E12.78331
G1 F483.9 X113.575 Y184.348 E12.80194
G1 F467.7 X113.265 Y184.171 E12.81527
G1 F474 X112.906 Y184.157 E12.8285
G1 F477.3 X111.339 Y184.16 E12.88583
G1 F462.6 X110.958 Y184.41 E12.90303
G1 F480.5 X110.622 Y184.709 E12.91938
G1 F514.7 X110.369 Y185.041 E12.93354
G1 F525 X110.217 Y185.393 E12.94629
G1 X110.135 Y185.659 E12.95555
G1 X110.096 Y185.919 E12.96429
G1 X110.08 Y186.241 E12.97502
G1 X110.133 Y186.622 E12.98781
G1 X110.24 Y186.967 E12.99982
G1 X110.358 Y187.207 E13.00872
G1 X110.511 Y187.457 E13.01847
G1 X110.807 Y187.789 E13.03326
G1 X111.105 Y188.013 E13.04566
G0 F5250 X111.505 Y188.636
;TYPE:WALL-OUTER
G1 F525 X111.505 Y185.156 E13.16141
G1 X111.596 Y185.033 E13.1665
G1 X111.67 Y185.004 E13.16914
G1 X112.906 Y185.002 E13.21025
G1 X113.021 Y185.036 E13.21424
G1 X113.106 Y185.158 E13.21918
G1 X113.111 Y188.632 E13.33473
G1 X113.539 Y188.466 E13.35
G1 X113.914 Y188.209 E13.36512
