;FLAVOR:Marlin
;TIME:12837
;Filament used: 3.33731m
;Layer height: 0.2
;MINX:89.985
;MINY:58.024
;MINZ:0.2
;MAXX:126.031
;MAXY:157.476
;MAXZ:16.6
;TARGET_MACHINE.NAME:Creality Ender-3 Pro
;Generated with Cura_SteamEngine 5.6.0
M82 ;absolute extrusion mode
; Ender 3 Custom Start G-code
G92 E0 ; Reset Extruder
G28 ; Home all axes
G1 Z5.0 F3000 ; Move Z Axis up a bit during heating to not damage bed
M104 S175 ; Start heating up the nozzle most of the way
M190 S85 ; Start heating the bed, wait until target temperature reached
M109 S215.0 ; Finish heating the nozzle
G1 Z2.0 F3000 ; Move Z Axis up little to prevent scratching of Heat Bed
G1 X0.1 Y20 Z0.3 F5000.0 ; Move to start position
G1 X0.1 Y200.0 Z0.3 F1500.0 E15 ; Draw the first line
G1 X0.4 Y200.0 Z0.3 F5000.0 ; Move to side a little
G1 X0.4 Y20 Z0.3 F1500.0 E30 ; Draw the second line
G92 E0 ; Reset Extruder
G1 Z2.0 F3000 ; Move Z Axis up little to prevent scratching of Heat Bed
G1 X5 Y20 Z0.3 F5000.0 ; Move over to prevent blob squish
G92 E0
G92 E0
G1 F1500 E-6.5
;LAYER_COUNT:83
;LAYER:0
M107
G0 X91.313 Y61.774 Z0.2
;TYPE:SKIRT
G1 F1500 E0
G1 F300 X91.799 Y61.102 E0.05172
G1 X92.72 Y60.115 E0.13591
G1 X93.258 Y59.565 E0.18389
G1 X93.708 Y59.176 E0.22098
G1 X94.268 Y58.856 E0.26121
G1 X94.708 Y58.695 E0.29042
G1 X95.967 Y58.329 E0.37219
G1 X96.755 Y58.125 E0.42295
G1 X97.359 Y58.024 E0.46114
G1 X98.152 Y58.07 E0.51068
G1 X98.803 Y58.177 E0.55182
G1 X101.551 Y58.596 E0.72517
G1 X104.225 Y58.926 E0.8932
G1 X106.958 Y59.185 E1.0644
G1 X109.692 Y59.366 E1.23527
G1 X112.414 Y59.469 E1.40514
G1 X115.604 Y59.501 E1.60409
G1 X116.381 Y59.608 E1.653
G1 X117.432 Y59.883 E1.72075
G1 X118.476 Y60.192 E1.78865
G1 X118.981 Y60.392 E1.82253
G1 X119.435 Y60.678 E1.85599
G1 X119.855 Y61.031 E1.8902
G1 X120.755 Y61.943 E1.97011
G1 X121.398 Y62.647 E2.02957
G1 X121.743 Y63.1 E2.06508
G1 X122.102 Y63.918 E2.12079
G1 X122.425 Y64.986 E2.19037
G1 X122.622 Y65.707 E2.23698
G1 X122.727 Y66.367 E2.27866
G1 X122.733 Y66.722 E2.3008
G1 X122.691 Y67.771 E2.36627
G1 X122.617 Y70.513 E2.53733
G1 X122.621 Y73.216 E2.7059
G1 X122.701 Y75.949 E2.87641
G1 X122.859 Y78.666 E3.04614
G1 X123.061 Y81.075 E3.1969
G1 X123.015 Y82.004 E3.2549
G1 X122.791 Y83.213 E3.33158
G1 X122.333 Y85.887 E3.50077
G1 X121.949 Y88.599 E3.67158
G1 X121.683 Y90.882 E3.81492
G1 X121.262 Y93.84 E4.00125
G1 X120.964 Y96.469 E4.16625
G1 X120.725 Y99.287 E4.34262
G1 X120.576 Y101.936 E4.50808
G1 X120.499 Y104.704 E4.68077
G1 X120.499 Y107.44 E4.85139
G1 X120.578 Y110.174 E5.02196
G1 X120.729 Y112.825 E5.18755
G1 X120.967 Y115.624 E5.36274
G1 X121.271 Y118.284 E5.5297
G1 X121.66 Y121.016 E5.70179
G1 X122.119 Y123.691 E5.87105
G1 X122.648 Y126.325 E6.0386
G1 X122.875 Y127.311 E6.10169
G1 X123.094 Y128.335 E6.167
G1 X123.279 Y129.332 E6.23023
G1 X123.437 Y130.253 E6.28851
G1 X123.968 Y132.895 E6.45657
G1 X124.597 Y135.618 E6.63085
G1 X125.643 Y139.513 E6.88236
G1 X125.923 Y140.523 E6.94772
G1 X126.031 Y141.111 E6.98501
G1 X126.028 Y141.758 E7.02536
G1 X125.929 Y142.288 E7.05898
G1 X125.788 Y142.835 E7.09421
G1 X125.367 Y144.29 E7.18867
G1 X125.145 Y144.842 E7.22577
G1 X124.732 Y145.634 E7.28147
G1 X124.2 Y146.608 E7.35069
G1 X122.975 Y149.011 E7.51889
G1 X121.819 Y151.444 E7.68688
G1 X121.129 Y153.015 E7.79388
G1 X120.828 Y153.663 E7.83844
G1 X120.564 Y154.12 E7.87135
G1 X120.228 Y154.523 E7.90407
G1 X119.336 Y155.434 E7.98359
G1 X118.703 Y156.044 E8.03841
G1 X118.278 Y156.387 E8.07247
G1 X117.718 Y156.679 E8.11185
G1 X117.336 Y156.821 E8.13727
G1 X116.434 Y157.086 E8.1959
G1 X115.297 Y157.385 E8.26921
G1 X114.781 Y157.466 E8.30179
G1 X114.358 Y157.476 E8.32817
G1 X113.719 Y157.444 E8.36807
G1 X112.025 Y157.331 E8.47395
G1 X109.303 Y157.227 E8.64383
G1 X106.59 Y157.199 E8.81303
G1 X103.799 Y157.251 E8.98711
G1 X101.11 Y157.377 E9.15499
G1 X99.489 Y157.474 E9.25626
G1 X98.965 Y157.459 E9.28895
G1 X98.434 Y157.349 E9.32277
G1 X97.336 Y157.04 E9.3939
G1 X96.599 Y156.81 E9.44205
G1 X95.963 Y156.549 E9.48492
G1 X95.216 Y155.991 E9.54307
G1 X94.437 Y155.242 E9.61046
G1 X93.702 Y154.494 E9.67586
G1 X93.268 Y153.969 E9.71834
G1 X92.907 Y153.217 E9.77036
G1 X92.752 Y152.761 E9.8004
G1 X92.482 Y151.842 E9.86013
G1 X92.285 Y151.121 E9.90674
G1 X92.218 Y150.797 E9.92737
G1 X91.78 Y147.751 E10.11928
G1 X91.316 Y145.081 E10.28829
G1 X90.773 Y142.41 E10.45827
G1 X90.06 Y139.339 E10.65488
G1 X89.985 Y138.786 E10.68968
G1 X90.047 Y138.02 E10.73761
G1 X90.17 Y137.35 E10.78009
G1 X90.479 Y135.787 E10.87945
G1 X90.933 Y133.088 E11.05013
G1 X91.312 Y130.376 E11.2209
G1 X91.612 Y127.663 E11.39112
G1 X91.738 Y126.381 E11.47146
G1 X91.907 Y125.44 E11.53108
G1 X92.141 Y124.262 E11.60598
G1 X92.596 Y121.572 E11.77611
G1 X92.978 Y118.858 E11.94704
G1 X93.277 Y116.178 E12.1152
G1 X93.505 Y113.451 E12.28586
G1 X93.655 Y110.71 E12.45705
G1 X93.726 Y107.988 E12.62686
G1 X93.721 Y105.286 E12.79537
G1 X93.638 Y102.517 E12.96813
G1 X93.478 Y99.788 E13.13861
G1 X93.245 Y97.111 E13.30618
G1 X92.925 Y94.336 E13.48039
G1 X92.539 Y91.671 E13.64832
G1 X92.074 Y88.976 E13.81887
G1 X91.537 Y86.33 E13.98724
G1 X90.889 Y83.543 E14.16569
G1 X90.726 Y82.879 E14.20832
G1 X90.645 Y82.326 E14.24318
G1 X90.638 Y81.936 E14.2675
G1 X90.797 Y79 E14.45087
G1 X90.867 Y76.28 E14.62055
G1 X90.86 Y73.562 E14.79005
G1 X90.775 Y70.807 E14.96195
G1 X90.614 Y68.074 E15.13268
G1 X90.389 Y65.42 E15.29878
G1 X90.392 Y64.878 E15.33258
G1 X90.498 Y64.332 E15.36727
G1 X90.852 Y63.074 E15.44877
G1 X91.096 Y62.299 E15.49944
G1 X91.313 Y61.774 E15.53487
G0 F1500 X91.841 Y62.068
G1 F300 X92.238 Y61.511 E15.57752
G1 X93.149 Y60.535 E15.66078
G1 X93.687 Y59.985 E15.70876
G1 X94.056 Y59.669 E15.73906
G1 X94.522 Y59.402 E15.77255
G1 X94.876 Y59.271 E15.79609
G1 X96.117 Y58.91 E15.87669
G1 X96.905 Y58.706 E15.92746
G1 X97.391 Y58.627 E15.95816
G1 X98.055 Y58.662 E15.99963
G1 X98.706 Y58.769 E16.04077
G1 X101.461 Y59.189 E16.21457
G1 X104.168 Y59.523 E16.38466
G1 X106.918 Y59.784 E16.55693
G1 X109.665 Y59.966 E16.72862
G1 X112.391 Y60.069 E16.89874
G1 X115.598 Y60.101 E17.09875
G1 X116.229 Y60.189 E17.13848
G1 X117.263 Y60.459 E17.20512
G1 X118.255 Y60.75 E17.26959
G1 X118.707 Y60.929 E17.29991
G1 X119.115 Y61.186 E17.32998
G1 X119.428 Y61.453 E17.35564
G1 X120.313 Y62.349 E17.43418
G1 X120.921 Y63.011 E17.49023
G1 X121.223 Y63.407 E17.52129
G1 X121.528 Y64.092 E17.56805
G1 X121.846 Y65.144 E17.63659
G1 X122.043 Y65.865 E17.6832
G1 X122.127 Y66.378 E17.71562
G1 X122.133 Y66.698 E17.73558
G1 X122.091 Y67.747 E17.80105
G1 X122.017 Y70.497 E17.97261
G1 X122.021 Y73.234 E18.14329
G1 X122.102 Y75.984 E18.31487
G1 X122.261 Y78.716 E18.48553
G1 X122.463 Y81.125 E18.63629
G1 X122.425 Y81.895 E18.68437
G1 X122.201 Y83.104 E18.76105
G1 X121.739 Y85.803 E18.93181
G1 X121.355 Y88.515 E19.10263
G1 X121.089 Y90.797 E19.2459
G1 X120.668 Y93.755 E19.43223
G1 X120.366 Y96.418 E19.59937
G1 X120.127 Y99.236 E19.77574
G1 X119.976 Y101.919 E19.94332
G1 X119.899 Y104.687 E20.11601
G1 X119.899 Y107.44 E20.28769
G1 X119.978 Y110.191 E20.45932
G1 X120.131 Y112.876 E20.62704
G1 X120.369 Y115.675 E20.80222
G1 X120.677 Y118.369 E20.97132
G1 X121.066 Y121.101 E21.14341
G1 X121.531 Y123.809 E21.31476
G1 X122.063 Y126.46 E21.48338
G1 X122.288 Y127.437 E21.54591
G1 X122.504 Y128.445 E21.6102
G1 X122.688 Y129.434 E21.67293
G1 X122.849 Y130.371 E21.73222
G1 X123.383 Y133.03 E21.90135
G1 X124.012 Y135.753 E22.07564
G1 X125.065 Y139.675 E22.32889
G1 X125.333 Y140.632 E22.39087
G1 X125.431 Y141.164 E22.4246
G1 X125.428 Y141.702 E22.45815
G1 X125.348 Y142.138 E22.4858
G1 X125.211 Y142.669 E22.52
G1 X124.809 Y144.069 E22.61083
G1 X124.613 Y144.564 E22.64403
G1 X124.205 Y145.346 E22.69904
G1 X123.673 Y146.32 E22.76825
G1 X122.44 Y148.739 E22.93757
G1 X121.277 Y151.187 E23.10659
G1 X120.584 Y152.764 E23.21401
G1 X120.308 Y153.363 E23.25514
G1 X120.071 Y153.774 E23.28473
G1 X119.767 Y154.138 E23.3143
G1 X118.919 Y155.003 E23.38985
G1 X118.326 Y155.577 E23.44131
G1 X117.946 Y155.884 E23.47178
G1 X117.441 Y156.147 E23.50729
G1 X117.166 Y156.245 E23.52549
G1 X116.28 Y156.506 E23.5831
G1 X115.204 Y156.792 E23.65253
G1 X114.688 Y156.873 E23.6851
G1 X114.353 Y156.876 E23.70599
G1 X113.759 Y156.845 E23.74309
G1 X112.053 Y156.731 E23.84972
G1 X109.326 Y156.627 E24.0199
G1 X106.585 Y156.599 E24.19085
G1 X103.788 Y156.651 E24.36531
G1 X101.073 Y156.778 E24.53481
G1 X99.507 Y156.874 E24.63265
G1 X99.033 Y156.86 E24.66222
G1 X98.597 Y156.772 E24.68996
G1 X97.515 Y156.467 E24.76007
G1 X96.778 Y156.237 E24.80821
G1 X96.262 Y156.023 E24.84305
G1 X95.632 Y155.558 E24.89188
G1 X94.865 Y154.821 E24.95822
G1 X94.13 Y154.073 E25.02362
G1 X93.777 Y153.644 E25.05826
G1 X93.475 Y153.024 E25.10127
G1 X93.328 Y152.592 E25.12973
G1 X93.061 Y151.683 E25.18881
G1 X92.873 Y150.999 E25.23305
G1 X92.806 Y150.675 E25.25368
G1 X92.374 Y147.666 E25.44326
G1 X91.907 Y144.978 E25.6134
G1 X91.361 Y142.291 E25.78439
G1 X90.655 Y139.258 E25.97859
G1 X90.588 Y138.766 E26.00956
G1 X90.637 Y138.129 E26.0494
G1 X90.759 Y137.466 E26.09144
G1 X91.068 Y135.903 E26.1908
G1 X91.525 Y133.188 E26.3625
G1 X91.906 Y130.459 E26.53434
G1 X92.208 Y127.729 E26.70563
G1 X92.335 Y126.44 E26.7864
G1 X92.496 Y125.557 E26.84238
G1 X92.73 Y124.379 E26.91727
G1 X93.188 Y121.672 E27.08849
G1 X93.572 Y118.942 E27.26042
G1 X93.875 Y116.228 E27.43072
G1 X94.103 Y113.501 E27.60138
G1 X94.255 Y110.726 E27.77469
G1 X94.326 Y108.004 E27.9445
G1 X94.321 Y105.268 E28.11513
G1 X94.238 Y102.499 E28.28789
G1 X94.077 Y99.753 E28.45943
G1 X93.843 Y97.059 E28.62807
G1 X93.521 Y94.267 E28.80334
G1 X93.133 Y91.585 E28.97234
G1 X92.665 Y88.874 E29.1439
G1 X92.125 Y86.211 E29.31335
G1 X91.472 Y83.4 E29.49332
G1 X91.309 Y82.736 E29.53596
G1 X91.245 Y82.312 E29.5627
G1 X91.237 Y81.968 E29.58416
G1 X91.397 Y79.015 E29.76859
G1 X91.467 Y76.295 E29.93827
G1 X91.46 Y73.543 E30.10989
G1 X91.375 Y70.788 E30.28179
G1 X91.213 Y68.039 E30.45352
G1 X90.989 Y65.424 E30.61719
G1 X90.992 Y64.939 E30.64744
G1 X91.076 Y64.494 E30.67568
G1 X91.425 Y63.253 E30.75608
G1 X91.651 Y62.528 E30.80343
G1 X91.841 Y62.068 E30.83447
G0 F1500 X92.369 Y62.362
G1 F300 X92.727 Y61.859 E30.87297
G1 X93.579 Y60.953 E30.95053
G1 X94.077 Y60.441 E30.99508
G1 X94.403 Y60.162 E31.02184
G1 X94.775 Y59.949 E31.04857
G1 X95.085 Y59.834 E31.06919
G1 X96.269 Y59.49 E31.14608
G1 X97.002 Y59.298 E31.19333
G1 X97.425 Y59.229 E31.22006
G1 X97.958 Y59.254 E31.25334
G1 X98.609 Y59.361 E31.29448
G1 X101.371 Y59.782 E31.46872
G1 X104.111 Y60.12 E31.64088
G1 X106.878 Y60.383 E31.81422
G1 X109.638 Y60.566 E31.98672
G1 X112.368 Y60.669 E32.15709
G1 X115.519 Y60.696 E32.3536
G1 X116.078 Y60.77 E32.38877
G1 X117.095 Y61.035 E32.45431
G1 X118.034 Y61.308 E32.51529
G1 X118.433 Y61.466 E32.54205
G1 X118.795 Y61.694 E32.56873
G1 X119.03 Y61.902 E32.58831
G1 X119.872 Y62.756 E32.6631
G1 X120.444 Y63.375 E32.71566
G1 X120.704 Y63.716 E32.7424
G1 X120.954 Y64.266 E32.78008
G1 X121.268 Y65.304 E32.8477
G1 X121.452 Y65.97 E32.89079
G1 X121.527 Y66.391 E32.91746
G1 X121.533 Y66.674 E32.93511
G1 X121.491 Y67.723 E33.00059
G1 X121.417 Y70.481 E33.17264
G1 X121.421 Y73.252 E33.34545
G1 X121.503 Y76.019 E33.51809
G1 X121.663 Y78.766 E33.68969
G1 X121.865 Y81.175 E33.84045
G1 X121.835 Y81.786 E33.87859
G1 X121.611 Y82.995 E33.95527
G1 X121.145 Y85.719 E34.12762
G1 X120.761 Y88.431 E34.29843
G1 X120.495 Y90.712 E34.44165
G1 X120.074 Y93.67 E34.62797
G1 X119.768 Y96.367 E34.79725
G1 X119.529 Y99.185 E34.97362
G1 X119.376 Y101.902 E35.14332
G1 X119.299 Y104.67 E35.31601
G1 X119.299 Y107.44 E35.48875
G1 X119.378 Y110.208 E35.66145
G1 X119.533 Y112.927 E35.83128
G1 X119.771 Y115.726 E36.00647
G1 X120.083 Y118.454 E36.1777
G1 X120.472 Y121.186 E36.3498
G1 X120.943 Y123.927 E36.52324
G1 X121.478 Y126.595 E36.69293
G1 X121.701 Y127.563 E36.75488
G1 X121.914 Y128.555 E36.81816
G1 X122.097 Y129.536 E36.88039
G1 X122.261 Y130.489 E36.94069
G1 X122.798 Y133.165 E37.1109
G1 X123.427 Y135.888 E37.28519
G1 X124.487 Y139.837 E37.54018
G1 X124.755 Y140.794 E37.60216
G1 X124.831 Y141.215 E37.62883
G1 X124.828 Y141.644 E37.65559
G1 X124.767 Y141.988 E37.67738
G1 X124.634 Y142.503 E37.71055
G1 X124.232 Y143.903 E37.80138
G1 X124.056 Y144.34 E37.83076
G1 X123.678 Y145.058 E37.88136
G1 X123.146 Y146.032 E37.95058
G1 X121.905 Y148.466 E38.12096
G1 X120.735 Y150.93 E38.29106
G1 X120.038 Y152.515 E38.39904
G1 X119.788 Y153.063 E38.43661
G1 X119.574 Y153.434 E38.46332
G1 X119.338 Y153.718 E38.48634
G1 X118.5 Y154.573 E38.561
G1 X117.949 Y155.11 E38.60899
G1 X117.616 Y155.379 E38.63568
G1 X117.238 Y155.582 E38.66244
G1 X116.996 Y155.669 E38.67848
G1 X116.11 Y155.93 E38.73608
G1 X115.103 Y156.201 E38.80111
G1 X114.68 Y156.273 E38.82787
G1 X114.385 Y156.277 E38.84627
G1 X113.799 Y156.246 E38.88286
G1 X112.081 Y156.131 E38.99024
G1 X109.349 Y156.027 E39.16074
G1 X106.58 Y155.999 E39.33343
G1 X103.777 Y156.051 E39.50827
G1 X101.035 Y156.179 E39.67945
G1 X99.525 Y156.274 E39.7738
G1 X99.097 Y156.261 E39.80051
G1 X98.76 Y156.194 E39.82194
G1 X97.694 Y155.894 E39.891
G1 X96.957 Y155.664 E39.93914
G1 X96.561 Y155.498 E39.96592
G1 X96.048 Y155.126 E40.00544
G1 X95.293 Y154.4 E40.07076
G1 X94.558 Y153.652 E40.13616
G1 X94.287 Y153.32 E40.16289
G1 X94.015 Y152.761 E40.20165
G1 X93.904 Y152.422 E40.2239
G1 X93.639 Y151.523 E40.28235
G1 X93.46 Y150.876 E40.32421
G1 X93.4 Y150.59 E40.34244
G1 X92.968 Y147.581 E40.53201
G1 X92.498 Y144.875 E40.70329
G1 X91.949 Y142.172 E40.8753
G1 X91.249 Y139.177 E41.06711
G1 X91.191 Y138.753 E41.0938
G1 X91.227 Y138.238 E41.12599
G1 X91.348 Y137.582 E41.16759
G1 X91.657 Y136.019 E41.26695
G1 X92.117 Y133.288 E41.43966
G1 X92.5 Y130.542 E41.61257
G1 X92.804 Y127.795 E41.78493
G1 X92.925 Y126.548 E41.86306
G1 X93.085 Y125.674 E41.91847
G1 X93.319 Y124.496 E41.99337
G1 X93.78 Y121.772 E42.16566
G1 X94.166 Y119.025 E42.33865
G1 X94.473 Y116.278 E42.51103
G1 X94.701 Y113.551 E42.68169
G1 X94.855 Y110.742 E42.85713
G1 X94.926 Y108.02 E43.02694
G1 X94.921 Y105.25 E43.19968
G1 X94.838 Y102.481 E43.37244
G1 X94.676 Y99.718 E43.54504
G1 X94.441 Y97.007 E43.71474
G1 X94.117 Y94.198 E43.89108
G1 X93.727 Y91.499 E44.06115
G1 X93.256 Y88.772 E44.23373
G1 X92.713 Y86.092 E44.40426
G1 X92.056 Y83.264 E44.58532
G1 X91.902 Y82.646 E44.62503
G1 X91.838 Y82.222 E44.65178
G1 X91.837 Y81.966 E44.66774
G1 X91.997 Y79.03 E44.85111
G1 X92.067 Y76.31 E45.02079
G1 X92.06 Y73.541 E45.19348
G1 X91.975 Y70.77 E45.36636
G1 X91.812 Y68.004 E45.53916
G1 X91.589 Y65.428 E45.70041
G1 X91.592 Y64.999 E45.72716
G1 X91.666 Y64.605 E45.75216
G1 X91.998 Y63.43 E45.82831
G1 X92.205 Y62.758 E45.87216
G1 X92.369 Y62.362 E45.89889
G1 F1500 E39.39889
G0 X94.659 Y63.595
G1 F1500 E45.89889
G1 F300 X95.886 Y62.299 E46.01018
G1 X97.583 Y61.823 E46.1201
G1 X99.28 Y62.299 E46.23001
G1 X100.507 Y63.595 E46.34131
G1 X100.983 Y65.222 E46.44703
G1 X100.507 Y66.92 E46.557
G1 X99.281 Y68.146 E46.66513
G1 X97.583 Y68.622 E46.7751
G1 X95.96 Y68.147 E46.88056
G1 X94.657 Y66.844 E46.99548
G1 X94.182 Y65.222 E47.10088
G1 X94.659 Y63.595 E47.20662
G0 F1500 X95.194 Y63.903
G1 F300 X96.208 Y62.832 E47.29859
G1 X97.583 Y62.446 E47.38766
G1 X98.958 Y62.832 E47.47672
G1 X99.972 Y63.903 E47.5687
G1 X100.359 Y65.225 E47.6546
G1 X99.971 Y66.608 E47.74418
G1 X98.969 Y67.61 E47.83255
G1 X97.586 Y67.997 E47.92211
G1 X96.275 Y67.614 E48.00728
G1 X95.191 Y66.53 E48.10289
G1 X94.807 Y65.222 E48.1879
G1 X95.194 Y63.903 E48.27362
G0 F1500 X95.728 Y64.21
G1 F300 X96.529 Y63.364 E48.34628
G1 X97.583 Y63.069 E48.41454
G1 X98.637 Y63.364 E48.48279
G1 X99.436 Y64.208 E48.55527
G1 X99.735 Y65.23 E48.62168
G1 X99.437 Y66.292 E48.69046
G1 X98.653 Y67.076 E48.75961
G1 X97.591 Y67.374 E48.8284
G1 X96.593 Y67.082 E48.89324
G1 X95.722 Y66.211 E48.97006
G1 X95.432 Y65.222 E49.03433
G1 X95.728 Y64.21 E49.10009
G0 F1500 X96.264 Y64.518
G1 F300 X96.851 Y63.897 E49.15338
G1 X97.583 Y63.692 E49.20079
G1 X98.315 Y63.897 E49.24819
G1 X98.901 Y64.517 E49.30139
G1 X99.111 Y65.233 E49.34793
G1 X98.901 Y65.98 E49.39632
G1 X98.341 Y66.54 E49.44571
G1 X97.594 Y66.75 E49.4941
G1 X96.908 Y66.549 E49.53868
G1 X96.255 Y65.896 E49.59627
G1 X96.057 Y65.222 E49.64008
