;FLAVOR:Marlin
;TIME:10944
;Filament used: 3.46701m
;Layer height: 0.2
;MINX:59.476
;MINY:86.883
;MINZ:0.2
;MAXX:169.267
;MAXY:129.701
;MAXZ:26.2
;TARGET_MACHINE.NAME:Creality Ender-3 Pro
;Generated with Cura_SteamEngine 5.6.0
M82 ;absolute extrusion mode
; Ender 3 Custom Start G-code
G92 E0 ; Reset Extruder
G28 ; Home all axes
G1 Z5.0 F3000 ; Move Z Axis up a bit during heating to not damage bed
M104 S175 ; Start heating up the nozzle most of the way
M190 S85 ; Start heating the bed, wait until target temperature reached
M109 S215.0 ; Finish heating the nozzle
G1 Z2.0 F3000 ; Move Z Axis up little to prevent scratching of Heat Bed
G1 X0.1 Y20 Z0.3 F5000.0 ; Move to start position
G1 X0.1 Y200.0 Z0.3 F1500.0 E15 ; Draw the first line
G1 X0.4 Y200.0 Z0.3 F5000.0 ; Move to side a little
G1 X0.4 Y20 Z0.3 F1500.0 E30 ; Draw the second line
G92 E0 ; Reset Extruder
G1 Z2.0 F3000 ; Move Z Axis up little to prevent scratching of Heat Bed
G1 X5 Y20 Z0.3 F5000.0 ; Move over to prevent blob squish
G92 E0
G92 E0
G1 F1500 E-6.5
;LAYER_COUNT:131
;LAYER:0
M107
G0 X64.001 Y88.082 Z0.2
;TYPE:SKIRT
G1 F1500 E0
G1 F300 X64.643 Y87.738 E0.04542
G1 X65.005 Y87.606 E0.06945
G1 X65.722 Y87.393 E0.1161
G1 X67.256 Y86.978 E0.2152
G1 X67.789 Y86.883 E0.24896
G1 X68.433 Y86.893 E0.28913
G1 X68.953 Y86.99 E0.32212
G1 X69.93 Y87.245 E0.38509
G1 X71.267 Y87.639 E0.47201
G1 X71.854 Y87.888 E0.51178
G1 X74.711 Y89.455 E0.71499
G1 X77.122 Y90.684 E0.88375
G1 X79.584 Y91.853 E1.05372
G1 X82.056 Y92.941 E1.22215
G1 X84.635 Y93.992 E1.39582
G1 X87.124 Y94.924 E1.56157
G1 X89.769 Y95.83 E1.73593
G1 X92.338 Y96.63 E1.90373
G1 X95.016 Y97.38 E2.07716
G1 X97.652 Y98.04 E2.24662
G1 X100.319 Y98.628 E2.41694
G1 X102.938 Y99.128 E2.58322
G1 X105.672 Y99.569 E2.75592
G1 X108.369 Y99.928 E2.92559
G1 X111.14 Y100.217 E3.09934
G1 X113.817 Y100.419 E3.26676
G1 X116.494 Y100.545 E3.43389
G1 X119.289 Y100.599 E3.60823
G1 X122.002 Y100.572 E3.77742
G1 X124.717 Y100.47 E3.94686
G1 X127.462 Y100.288 E4.11842
G1 X130.162 Y100.035 E4.28754
G1 X133.859 Y99.56 E4.51999
G1 X134.84 Y99.416 E4.58182
G1 X137.723 Y99.035 E4.76318
G1 X140.46 Y98.593 E4.93607
G1 X143.087 Y98.092 E5.10285
G1 X145.733 Y97.51 E5.27181
G1 X148.46 Y96.827 E5.44713
G1 X150.885 Y96.176 E5.60371
G1 X152.578 Y95.835 E5.71141
G1 X155.301 Y95.233 E5.88532
G1 X158.328 Y94.454 E6.08025
G1 X158.432 Y94.435 E6.08684
G1 X160.136 Y93.988 E6.1967
G1 X160.669 Y93.899 E6.2304
G1 X161.31 Y93.912 E6.27038
G1 X161.755 Y93.996 E6.29863
G1 X162.691 Y94.235 E6.35887
G1 X164.315 Y94.691 E6.46406
G1 X164.929 Y94.921 E6.50495
G1 X165.474 Y95.257 E6.54488
G1 X165.865 Y95.606 E6.57757
G1 X166.498 Y96.251 E6.63392
G1 X167.723 Y97.557 E6.74559
G1 X168.061 Y97.988 E6.77975
G1 X168.383 Y98.614 E6.82365
G1 X168.948 Y100.518 E6.94751
G1 X169.173 Y101.358 E7.00174
G1 X169.267 Y101.89 E7.03543
G1 X169.258 Y102.536 E7.07572
G1 X169.144 Y103.118 E7.1127
G1 X168.656 Y104.858 E7.2254
G1 X168.407 Y105.675 E7.27867
G1 X168.206 Y106.175 E7.31227
G1 X167.864 Y106.696 E7.35114
G1 X167.594 Y107.015 E7.3772
G1 X166.998 Y107.622 E7.43025
G1 X165.651 Y108.935 E7.54756
G1 X165.23 Y109.266 E7.58096
G1 X164.087 Y110.001 E7.6657
G1 X161.759 Y111.536 E7.8396
G1 X159.529 Y113.099 E8.00943
G1 X158.556 Y113.799 E8.08418
G1 X157.925 Y114.138 E8.12885
G1 X157.632 Y114.255 E8.14853
G1 X156.015 Y114.851 E8.256
G1 X153.971 Y115.572 E8.39117
G1 X151.813 Y116.286 E8.53292
G1 X149.741 Y116.931 E8.66825
G1 X147.575 Y117.561 E8.80893
G1 X145.443 Y118.14 E8.9467
G1 X143.285 Y118.684 E9.08549
G1 X142.268 Y118.927 E9.1507
G1 X140.178 Y119.393 E9.28424
G1 X138.88 Y119.664 E9.36693
G1 X136.679 Y120.09 E9.50674
G1 X134.362 Y120.493 E9.6534
G1 X132.298 Y120.813 E9.78365
G1 X131.312 Y120.953 E9.84576
G1 X129.09 Y121.238 E9.98547
G1 X126.953 Y121.474 E10.11954
G1 X124.593 Y121.691 E10.26734
G1 X122.377 Y121.853 E10.40591
G1 X120.253 Y121.969 E10.53856
G1 X118.718 Y122.029 E10.63436
G1 X115.96 Y122.179 E10.80661
G1 X113.237 Y122.405 E10.97701
G1 X110.538 Y122.706 E11.14637
G1 X107.844 Y123.083 E11.31601
G1 X105.129 Y123.543 E11.48774
G1 X102.462 Y124.071 E11.65729
G1 X99.791 Y124.679 E11.82812
G1 X97.156 Y125.36 E11.99785
G1 X94.518 Y126.12 E12.16905
G1 X91.927 Y126.947 E12.33867
G1 X89.379 Y127.84 E12.50704
G1 X86.815 Y128.815 E12.67811
G1 X85.758 Y129.136 E12.747
G1 X84.015 Y129.607 E12.8596
G1 X83.481 Y129.701 E12.89341
G1 X82.832 Y129.691 E12.93389
G1 X82.281 Y129.583 E12.96891
G1 X81.701 Y129.424 E13.00641
G1 X80.548 Y129.087 E13.08132
G1 X79.727 Y128.827 E13.13503
G1 X79.226 Y128.619 E13.16886
G1 X78.716 Y128.277 E13.20715
G1 X78.426 Y128.026 E13.23107
G1 X77.01 Y126.616 E13.35569
G1 X76.4 Y125.983 E13.41051
G1 X75.694 Y125.122 E13.47995
G1 X73.905 Y123.002 E13.65294
G1 X72.094 Y120.974 E13.8225
G1 X70.217 Y118.987 E13.99296
G1 X68.244 Y117.017 E14.16684
G1 X66.282 Y115.162 E14.33522
G1 X64.271 Y113.369 E14.50324
G1 X61.854 Y111.322 E14.70077
G1 X61.324 Y110.812 E14.74664
G1 X60.763 Y110.234 E14.79687
G1 X60.386 Y109.769 E14.8342
G1 X60.051 Y109.147 E14.87826
G1 X59.784 Y108.29 E14.93424
G1 X59.571 Y107.502 E14.98514
G1 X59.476 Y106.963 E15.01927
G1 X59.492 Y106.308 E15.06013
G1 X59.659 Y104.945 E15.14577
G1 X59.667 Y104.817 E15.15377
G1 X59.804 Y103.738 E15.2216
G1 X60.078 Y100.986 E15.39407
G1 X60.269 Y98.306 E15.56162
G1 X60.386 Y95.558 E15.73315
G1 X60.425 Y94.326 E15.81002
G1 X60.507 Y93.771 E15.84501
G1 X60.783 Y92.744 E15.91133
G1 X61.181 Y91.437 E15.99653
G1 X61.396 Y90.907 E16.0322
G1 X61.914 Y90.186 E16.08756
G1 X62.317 Y89.745 E16.12482
G1 X63.03 Y88.992 E16.18949
G1 X63.586 Y88.432 E16.2387
G1 X64.001 Y88.082 E16.27256
G0 F1500 X64.343 Y88.579
G1 F300 X64.85 Y88.301 E16.30862
G1 X65.176 Y88.181 E16.33028
G1 X65.879 Y87.972 E16.37602
G1 X67.361 Y87.569 E16.4718
G1 X67.838 Y87.484 E16.50201
G1 X68.373 Y87.492 E16.53538
G1 X68.802 Y87.571 E16.56258
G1 X69.762 Y87.821 E16.62445
G1 X71.035 Y88.192 E16.70714
G1 X71.565 Y88.414 E16.74297
G1 X74.431 Y89.986 E16.94683
G1 X76.85 Y91.219 E17.11615
G1 X79.342 Y92.402 E17.28818
G1 X81.83 Y93.497 E17.4577
G1 X84.409 Y94.548 E17.63138
G1 X86.93 Y95.492 E17.79925
G1 X89.581 Y96.4 E17.974
G1 X92.176 Y97.208 E18.1435
G1 X94.854 Y97.958 E18.31693
G1 X97.514 Y98.624 E18.48794
G1 X100.19 Y99.214 E18.65883
G1 X102.842 Y99.72 E18.8272
G1 X105.593 Y100.164 E19.00098
G1 X108.298 Y100.524 E19.17116
G1 X111.078 Y100.814 E19.34547
G1 X113.779 Y101.018 E19.51439
G1 X116.482 Y101.145 E19.68314
G1 X119.283 Y101.199 E19.85785
G1 X122.024 Y101.172 E20.0288
G1 X124.746 Y101.07 E20.19867
G1 X127.502 Y100.887 E20.37092
G1 X130.235 Y100.63 E20.54211
G1 X133.946 Y100.154 E20.77543
G1 X134.919 Y100.011 E20.83676
G1 X137.802 Y99.63 E21.01812
G1 X140.556 Y99.185 E21.19209
G1 X143.216 Y98.678 E21.36096
G1 X145.87 Y98.094 E21.53043
G1 X148.606 Y97.409 E21.70632
G1 X151.003 Y96.764 E21.86112
G1 X152.708 Y96.421 E21.96958
G1 X155.435 Y95.818 E22.14375
G1 X158.437 Y95.044 E22.33709
G1 X158.561 Y95.021 E22.34495
G1 X160.235 Y94.58 E22.45291
G1 X160.713 Y94.5 E22.48313
G1 X161.246 Y94.511 E22.51638
G1 X161.644 Y94.586 E22.54164
G1 X162.529 Y94.813 E22.59862
G1 X164.153 Y95.269 E22.70381
G1 X164.661 Y95.461 E22.73768
G1 X165.115 Y95.741 E22.77094
G1 X165.437 Y96.027 E22.7978
G1 X166.061 Y96.662 E22.85332
G1 X167.251 Y97.927 E22.96163
G1 X167.552 Y98.311 E22.99206
G1 X167.824 Y98.84 E23.02915
G1 X168.369 Y100.675 E23.14853
G1 X168.582 Y101.462 E23.19937
G1 X168.666 Y101.939 E23.22958
G1 X168.659 Y102.474 E23.26294
G1 X168.566 Y102.956 E23.29356
G1 X168.082 Y104.684 E23.40547
G1 X167.85 Y105.451 E23.45544
G1 X167.67 Y105.899 E23.48555
G1 X167.405 Y106.31 E23.51605
G1 X167.165 Y106.595 E23.53928
G1 X166.579 Y107.193 E23.5915
G1 X165.278 Y108.465 E23.70497
G1 X164.905 Y108.761 E23.73466
G1 X163.762 Y109.496 E23.81941
G1 X161.429 Y111.035 E23.9937
G1 X159.177 Y112.613 E24.16519
G1 X158.269 Y113.272 E24.23516
G1 X157.702 Y113.581 E24.27543
G1 X157.425 Y113.692 E24.29404
G1 X155.816 Y114.285 E24.40098
G1 X153.782 Y115.002 E24.53547
G1 X151.635 Y115.713 E24.67652
G1 X149.573 Y116.355 E24.8112
G1 X147.418 Y116.982 E24.95116
G1 X145.296 Y117.558 E25.08829
G1 X143.146 Y118.1 E25.22656
G1 X142.137 Y118.341 E25.29125
G1 X140.055 Y118.806 E25.42429
G1 X138.766 Y119.075 E25.50641
G1 X136.576 Y119.499 E25.64552
G1 X134.27 Y119.9 E25.79149
G1 X132.214 Y120.219 E25.92124
G1 X131.236 Y120.358 E25.98284
G1 X129.024 Y120.642 E26.12192
G1 X126.898 Y120.877 E26.25531
G1 X124.549 Y121.093 E26.40242
G1 X122.344 Y121.254 E26.5403
G1 X120.229 Y121.369 E26.67239
G1 X118.694 Y121.43 E26.76819
G1 X115.913 Y121.581 E26.94188
G1 X113.187 Y121.807 E27.11246
G1 X110.459 Y122.111 E27.28364
G1 X107.744 Y122.491 E27.4546
G1 X105.016 Y122.953 E27.62715
G1 X102.345 Y123.482 E27.79696
G1 X99.645 Y124.097 E27.96965
G1 X96.99 Y124.783 E28.14066
G1 X94.352 Y125.543 E28.31187
G1 X91.745 Y126.375 E28.48252
G1 X89.165 Y127.279 E28.65301
G1 X86.64 Y128.241 E28.82152
G1 X85.601 Y128.557 E28.88924
G1 X83.911 Y129.016 E28.99845
G1 X83.433 Y129.1 E29.02872
G1 X82.894 Y129.092 E29.06234
G1 X82.439 Y129.004 E29.09124
G1 X81.869 Y128.848 E29.12809
G1 X80.727 Y128.514 E29.20229
G1 X79.958 Y128.273 E29.25255
G1 X79.511 Y128.087 E29.28274
G1 X79.106 Y127.821 E29.31296
G1 X78.849 Y127.601 E29.33406
G1 X77.441 Y126.199 E29.45797
G1 X76.864 Y125.603 E29.50971
G1 X76.153 Y124.735 E29.57968
G1 X74.353 Y122.602 E29.75373
G1 X72.542 Y120.574 E29.92329
G1 X70.641 Y118.562 E30.09591
G1 X68.668 Y116.592 E30.26979
G1 X66.694 Y114.726 E30.43919
G1 X64.659 Y112.911 E30.60924
G1 X62.27 Y110.889 E30.80442
G1 X61.755 Y110.394 E30.84897
G1 X61.194 Y109.816 E30.8992
G1 X60.889 Y109.437 E30.92954
G1 X60.607 Y108.915 E30.96654
G1 X60.363 Y108.132 E31.01769
G1 X60.162 Y107.397 E31.06521
G1 X60.077 Y106.917 E31.09561
G1 X60.088 Y106.381 E31.12904
G1 X60.257 Y105.006 E31.21543
G1 X60.262 Y104.893 E31.22249
G1 X60.399 Y103.814 E31.29032
G1 X60.675 Y101.046 E31.46379
G1 X60.867 Y98.349 E31.63241
G1 X60.986 Y95.575 E31.80557
G1 X61.019 Y94.414 E31.878
G1 X61.101 Y93.859 E31.91298
G1 X61.357 Y92.918 E31.9738
G1 X61.737 Y91.662 E32.05564
G1 X61.925 Y91.198 E32.08686
G1 X62.356 Y90.591 E32.13328
G1 X62.753 Y90.158 E32.16992
G1 X63.466 Y89.405 E32.23459
G1 X63.973 Y88.891 E32.27961
G1 X64.343 Y88.579 E32.30979
G0 F1500 X64.687 Y89.074
G1 F300 X65.06 Y88.863 E32.33652
G1 X65.347 Y88.756 E32.35562
G1 X66.037 Y88.551 E32.40051
G1 X67.466 Y88.16 E32.4929
G1 X67.888 Y88.085 E32.51963
G1 X68.316 Y88.091 E32.54633
G1 X68.651 Y88.152 E32.56756
G1 X69.611 Y88.402 E32.62943
G1 X70.807 Y88.747 E32.70705
G1 X71.276 Y88.94 E32.73868
G1 X74.151 Y90.517 E32.94318
G1 X76.578 Y91.754 E33.11306
G1 X79.1 Y92.951 E33.28715
G1 X81.604 Y94.053 E33.45776
G1 X84.183 Y95.104 E33.63144
G1 X86.736 Y96.06 E33.80144
G1 X89.388 Y96.968 E33.97626
G1 X92.014 Y97.786 E34.14778
G1 X94.692 Y98.536 E34.32122
G1 X97.376 Y99.208 E34.49376
G1 X100.061 Y99.8 E34.66523
G1 X102.746 Y100.312 E34.83569
G1 X105.514 Y100.759 E35.01055
G1 X108.227 Y101.12 E35.18123
G1 X111.016 Y101.411 E35.3561
G1 X113.741 Y101.617 E35.52653
G1 X116.47 Y101.745 E35.6969
G1 X119.277 Y101.799 E35.87198
G1 X122.046 Y101.772 E36.04468
G1 X124.775 Y101.67 E36.21498
G1 X127.542 Y101.486 E36.38792
G1 X130.308 Y101.225 E36.56118
G1 X134.033 Y100.748 E36.79538
G1 X134.998 Y100.606 E36.85621
G1 X137.881 Y100.225 E37.03756
G1 X140.652 Y99.777 E37.21262
G1 X143.345 Y99.264 E37.38358
G1 X146.007 Y98.678 E37.55356
G1 X148.752 Y97.991 E37.73003
G1 X151.121 Y97.352 E37.88305
G1 X152.838 Y97.007 E37.99226
G1 X155.569 Y96.403 E38.16669
G1 X158.587 Y95.625 E38.36105
G1 X158.681 Y95.61 E38.36699
G1 X160.334 Y95.172 E38.47363
G1 X160.757 Y95.101 E38.50038
G1 X161.185 Y95.11 E38.52708
G1 X161.495 Y95.167 E38.54674
G1 X162.367 Y95.391 E38.60288
G1 X163.991 Y95.847 E38.70808
G1 X164.391 Y96 E38.73478
G1 X164.756 Y96.225 E38.76152
G1 X165.009 Y96.447 E38.78251
G1 X165.625 Y97.074 E38.83733
G1 X166.779 Y98.297 E38.94219
G1 X167.043 Y98.634 E38.96889
G1 X167.265 Y99.066 E38.99918
G1 X167.79 Y100.834 E39.11419
G1 X167.991 Y101.566 E39.16153
G1 X168.065 Y101.988 E39.18825
G1 X168.06 Y102.416 E39.21495
G1 X167.988 Y102.794 E39.23894
G1 X167.507 Y104.512 E39.3502
G1 X167.293 Y105.227 E39.39675
G1 X167.133 Y105.625 E39.4235
G1 X166.901 Y105.985 E39.4502
G1 X166.736 Y106.175 E39.4659
G1 X166.159 Y106.765 E39.51736
G1 X164.905 Y107.995 E39.62691
G1 X164.532 Y108.291 E39.6566
G1 X163.431 Y108.995 E39.7381
G1 X161.098 Y110.535 E39.91243
G1 X158.833 Y112.122 E40.0849
G1 X157.978 Y112.747 E40.15095
G1 X157.478 Y113.024 E40.1866
G1 X157.217 Y113.129 E40.20414
G1 X155.617 Y113.719 E40.31049
G1 X153.593 Y114.432 E40.44431
G1 X151.457 Y115.14 E40.58465
G1 X149.405 Y115.779 E40.71868
G1 X147.261 Y116.403 E40.85793
G1 X145.149 Y116.976 E40.9944
G1 X143.007 Y117.516 E41.13216
G1 X142.006 Y117.755 E41.19634
G1 X139.932 Y118.219 E41.32888
G1 X138.652 Y118.486 E41.41042
G1 X136.473 Y118.908 E41.54884
G1 X134.178 Y119.307 E41.69411
G1 X132.129 Y119.625 E41.82342
G1 X131.159 Y119.763 E41.88452
G1 X128.958 Y120.046 E42.02291
G1 X126.843 Y120.28 E42.15561
G1 X124.505 Y120.495 E42.30203
G1 X122.312 Y120.655 E42.43916
G1 X120.205 Y120.769 E42.57075
G1 X118.67 Y120.831 E42.66655
G1 X115.863 Y120.983 E42.84186
G1 X113.137 Y121.209 E43.01244
G1 X110.38 Y121.516 E43.18544
G1 X107.644 Y121.899 E43.35773
G1 X104.903 Y122.363 E43.5311
G1 X102.228 Y122.893 E43.70116
G1 X99.499 Y123.515 E43.87571
G1 X96.824 Y124.206 E44.04801
G1 X94.186 Y124.966 E44.21921
G1 X91.563 Y125.803 E44.39092
G1 X88.951 Y126.718 E44.56351
G1 X86.465 Y127.667 E44.72946
G1 X85.443 Y127.978 E44.79608
G1 X83.807 Y128.425 E44.90184
G1 X83.385 Y128.499 E44.92856
G1 X82.957 Y128.493 E44.95526
G1 X82.597 Y128.425 E44.9781
G1 X82.037 Y128.272 E45.01431
G1 X80.905 Y127.941 E45.08786
G1 X80.189 Y127.719 E45.13461
G1 X79.793 Y127.554 E45.16136
G1 X79.435 Y127.319 E45.18807
G1 X79.247 Y127.152 E45.20375
G1 X77.871 Y125.781 E45.32488
G1 X77.328 Y125.223 E45.37344
G1 X76.612 Y124.348 E45.44395
G1 X74.801 Y122.202 E45.61906
G1 X72.99 Y120.174 E45.78862
G1 X71.065 Y118.137 E45.96341
G1 X69.092 Y116.167 E46.13728
G1 X67.106 Y114.29 E46.3077
G1 X65.047 Y112.453 E46.47978
G1 X62.658 Y110.431 E46.67496
G1 X62.184 Y109.975 E46.71598
G1 X61.661 Y109.44 E46.76264
G1 X61.392 Y109.106 E46.78938
G1 X61.163 Y108.682 E46.81943
G1 X60.941 Y107.972 E46.86583
G1 X60.753 Y107.292 E46.90982
G1 X60.678 Y106.87 E46.93655
G1 X60.688 Y106.394 E46.96624
G1 X60.858 Y105.035 E47.05165
G1 X60.857 Y104.969 E47.05577
G1 X60.994 Y103.89 E47.1236
G1 X61.272 Y101.106 E47.29808
G1 X61.465 Y98.392 E47.46776
G1 X61.586 Y95.59 E47.64267
G1 X61.613 Y94.502 E47.71054
G1 X61.695 Y93.947 E47.74552
G1 X61.932 Y93.09 E47.80097
G1 X62.293 Y91.887 E47.8793
G1 X62.454 Y91.49 E47.90602
G1 X62.799 Y90.996 E47.9436
G1 X63.189 Y90.57 E47.97961
G1 X63.894 Y89.825 E48.04358
G1 X64.36 Y89.35 E48.08508
G1 X64.687 Y89.074 E48.11176
G1 F1500 E41.61176
G0 X66.157 Y91.218
G1 F1500 E48.11176
G1 F300 X68.089 Y90.676 E48.2369
G1 X70.021 Y91.218 E48.36203
G1 X71.422 Y92.696 E48.48903
G1 X71.962 Y94.546 E48.60922
G1 X71.42 Y96.482 E48.7346
G1 X70.023 Y97.879 E48.8578
G1 X68.089 Y98.421 E48.98306
G1 X66.239 Y97.88 E49.10326
G1 X64.756 Y96.397 E49.23406
G1 X64.215 Y94.548 E49.3542
G1 X64.756 Y92.696 E49.47452
G1 X66.157 Y91.218 E49.60152
G0 F1500 X66.478 Y91.751
G1 F300 X68.089 Y91.299 E49.70587
G1 X69.7 Y91.751 E49.81021
G1 X70.887 Y93.003 E49.91781
G1 X71.338 Y94.55 E50.0183
G1 X70.884 Y96.17 E50.12322
G1 X69.711 Y97.343 E50.22667
G1 X68.092 Y97.797 E50.33153
G1 X66.554 Y97.347 E50.43146
G1 X65.29 Y96.083 E50.54294
G1 X64.84 Y94.546 E50.64282
G1 X65.291 Y93.003 E50.74307
G1 X66.478 Y91.751 E50.85066
G0 F1500 X66.8 Y92.283
G1 F300 X68.089 Y91.922 E50.93414
G1 X69.378 Y92.283 E51.01762
G1 X70.351 Y93.31 E51.10584
G1 X70.714 Y94.555 E51.18672
G1 X70.35 Y95.854 E51.27085
G1 X69.395 Y96.809 E51.35507
G1 X68.097 Y97.173 E51.43914
G1 X66.872 Y96.815 E51.51873
G1 X65.821 Y95.764 E51.61142
G1 X65.465 Y94.548 E51.69044
G1 X65.827 Y93.31 E51.77088
G1 X66.8 Y92.283 E51.8591
G0 F1500 X67.122 Y92.816
G1 F300 X68.089 Y92.545 E51.92173
