;FLAVOR:Marlin
;TIME:17312
;Filament used: 5.91284m
;Layer height: 0.2
;MINX:53.5
;MINY:45
;MINZ:0.2
;MAXX:160.5
;MAXY:177
;MAXZ:15
;TARGET_MACHINE.NAME:Creality Ender-3 Pro
;Generated with Cura_SteamEngine 5.6.0
M82 ;absolute extrusion mode
; Ender 3 Custom Start G-code
G92 E0 ; Reset Extruder
G28 ; Home all axes
G1 Z5.0 F3000 ; Move Z Axis up a bit during heating to not damage bed
M104 S175 ; Start heating up the nozzle most of the way
M190 S85 ; Start heating the bed, wait until target temperature reached
M109 S215.0 ; Finish heating the nozzle
G1 Z2.0 F3000 ; Move Z Axis up little to prevent scratching of Heat Bed
G1 X0.1 Y20 Z0.3 F5000.0 ; Move to start position
G1 X0.1 Y200.0 Z0.3 F1500.0 E15 ; Draw the first line
G1 X0.4 Y200.0 Z0.3 F5000.0 ; Move to side a little
G1 X0.4 Y20 Z0.3 F1500.0 E30 ; Draw the second line
G92 E0 ; Reset Extruder
G1 Z2.0 F3000 ; Move Z Axis up little to prevent scratching of Heat Bed
G1 X5 Y20 Z0.3 F5000.0 ; Move over to prevent blob squish
G92 E0
G92 E0
G1 F1500 E-6.5
;LAYER_COUNT:75
;LAYER:0
M107
G0 X54.467 Y46.097 Z0.2
;TYPE:SKIRT
G1 F1500 E0
G1 F300 X54.961 Y45.664 E0.04097
G1 X55.524 Y45.333 E0.0817
G1 X56.147 Y45.109 E0.12298
G1 X56.85 Y45.015 E0.16721
G1 X57.298 Y45 E0.19517
G1 X156.345 Y45 E6.37201
G1 X157.098 Y45.013 E6.41898
G1 X157.687 Y45.075 E6.45591
G1 X158.32 Y45.266 E6.49715
G1 X158.896 Y45.567 E6.53768
G1 X159.409 Y45.97 E6.57836
G1 X159.832 Y46.457 E6.61859
G1 X160.167 Y47.026 E6.65976
G1 X160.392 Y47.66 E6.70172
G1 X160.485 Y48.349 E6.74508
G1 X160.5 Y48.798 E6.77309
G1 X160.5 Y172.808 E14.5067
G1 X160.485 Y173.645 E14.5589
G1 X160.428 Y174.18 E14.59246
G1 X160.236 Y174.814 E14.63377
G1 X159.937 Y175.39 E14.67424
G1 X159.54 Y175.895 E14.7143
G1 X159.04 Y176.334 E14.75579
G1 X158.479 Y176.666 E14.79645
G1 X157.853 Y176.891 E14.83793
G1 X157.151 Y176.985 E14.8821
G1 X156.702 Y177 E14.91012
G1 X57.659 Y177 E21.08671
G1 X56.85 Y176.985 E21.13717
G1 X56.317 Y176.927 E21.17061
G1 X55.693 Y176.74 E21.21123
G1 X55.108 Y176.436 E21.25234
G1 X54.598 Y176.034 E21.29284
G1 X54.168 Y175.544 E21.3335
G1 X53.833 Y174.974 E21.37473
G1 X53.609 Y174.352 E21.41596
G1 X53.515 Y173.648 E21.46025
G1 X53.5 Y173.188 E21.48895
G1 X53.5 Y49.125 E29.22586
G1 X53.512 Y48.404 E29.27083
G1 X53.574 Y47.816 E29.30771
G1 X53.764 Y47.187 E29.34868
G1 X54.065 Y46.607 E29.38943
G1 X54.467 Y46.097 E29.42993
G0 F1500 X54.902 Y46.514
G1 F300 X55.316 Y46.151 E29.46427
G1 X55.777 Y45.88 E29.49762
G1 X56.291 Y45.695 E29.53168
G1 X56.929 Y45.61 E29.57182
G1 X57.314 Y45.6 E29.59584
G1 X156.335 Y45.6 E35.77106
G1 X157.088 Y45.613 E35.81803
G1 X157.567 Y45.665 E35.84808
G1 X158.09 Y45.823 E35.88215
G1 X158.568 Y46.073 E35.91579
G1 X158.993 Y46.407 E35.9495
G1 X159.345 Y46.812 E35.98296
G1 X159.621 Y47.281 E36.0169
G1 X159.805 Y47.799 E36.05118
G1 X159.89 Y48.429 E36.09082
G1 X159.9 Y48.814 E36.11484
G1 X159.9 Y172.799 E43.84689
G1 X159.888 Y173.582 E43.89572
G1 X159.837 Y174.063 E43.92589
G1 X159.679 Y174.585 E43.9599
G1 X159.431 Y175.063 E43.99348
G1 X159.1 Y175.484 E44.02688
G1 X158.688 Y175.845 E44.06104
G1 X158.225 Y176.119 E44.09459
G1 X157.71 Y176.304 E44.12872
G1 X157.071 Y176.39 E44.16893
G1 X156.686 Y176.4 E44.19295
G1 X57.669 Y176.4 E50.36792
G1 X56.915 Y176.388 E50.41495
G1 X56.435 Y176.336 E50.44505
G1 X55.918 Y176.181 E50.47871
G1 X55.434 Y175.929 E50.51274
G1 X55.015 Y175.599 E50.546
G1 X54.655 Y175.189 E50.58003
G1 X54.38 Y174.721 E50.61388
G1 X54.196 Y174.209 E50.64781
G1 X54.11 Y173.568 E50.68814
G1 X54.1 Y173.173 E50.71279
G1 X54.1 Y49.135 E58.44814
G1 X54.112 Y48.414 E58.49311
G1 X54.164 Y47.935 E58.52315
G1 X54.321 Y47.415 E58.55703
G1 X54.572 Y46.933 E58.59092
G1 X54.902 Y46.514 E58.62418
G0 F1500 X55.342 Y46.925
G1 F300 X55.664 Y46.643 E58.65087
G1 X56.034 Y46.426 E58.67762
G1 X56.437 Y46.281 E58.70433
G1 X56.945 Y46.21 E58.73632
G1 X57.33 Y46.2 E58.76034
G1 X156.326 Y46.2 E64.934
G1 X157.024 Y46.21 E64.97753
G1 X157.45 Y46.256 E65.00426
G1 X157.86 Y46.38 E65.03097
G1 X158.24 Y46.579 E65.05772
G1 X158.577 Y46.844 E65.08445
G1 X158.858 Y47.167 E65.11115
G1 X159.075 Y47.536 E65.13785
G1 X159.219 Y47.94 E65.1646
G1 X159.29 Y48.445 E65.1964
G1 X159.3 Y48.83 E65.22042
G1 X159.3 Y172.792 E72.95103
G1 X159.291 Y173.519 E72.99637
G1 X159.246 Y173.946 E73.02315
G1 X159.122 Y174.356 E73.04986
G1 X158.925 Y174.736 E73.07655
G1 X158.66 Y175.073 E73.10329
G1 X158.338 Y175.355 E73.12998
G1 X157.969 Y175.573 E73.15671
G1 X157.565 Y175.718 E73.18348
G1 X157.055 Y175.79 E73.2156
G1 X156.67 Y175.8 E73.23962
G1 X57.677 Y175.8 E79.41309
G1 X56.979 Y175.791 E79.45662
G1 X56.553 Y175.745 E79.48334
G1 X56.143 Y175.622 E79.51004
G1 X55.763 Y175.424 E79.53676
G1 X55.426 Y175.159 E79.5635
G1 X55.144 Y174.837 E79.59019
G1 X54.927 Y174.468 E79.61689
G1 X54.782 Y174.064 E79.64365
G1 X54.71 Y173.553 E79.67584
G1 X54.7 Y173.158 E79.70048
G1 X54.7 Y49.143 E87.43439
G1 X54.709 Y48.478 E87.47587
G1 X54.755 Y48.052 E87.50259
G1 X54.879 Y47.642 E87.5293
G1 X55.077 Y47.262 E87.55602
G1 X55.342 Y46.925 E87.58276
G1 F1500 E81.08276
;MESH:Seed_grid.stl
G0 X57.414 Y48.914
G0 X58.5 Y52.9
G0 X59.366 Y52.9
;TYPE:WALL-OUTER
G1 F1500 E87.58276
G1 F561.8 X154.6 Y52.9 E95.5114
G1 F1500 E89.0114
G0 X155.5 Y52.9
G0 X155.42 Y141.699
G0 X155.428 Y171.328
G0 X154.652 Y171.4
G0 X154.652 Y170.796
G1 F1500 E95.5114
G1 F750 X59.4 Y170.8 E101.45157
G1 X59.251 Y170.761 E101.46118
G1 X59.146 Y170.661 E101.47022
G1 X59.104 Y170.552 E101.47751
G1 X59.1 Y169.3 E101.55559
G1 X59.152 Y169.13 E101.56667
G1 F641.9 X59.366 Y168.9 E101.58956
G1 X59.152 Y168.67 E101.61245
G1 F750 X59.104 Y168.552 E101.6204
G1 X59.1 Y167.3 E101.69847
G1 X59.152 Y167.13 E101.70956
G1 F641.9 X59.366 Y166.9 E101.73245
G1 X59.152 Y166.67 E101.75534
G1 F750 X59.104 Y166.552 E101.76329
G1 X59.1 Y165.3 E101.84136
G1 X59.152 Y165.13 E101.85245
G1 F641.9 X59.366 Y164.9 E101.87534
G1 X59.152 Y164.67 E101.89823
G1 F750 X59.104 Y164.552 E101.90617
G1 X59.1 Y163.3 E101.98425
G1 X59.152 Y163.13 E101.99534
G1 F641.9 X59.366 Y162.9 E102.01823
G1 X59.152 Y162.67 E102.04112
G1 F750 X59.104 Y162.552 E102.04906
G1 X59.1 Y161.3 E102.12714
G1 X59.152 Y161.13 E102.13823
G1 F641.9 X59.366 Y160.9 E102.16112
G1 X59.152 Y160.67 E102.18401
G1 F750 X59.104 Y160.552 E102.19195
G1 X59.1 Y159.3 E102.27003
G1 X59.152 Y159.13 E102.28112
G1 F641.9 X59.366 Y158.9 E102.30401
G1 X59.152 Y158.67 E102.3269
G1 F750 X59.104 Y158.552 E102.33484
G1 X59.1 Y157.3 E102.41292
G1 X59.152 Y157.13 E102.42401
G1 F641.9 X59.366 Y156.9 E102.4469
G1 X59.152 Y156.67 E102.46979
G1 F750 X59.104 Y156.552 E102.47773
G1 X59.1 Y155.3 E102.55581
G1 X59.152 Y155.13 E102.5669
G1 F641.9 X59.366 Y154.9 E102.58979
G1 X59.152 Y154.67 E102.61268
G1 F750 X59.104 Y154.552 E102.62062
G1 X59.1 Y153.3 E102.6987
G1 X59.152 Y153.13 E102.70978
G1 F641.9 X59.366 Y152.9 E102.73267
G1 X59.152 Y152.67 E102.75556
G1 F750 X59.104 Y152.552 E102.76351
G1 X59.1 Y151.3 E102.84159
G1 X59.152 Y151.13 E102.85267
G1 F641.9 X59.366 Y150.9 E102.87556
G1 X59.152 Y150.67 E102.89845
G1 F750 X59.104 Y150.552 E102.9064
G1 X59.1 Y149.3 E102.98448
G1 X59.152 Y149.13 E102.99556
G1 F641.9 X59.366 Y148.9 E103.01845
G1 X59.152 Y148.67 E103.04134
G1 F750 X59.104 Y148.552 E103.04929
G1 X59.1 Y147.3 E103.12737
G1 X59.152 Y147.13 E103.13845
G1 F641.9 X59.366 Y146.9 E103.16134
G1 X59.152 Y146.67 E103.18423
G1 F750 X59.104 Y146.552 E103.19218
G1 X59.1 Y145.3 E103.27025
G1 X59.152 Y145.13 E103.28134
G1 F641.9 X59.366 Y144.9 E103.30423
G1 X59.152 Y144.67 E103.32712
G1 F750 X59.104 Y144.552 E103.33506
G1 X59.1 Y143.3 E103.41314
G1 X59.152 Y143.13 E103.42423
G1 F641.9 X59.366 Y142.9 E103.44712
G1 X59.152 Y142.67 E103.47001
G1 F750 X59.104 Y142.552 E103.47795
G1 X59.1 Y141.3 E103.55603
G1 X59.152 Y141.13 E103.56712
G1 F641.9 X59.366 Y140.9 E103.59001
G1 X59.152 Y140.67 E103.6129
G1 F750 X59.104 Y140.552 E103.62084
G1 X59.1 Y139.3 E103.69892
G1 X59.152 Y139.13 E103.71001
G1 F641.9 X59.366 Y138.9 E103.7329
G1 X59.152 Y138.67 E103.75579
G1 F750 X59.104 Y138.552 E103.76373
G1 X59.1 Y137.3 E103.84181
G1 X59.152 Y137.13 E103.8529
G1 F641.9 X59.366 Y136.9 E103.87579
G1 X59.152 Y136.67 E103.89868
G1 F750 X59.104 Y136.552 E103.90662
G1 X59.1 Y135.3 E103.9847
G1 X59.152 Y135.13 E103.99579
G1 F641.9 X59.366 Y134.9 E104.01868
G1 X59.152 Y134.67 E104.04157
G1 F750 X59.104 Y134.552 E104.04951
G1 X59.1 Y133.3 E104.12759
G1 X59.152 Y133.13 E104.13868
G1 F641.9 X59.366 Y132.9 E104.16156
G1 X59.152 Y132.67 E104.18445
G1 F750 X59.104 Y132.552 E104.1924
G1 X59.1 Y131.3 E104.27048
G1 X59.152 Y131.13 E104.28156
G1 F641.9 X59.366 Y130.9 E104.30445
G1 X59.152 Y130.67 E104.32734
G1 F750 X59.104 Y130.552 E104.33529
G1 X59.1 Y129.3 E104.41337
G1 X59.152 Y129.13 E104.42445
G1 F641.9 X59.366 Y128.9 E104.44734
G1 X59.152 Y128.67 E104.47023
G1 F750 X59.104 Y128.552 E104.47818
G1 X59.1 Y127.3 E104.55626
G1 X59.152 Y127.13 E104.56734
G1 F641.9 X59.366 Y126.9 E104.59023
G1 X59.152 Y126.67 E104.61312
G1 F750 X59.104 Y126.552 E104.62107
G1 X59.1 Y125.3 E104.69914
G1 X59.152 Y125.13 E104.71023
G1 F641.9 X59.366 Y124.9 E104.73312
G1 X59.152 Y124.67 E104.75601
G1 F750 X59.104 Y124.552 E104.76396
G1 X59.1 Y123.3 E104.84203
G1 X59.152 Y123.13 E104.85312
G1 F641.9 X59.366 Y122.9 E104.87601
G1 X59.152 Y122.67 E104.8989
G1 F750 X59.104 Y122.552 E104.90684
G1 X59.1 Y121.3 E104.98492
G1 X59.152 Y121.13 E104.99601
G1 F641.9 X59.366 Y120.9 E105.0189
G1 X59.152 Y120.67 E105.04179
G1 F750 X59.104 Y120.552 E105.04973
G1 X59.1 Y119.3 E105.12781
G1 X59.152 Y119.13 E105.1389
G1 F641.9 X59.366 Y118.9 E105.16179
G1 X59.152 Y118.67 E105.18468
G1 F750 X59.104 Y118.552 E105.19262
G1 X59.1 Y117.3 E105.2707
G1 X59.152 Y117.13 E105.28179
G1 F641.9 X59.366 Y116.9 E105.30468
G1 X59.152 Y116.67 E105.32757
G1 F750 X59.104 Y116.552 E105.33551
G1 X59.1 Y115.3 E105.41359
G1 X59.152 Y115.13 E105.42468
G1 F641.9 X59.366 Y114.9 E105.44757
G1 X59.152 Y114.67 E105.47046
G1 F750 X59.104 Y114.552 E105.4784
G1 X59.1 Y113.3 E105.55648
G1 X59.152 Y113.13 E105.56757
G1 F641.9 X59.366 Y112.9 E105.59046
G1 X59.152 Y112.67 E105.61334
G1 F750 X59.104 Y112.552 E105.62129
G1 X59.1 Y111.3 E105.69937
G1 X59.152 Y111.13 E105.71045
G1 F641.9 X59.366 Y110.9 E105.73334
G1 X59.152 Y110.67 E105.75623
G1 F750 X59.104 Y110.552 E105.76418
G1 X59.1 Y109.3 E105.84226
G1 X59.152 Y109.13 E105.85334
G1 F641.9 X59.366 Y108.9 E105.87623
G1 X59.152 Y108.67 E105.89912
G1 F750 X59.104 Y108.552 E105.90707
G1 X59.1 Y107.3 E105.98515
G1 X59.152 Y107.13 E105.99623
G1 F641.9 X59.366 Y106.9 E106.01912
G1 X59.152 Y106.67 E106.04201
G1 F750 X59.104 Y106.552 E106.04996
G1 X59.1 Y105.3 E106.12803
G1 X59.152 Y105.13 E106.13912
G1 F641.9 X59.366 Y104.9 E106.16201
G1 X59.152 Y104.67 E106.1849
G1 F750 X59.104 Y104.552 E106.19285
G1 X59.1 Y103.3 E106.27092
G1 X59.152 Y103.13 E106.28201
G1 F641.9 X59.366 Y102.9 E106.3049
G1 X59.152 Y102.67 E106.32779
G1 F750 X59.104 Y102.552 E106.33573
G1 X59.1 Y101.3 E106.41381
G1 X59.152 Y101.13 E106.4249
G1 F641.9 X59.366 Y100.9 E106.44779
G1 X59.152 Y100.67 E106.47068
G1 F750 X59.104 Y100.552 E106.47862
G1 X59.1 Y99.3 E106.5567
G1 X59.152 Y99.13 E106.56779
G1 F641.9 X59.366 Y98.9 E106.59068
G1 X59.152 Y98.67 E106.61357
G1 F750 X59.104 Y98.552 E106.62151
G1 X59.1 Y97.3 E106.69959
G1 X59.152 Y97.13 E106.71068
G1 F641.9 X59.366 Y96.9 E106.73357
G1 X59.152 Y96.67 E106.75646
G1 F750 X59.104 Y96.552 E106.7644
G1 X59.1 Y95.3 E106.84248
G1 X59.152 Y95.13 E106.85357
G1 F641.9 X59.366 Y94.9 E106.87646
G1 X59.152 Y94.67 E106.89935
G1 F750 X59.104 Y94.552 E106.90729
G1 X59.1 Y93.3 E106.98537
G1 X59.152 Y93.13 E106.99646
G1 F641.9 X59.366 Y92.9 E107.01935
G1 X59.152 Y92.67 E107.04224
G1 F750 X59.104 Y92.552 E107.05018
G1 X59.1 Y91.3 E107.12826
G1 X59.152 Y91.13 E107.13934
G1 F641.9 X59.366 Y90.9 E107.16223
G1 X59.152 Y90.67 E107.18512
G1 F750 X59.104 Y90.552 E107.19307
G1 X59.1 Y89.3 E107.27115
G1 X59.152 Y89.13 E107.28223
G1 F641.9 X59.366 Y88.9 E107.30512
G1 X59.152 Y88.67 E107.32801
G1 F750 X59.104 Y88.552 E107.33596
G1 X59.1 Y87.3 E107.41404
G1 X59.152 Y87.13 E107.42512
G1 F641.9 X59.366 Y86.9 E107.44801
G1 X59.152 Y86.67 E107.4709
G1 F750 X59.104 Y86.552 E107.47885
G1 X59.1 Y85.3 E107.55693
G1 X59.152 Y85.13 E107.56801
G1 F641.9 X59.366 Y84.9 E107.5909
G1 X59.152 Y84.67 E107.61379
G1 F750 X59.104 Y84.552 E107.62174
G1 X59.1 Y83.3 E107.69981
G1 X59.152 Y83.13 E107.7109
G1 F641.9 X59.366 Y82.9 E107.73379
G1 X59.152 Y82.67 E107.75668
G1 F750 X59.104 Y82.552 E107.76462
G1 X59.1 Y81.3 E107.8427
G1 X59.152 Y81.13 E107.85379
G1 F641.9 X59.366 Y80.9 E107.87668
G1 X59.152 Y80.67 E107.89957
G1 F750 X59.104 Y80.552 E107.90751
G1 X59.1 Y79.3 E107.98559
G1 X59.152 Y79.13 E107.99668
G1 F641.9 X59.366 Y78.9 E108.01957
G1 X59.152 Y78.67 E108.04246
G1 F750 X59.104 Y78.552 E108.0504
G1 X59.1 Y77.3 E108.12848
G1 X59.152 Y77.13 E108.13957
G1 F641.9 X59.366 Y76.9 E108.16246
G1 X59.152 Y76.67 E108.18535
G1 F750 X59.104 Y76.552 E108.19329
G1 X59.1 Y75.3 E108.27137
G1 X59.152 Y75.13 E108.28246
G1 F641.9 X59.366 Y74.9 E108.30535
G1 X59.152 Y74.67 E108.32824
G1 F750 X59.104 Y74.552 E108.33618
G1 X59.1 Y73.3 E108.41426
G1 X59.152 Y73.13 E108.42535
G1 F641.9 X59.366 Y72.9 E108.44824
G1 X59.152 Y72.67 E108.47113
G1 F750 X59.104 Y72.552 E108.47907
G1 X59.1 Y71.3 E108.55715
G1 X59.152 Y71.13 E108.56824
G1 F641.9 X59.366 Y70.9 E108.59112
G1 X59.152 Y70.67 E108.61401
G1 F750 X59.104 Y70.552 E108.62196
G1 X59.1 Y69.3 E108.70004
G1 X59.152 Y69.13 E108.71112
G1 F641.9 X59.366 Y68.9 E108.73401
G1 X59.152 Y68.67 E108.7569
G1 F750 X59.104 Y68.552 E108.76485
G1 X59.1 Y67.3 E108.84293
G1 X59.152 Y67.13 E108.85401
G1 F641.9 X59.366 Y66.9 E108.8769
G1 X59.152 Y66.67 E108.89979
G1 F750 X59.104 Y66.552 E108.90774
G1 X59.1 Y65.3 E108.98582
G1 X59.152 Y65.13 E108.9969
G1 F641.9 X59.366 Y64.9 E109.01979
G1 X59.152 Y64.67 E109.04268
G1 F750 X59.104 Y64.552 E109.05063
G1 X59.1 Y63.3 E109.1287
G1 X59.152 Y63.13 E109.13979
G1 F641.9 X59.366 Y62.9 E109.16268
G1 X59.152 Y62.67 E109.18557
G1 F750 X59.104 Y62.552 E109.19352
G1 X59.1 Y61.3 E109.27159
G1 X59.152 Y61.13 E109.28268
G1 F641.9 X59.366 Y60.9 E109.30557
G1 X59.152 Y60.67 E109.32846
G1 F750 X59.104 Y60.552 E109.3364
G1 X59.1 Y59.3 E109.41448
G1 X59.152 Y59.13 E109.42557
G1 F641.9 X59.366 Y58.9 E109.44846
G1 X59.152 Y58.67 E109.47135
G1 F750 X59.104 Y58.552 E109.47929
G1 X59.1 Y57.3 E109.55737
G1 X59.152 Y57.13 E109.56846
G1 F641.9 X59.366 Y56.9 E109.59135
G1 X59.152 Y56.67 E109.61424
G1 F750 X59.104 Y56.552 E109.62218
G1 X59.1 Y55.3 E109.70026
G1 X59.152 Y55.13 E109.71135
G1 F641.9 X59.366 Y54.9 E109.73424
G1 X59.152 Y54.67 E109.75713
G1 F750 X59.104 Y54.552 E109.76507
G1 X59.1 Y53.3 E109.84315
G1 X59.152 Y53.13 E109.85424
G1 F641.9 X59.366 Y52.9 E109.87713
G1 X59.152 Y52.67 E109.90002
G1 F750 X59.104 Y52.552 E109.90796
G1 X59.1 Y51.3 E109.98604
G1 X59.138 Y51.151 E109.99563
G1 X59.23 Y51.052 E110.00406
G1 X59.348 Y51.004 E110.012
G1 X154.6 Y51 E115.95218
G1 X154.77 Y51.052 E115.96326
G1 X154.862 Y51.151 E115.97169
G1 X154.9 Y51.3 E115.98128
G1 X154.896 Y52.552 E116.05936
G1 X154.848 Y52.67 E116.0673
G1 F642.9 X154.6 Y52.9 E116.09191
G1 X154.848 Y53.13 E116.11652
G1 F750 X154.9 Y53.3 E116.12761
G1 X154.896 Y54.552 E116.20569
G1 X154.848 Y54.67 E116.21363
G1 F642.9 X154.6 Y54.9 E116.23824
G1 X154.848 Y55.13 E116.26285
G1 F750 X154.9 Y55.3 E116.27394
G1 X154.896 Y56.552 E116.35202
G1 X154.848 Y56.67 E116.35996
G1 F642.9 X154.6 Y56.9 E116.38457
G1 X154.848 Y57.13 E116.40918
G1 F750 X154.9 Y57.3 E116.42026
G1 X154.896 Y58.552 E116.49834
G1 X154.848 Y58.67 E116.50629
G1 F642.9 X154.6 Y58.9 E116.5309
G1 X154.848 Y59.13 E116.5555
G1 F750 X154.9 Y59.3 E116.56659
G1 X154.896 Y60.552 E116.64467
G1 X154.848 Y60.67 E116.65261
G1 F642.9 X154.6 Y60.9 E116.67722
G1 X154.848 Y61.13 E116.70183
G1 F750 X154.9 Y61.3 E116.71292
G1 X154.896 Y62.552 E116.791
G1 X154.848 Y62.67 E116.79894
G1 F642.9 X154.6 Y62.9 E116.82355
G1 X154.848 Y63.13 E116.84816
G1 F750 X154.9 Y63.3 E116.85925
G1 X154.896 Y64.552 E116.93732
G1 X154.848 Y64.67 E116.94527
G1 F642.9 X154.6 Y64.9 E116.96988
G1 X154.848 Y65.13 E116.99449
G1 F750 X154.9 Y65.3 E117.00557
G1 X154.896 Y66.552 E117.08365
