;FLAVOR:Marlin
;TIME:4263
;Filament used: 1.71613m
;Layer height: 0.2
;MINX:90.169
;MINY:95.603
;MINZ:0.2
;MAXX:127.985
;MAXY:120.927
;MAXZ:42.4
;TARGET_MACHINE.NAME:Creality Ender-3 Pro
;Generated with Cura_SteamEngine 5.6.0
M82 ;absolute extrusion mode
; Ender 3 Custom Start G-code
G92 E0 ; Reset Extruder
G28 ; Home all axes
G1 Z5.0 F3000 ; Move Z Axis up a bit during heating to not damage bed
M104 S175 ; Start heating up the nozzle most of the way
M190 S85 ; Start heating the bed, wait until target temperature reached
M109 S215.0 ; Finish heating the nozzle
G1 Z2.0 F3000 ; Move Z Axis up little to prevent scratching of Heat Bed
G1 X0.1 Y20 Z0.3 F5000.0 ; Move to start position
G1 X0.1 Y200.0 Z0.3 F1500.0 E15 ; Draw the first line
G1 X0.4 Y200.0 Z0.3 F5000.0 ; Move to side a little
G1 X0.4 Y20 Z0.3 F1500.0 E30 ; Draw the second line
G92 E0 ; Reset Extruder
G1 Z2.0 F3000 ; Move Z Axis up little to prevent scratching of Heat Bed
G1 X5 Y20 Z0.3 F5000.0 ; Move over to prevent blob squish
G92 E0
G92 E0
G1 F1500 E-6.5
;LAYER_COUNT:212
;LAYER:0
M107
G0 X92.287 Y99.561 Z0.2
;TYPE:SKIRT
G1 F1500 E0
G1 F300 X92.619 Y99.266 E0.0277
G1 X93.089 Y98.904 E0.06469
G1 X93.596 Y98.567 E0.10266
G1 X94.207 Y98.222 E0.14642
G1 X95.053 Y97.818 E0.20488
G1 X95.924 Y97.467 E0.26345
G1 X96.711 Y97.203 E0.31521
G1 X97.415 Y96.993 E0.36103
G1 X98.152 Y96.802 E0.40851
G1 X98.869 Y96.637 E0.45439
G1 X100.027 Y96.408 E0.52801
G1 X100.919 Y96.257 E0.58442
G1 X102.239 Y96.068 E0.66758
G1 X103.173 Y95.959 E0.72622
G1 X104.107 Y95.864 E0.78477
G1 X105.095 Y95.782 E0.8466
G1 X107.053 Y95.665 E0.96892
G1 X108.084 Y95.631 E1.03325
G1 X109.952 Y95.603 E1.14976
G1 X111.014 Y95.61 E1.21599
G1 X112.026 Y95.633 E1.27912
G1 X112.996 Y95.673 E1.33966
G1 X114.43 Y95.759 E1.42925
G1 X115.808 Y95.882 E1.51553
G1 X116.721 Y95.984 E1.57282
G1 X117.597 Y96.098 E1.62791
G1 X118.472 Y96.236 E1.68315
G1 X119.292 Y96.385 E1.73513
G1 X120.157 Y96.566 E1.79024
G1 X121.133 Y96.813 E1.85302
G1 X122.418 Y97.217 E1.93703
G1 X122.995 Y97.437 E1.97554
G1 X123.539 Y97.677 E2.01262
G1 X124.274 Y98.052 E2.06408
G1 X124.619 Y98.259 E2.08917
G1 X125.069 Y98.56 E2.12293
G1 X125.405 Y98.814 E2.1492
G1 X126.07 Y99.414 E2.20505
G1 X126.667 Y100.098 E2.26167
G1 X127.139 Y100.781 E2.31345
G1 X127.63 Y101.833 E2.38585
G1 X127.901 Y103.038 E2.46287
G1 X127.965 Y103.687 E2.50354
G1 X127.985 Y104.519 E2.55544
G1 X127.973 Y105.101 E2.59174
G1 X127.881 Y106.343 E2.66941
G1 X127.782 Y107.084 E2.71603
G1 X127.666 Y107.737 E2.75739
G1 X127.479 Y108.567 E2.81045
G1 X127.278 Y109.295 E2.85755
G1 X127.101 Y109.856 E2.89423
G1 X126.641 Y111.075 E2.97549
G1 X126.346 Y111.738 E3.02074
G1 X125.899 Y112.623 E3.08257
G1 X125.63 Y113.094 E3.1164
G1 X125.071 Y113.993 E3.18242
G1 X124.613 Y114.642 E3.23195
G1 X124.184 Y115.202 E3.27595
G1 X123.919 Y115.522 E3.30186
G1 X123.429 Y116.084 E3.34836
G1 X122.923 Y116.614 E3.39405
G1 X122.326 Y117.186 E3.44561
G1 X121.769 Y117.681 E3.49209
G1 X121.241 Y118.114 E3.53467
G1 X120.592 Y118.604 E3.58538
G1 X119.806 Y119.128 E3.64429
G1 X119.04 Y119.542 E3.69859
G1 X118.034 Y119.86 E3.76439
G1 X116.736 Y120.042 E3.84613
G1 X115.4 Y119.851 E3.93029
G1 X114.466 Y119.549 E3.99151
G1 X113.524 Y119.055 E4.05784
G1 X112.575 Y118.31 E4.13308
G1 X111.854 Y117.464 E4.2024
G1 X111.47 Y116.51 E4.26654
G1 X111.304 Y115.62 E4.323
G1 X111.3 Y115.426 E4.3351
G1 X111.44 Y114.434 E4.39757
G1 X111.672 Y113.832 E4.43781
G1 X112.045 Y113.134 E4.48716
G1 X112.6 Y112.489 E4.54023
G1 X113.305 Y112.026 E4.59283
G1 X113.904 Y111.722 E4.63472
G1 X114.211 Y111.554 E4.65654
G1 X114.827 Y111.171 E4.70178
G1 X115.254 Y110.865 E4.73454
G1 X115.516 Y110.663 E4.75517
G1 X115.785 Y110.435 E4.77716
G1 X116.103 Y110.144 E4.80404
G1 X116.582 Y109.64 E4.8474
G1 X116.774 Y109.412 E4.86599
G1 X117.033 Y109.081 E4.8922
G1 X117.223 Y108.815 E4.91259
G1 X117.412 Y108.527 E4.93407
G1 X117.594 Y108.22 E4.95633
G1 X117.754 Y107.925 E4.97726
G1 X117.898 Y107.625 E4.99801
G1 X118.046 Y107.28 E5.02142
G1 X118.272 Y106.637 E5.06392
G1 X118.344 Y106.381 E5.08051
G1 X118.461 Y105.835 E5.11533
G1 X117.84 Y105.684 E5.15519
G1 X117.379 Y105.593 E5.18449
G1 X116.432 Y105.433 E5.24439
G1 X115.405 Y105.294 E5.30902
G1 X114.347 Y105.185 E5.37534
G1 X113.305 Y105.103 E5.44053
G1 X112.695 Y105.068 E5.47863
G1 X111.57 Y105.021 E5.54885
G1 X109.726 Y104.996 E5.66386
G1 X108.507 Y105.016 E5.73989
G1 X107.176 Y105.064 E5.82295
G1 X106.592 Y105.095 E5.85942
G1 X105.498 Y105.173 E5.92782
G1 X104.357 Y105.284 E5.99931
G1 X103.197 Y105.423 E6.07217
G1 X102.224 Y105.569 E6.13353
G1 X101.291 Y105.737 E6.19265
G1 X100.516 Y105.905 E6.2421
G1 X99.735 Y106.107 E6.29241
G1 X99.864 Y106.637 E6.32642
G1 X99.973 Y106.976 E6.34863
G1 X100.079 Y107.265 E6.36783
G1 X100.225 Y107.611 E6.39125
G1 X100.362 Y107.904 E6.41142
G1 X100.487 Y108.145 E6.42835
G1 X100.729 Y108.561 E6.45836
G1 X100.886 Y108.81 E6.47672
G1 X101.056 Y109.049 E6.49501
G1 X101.313 Y109.385 E6.52139
G1 X101.484 Y109.591 E6.53809
G1 X101.772 Y109.907 E6.56475
G1 X102.04 Y110.178 E6.58852
G1 X102.265 Y110.39 E6.6078
G1 X102.56 Y110.641 E6.63195
G1 X102.829 Y110.854 E6.65335
G1 X103.196 Y111.122 E6.68169
G1 X103.452 Y111.294 E6.70093
G1 X103.796 Y111.503 E6.72603
G1 X104.114 Y111.682 E6.74878
G1 X104.434 Y111.846 E6.77121
G1 X105.156 Y112.183 E6.8209
G1 X106.04 Y112.83 E6.88921
G1 X106.635 Y113.673 E6.95356
G1 X106.999 Y114.48 E7.00877
G1 X107.049 Y114.668 E7.0209
G1 X107.154 Y115.727 E7.08727
G1 X107.048 Y116.533 E7.13797
G1 X106.737 Y117.374 E7.19388
G1 X106.326 Y118.022 E7.24174
G1 X105.318 Y119.038 E7.33099
G1 X103.935 Y119.833 E7.43047
G1 X102.371 Y120.233 E7.53115
G1 X101.076 Y120.204 E7.61193
G1 X99.965 Y119.978 E7.68263
G1 X98.87 Y119.524 E7.75656
G1 X97.967 Y118.928 E7.82403
G1 X97.482 Y118.584 E7.86111
G1 X97.016 Y118.238 E7.89731
G1 X96.566 Y117.878 E7.93325
G1 X96.053 Y117.433 E7.9756
G1 X95.587 Y117.003 E8.01514
G1 X95.145 Y116.568 E8.05381
G1 X94.715 Y116.113 E8.09286
G1 X94.3 Y115.643 E8.13196
G1 X93.915 Y115.176 E8.1697
G1 X93.548 Y114.699 E8.20723
G1 X93.172 Y114.174 E8.24751
G1 X92.845 Y113.681 E8.2844
G1 X92.534 Y113.176 E8.32139
G1 X92.225 Y112.629 E8.36056
G1 X91.933 Y112.068 E8.40001
G1 X91.504 Y111.131 E8.46427
G1 X91.141 Y110.194 E8.52694
G1 X90.95 Y109.623 E8.56449
G1 X90.712 Y108.797 E8.61809
G1 X90.466 Y107.696 E8.68845
G1 X90.368 Y107.121 E8.72482
G1 X90.241 Y106.115 E8.78806
G1 X90.179 Y105.136 E8.84923
G1 X90.169 Y104.547 E8.88597
G1 X90.192 Y103.645 E8.94224
G1 X90.399 Y102.598 E9.0088
G1 X90.749 Y101.705 E9.06861
G1 X91.259 Y100.737 E9.13685
G1 X91.829 Y100.038 E9.19309
G1 X92.287 Y99.561 E9.23433
G0 F1500 X92.686 Y100.01
G1 F300 X93.018 Y99.715 E9.26203
G1 X93.421 Y99.404 E9.29378
G1 X93.928 Y99.067 E9.33174
G1 X94.466 Y98.763 E9.37028
G1 X95.277 Y98.375 E9.42634
G1 X96.148 Y98.024 E9.48491
G1 X96.882 Y97.778 E9.53318
G1 X97.566 Y97.574 E9.5777
G1 X98.287 Y97.387 E9.62415
G1 X98.986 Y97.226 E9.66888
G1 X100.127 Y97 E9.74142
G1 X101.004 Y96.851 E9.79689
G1 X102.309 Y96.664 E9.87911
G1 X103.234 Y96.556 E9.93719
G1 X104.157 Y96.462 E9.99505
G1 X105.131 Y96.381 E10.056
G1 X107.073 Y96.265 E10.17732
G1 X108.093 Y96.231 E10.24097
G1 X109.948 Y96.203 E10.35666
G1 X111 Y96.21 E10.42227
G1 X112.002 Y96.233 E10.48477
G1 X112.96 Y96.272 E10.54457
G1 X114.377 Y96.357 E10.63309
G1 X115.741 Y96.478 E10.71849
G1 X116.644 Y96.579 E10.77515
G1 X117.504 Y96.691 E10.82924
G1 X118.365 Y96.826 E10.88359
G1 X119.169 Y96.972 E10.93455
G1 X120.01 Y97.148 E10.98813
G1 X120.986 Y97.395 E11.05092
G1 X122.204 Y97.778 E11.13054
G1 X122.781 Y97.998 E11.16905
G1 X123.267 Y98.212 E11.20217
G1 X123.966 Y98.567 E11.25106
G1 X124.286 Y98.758 E11.2743
G1 X124.707 Y99.039 E11.30587
G1 X125.043 Y99.293 E11.33213
G1 X125.62 Y99.811 E11.38049
G1 X126.173 Y100.439 E11.43267
G1 X126.616 Y101.08 E11.48127
G1 X127.059 Y102.029 E11.54658
G1 X127.304 Y103.098 E11.61497
G1 X127.365 Y103.702 E11.65283
G1 X127.385 Y104.507 E11.70305
G1 X127.373 Y105.089 E11.73935
G1 X127.286 Y106.264 E11.81283
G1 X127.191 Y106.979 E11.85781
G1 X127.075 Y107.632 E11.89917
G1 X126.901 Y108.407 E11.9487
G1 X126.706 Y109.114 E11.99444
G1 X126.529 Y109.675 E12.03113
G1 X126.093 Y110.831 E12.10818
G1 X125.81 Y111.467 E12.15159
G1 X125.363 Y112.352 E12.21342
G1 X125.12 Y112.778 E12.244
G1 X124.58 Y113.648 E12.30786
G1 X124.137 Y114.277 E12.35584
G1 X123.721 Y114.82 E12.3985
G1 X123.467 Y115.128 E12.42339
G1 X122.995 Y115.67 E12.46822
G1 X122.508 Y116.181 E12.51224
G1 X121.927 Y116.738 E12.56243
G1 X121.389 Y117.217 E12.60735
G1 X120.879 Y117.635 E12.64848
G1 X120.23 Y118.125 E12.69919
G1 X119.521 Y118.6 E12.75241
G1 X118.805 Y118.987 E12.80317
G1 X117.9 Y119.273 E12.86236
G1 X116.738 Y119.436 E12.93553
G1 X115.535 Y119.264 E13.01132
G1 X114.699 Y118.994 E13.0661
G1 X113.854 Y118.551 E13.1256
G1 X112.992 Y117.874 E13.19396
G1 X112.375 Y117.15 E13.25328
G1 X112.049 Y116.34 E13.30773
G1 X111.894 Y115.51 E13.36039
G1 X112.024 Y114.587 E13.41852
G1 X112.201 Y114.115 E13.44995
G1 X112.543 Y113.475 E13.49521
G1 X112.999 Y112.945 E13.53881
G1 X113.577 Y112.561 E13.58208
G1 X114.176 Y112.257 E13.62397
G1 X114.521 Y112.068 E13.64851
G1 X114.927 Y111.823 E13.67808
G1 X115.173 Y111.662 E13.69641
G1 X115.604 Y111.353 E13.72949
G1 X115.893 Y111.13 E13.75225
G1 X116.179 Y110.888 E13.77561
G1 X116.508 Y110.587 E13.80342
G1 X116.698 Y110.397 E13.82018
G1 X117.022 Y110.048 E13.84988
G1 X117.247 Y109.782 E13.8716
G1 X117.506 Y109.451 E13.89781
G1 X117.715 Y109.159 E13.92021
G1 X117.921 Y108.845 E13.94363
G1 X118.11 Y108.527 E13.9667
G1 X118.282 Y108.211 E13.98913
G1 X118.439 Y107.885 E14.0117
G1 X118.599 Y107.512 E14.03701
G1 X118.713 Y107.21 E14.05714
G1 X118.841 Y106.828 E14.08227
G1 X118.928 Y106.52 E14.10223
G1 X119.011 Y106.16 E14.12526
G1 X119.069 Y105.852 E14.14481
G1 X119.133 Y105.4 E14.17328
G1 X118.749 Y105.288 E14.19822
G1 X117.982 Y105.101 E14.24746
G1 X117.479 Y105.001 E14.27944
G1 X116.519 Y104.839 E14.34015
G1 X115.486 Y104.699 E14.40516
G1 X114.409 Y104.588 E14.47268
G1 X113.339 Y104.504 E14.53962
G1 X112.729 Y104.469 E14.57772
G1 X111.578 Y104.421 E14.64956
G1 X109.724 Y104.396 E14.76519
G1 X108.485 Y104.416 E14.84247
G1 X107.154 Y104.465 E14.92553
G1 X106.561 Y104.496 E14.96257
G1 X105.44 Y104.576 E15.03265
G1 X104.286 Y104.688 E15.10496
G1 X103.126 Y104.827 E15.17781
G1 X102.118 Y104.978 E15.24138
G1 X101.185 Y105.146 E15.3005
G1 X100.366 Y105.324 E15.35277
G1 X99.771 Y105.478 E15.39109
G1 X99.051 Y105.704 E15.43816
G1 X99.12 Y106.109 E15.46378
G1 X99.209 Y106.511 E15.48945
G1 X99.287 Y106.803 E15.5083
G1 X99.409 Y107.182 E15.53313
G1 X99.52 Y107.486 E15.55331
G1 X99.672 Y107.845 E15.57763
G1 X99.829 Y108.18 E15.6007
G1 X99.966 Y108.444 E15.61925
G1 X100.214 Y108.87 E15.64999
G1 X100.381 Y109.135 E15.66952
G1 X100.579 Y109.414 E15.69086
G1 X100.836 Y109.75 E15.71724
G1 X101.041 Y109.996 E15.73721
G1 X101.345 Y110.329 E15.76533
G1 X101.613 Y110.6 E15.78909
G1 X101.868 Y110.84 E15.81093
G1 X102.177 Y111.103 E15.83624
G1 X102.475 Y111.339 E15.85994
G1 X102.842 Y111.607 E15.88828
G1 X103.14 Y111.807 E15.91067
G1 X103.484 Y112.016 E15.93577
G1 X103.841 Y112.216 E15.96129
G1 X104.164 Y112.381 E15.98391
G1 X104.848 Y112.701 E16.031
G1 X105.606 Y113.256 E16.08959
G1 X106.111 Y113.971 E16.14418
G1 X106.452 Y114.727 E16.1959
G1 X106.55 Y115.717 E16.25794
G1 X106.462 Y116.388 E16.30014
G1 X106.197 Y117.104 E16.34775
G1 X105.851 Y117.649 E16.38801
G1 X104.95 Y118.558 E16.46783
G1 X103.707 Y119.272 E16.55722
G1 X102.303 Y119.631 E16.6476
G1 X101.143 Y119.605 E16.71996
G1 X100.14 Y119.401 E16.78379
G1 X99.153 Y118.992 E16.85041
G1 X98.314 Y118.439 E16.91308
G1 X97.84 Y118.103 E16.94931
G1 X97.391 Y117.769 E16.98421
G1 X96.941 Y117.409 E17.02015
G1 X96.459 Y116.991 E17.05994
G1 X96.008 Y116.576 E17.09816
G1 X95.581 Y116.155 E17.13555
G1 X95.165 Y115.716 E17.17327
G1 X94.763 Y115.261 E17.21113
G1 X94.391 Y114.81 E17.24759
G1 X94.024 Y114.333 E17.28513
G1 X93.672 Y113.843 E17.32275
G1 X93.356 Y113.366 E17.35843
G1 X93.045 Y112.861 E17.39542
G1 X92.757 Y112.352 E17.43189
G1 X92.479 Y111.818 E17.46944
G1 X92.05 Y110.881 E17.5337
G1 X91.71 Y110.004 E17.59236
G1 X91.527 Y109.457 E17.62833
G1 X91.289 Y108.631 E17.68194
G1 X91.057 Y107.595 E17.74815
G1 X90.963 Y107.045 E17.78294
G1 X90.84 Y106.077 E17.8438
G1 X90.779 Y105.125 E17.90329
G1 X90.769 Y104.563 E17.93834
G1 X90.791 Y103.712 E17.99143
G1 X90.978 Y102.763 E18.05175
G1 X91.28 Y101.985 E18.1038
G1 X91.763 Y101.068 E18.16843
G1 X92.294 Y100.417 E18.22082
G1 X92.686 Y100.01 E18.25606
G0 F1500 X93.085 Y100.459
G1 F300 X93.417 Y100.164 E18.28376
G1 X93.754 Y99.903 E18.31034
G1 X94.224 Y99.589 E18.34559
G1 X94.726 Y99.304 E18.38159
G1 X95.501 Y98.932 E18.4352
G1 X96.372 Y98.581 E18.49376
G1 X97.053 Y98.353 E18.53855
G1 X97.717 Y98.155 E18.58176
G1 X98.422 Y97.972 E18.62718
G1 X99.103 Y97.815 E18.67076
G1 X100.244 Y97.589 E18.7433
G1 X101.089 Y97.445 E18.79676
G1 X102.379 Y97.26 E18.87803
G1 X103.295 Y97.153 E18.93554
G1 X104.207 Y97.06 E18.99271
G1 X105.167 Y96.98 E19.05279
G1 X107.093 Y96.865 E19.17311
G1 X108.102 Y96.831 E19.23607
G1 X109.944 Y96.803 E19.35096
G1 X110.987 Y96.81 E19.416
G1 X111.977 Y96.832 E19.47776
G1 X112.924 Y96.871 E19.53687
G1 X114.324 Y96.955 E19.62433
G1 X115.674 Y97.074 E19.70885
G1 X116.567 Y97.174 E19.76488
G1 X117.412 Y97.284 E19.81803
G1 X118.258 Y97.416 E19.87142
G1 X119.046 Y97.559 E19.92137
G1 X119.863 Y97.73 E19.97342
G1 X120.839 Y97.977 E20.03621
G1 X121.99 Y98.339 E20.11145
G1 X122.567 Y98.559 E20.14996
G1 X123.025 Y98.761 E20.18118
G1 X123.66 Y99.083 E20.22558
G1 X123.953 Y99.257 E20.24683
G1 X124.345 Y99.518 E20.2762
G1 X124.681 Y99.772 E20.30247
G1 X125.172 Y100.21 E20.3435
G1 X125.679 Y100.78 E20.39108
G1 X126.096 Y101.384 E20.43685
G1 X126.489 Y102.224 E20.49468
G1 X126.707 Y103.16 E20.55462
G1 X126.765 Y103.717 E20.58954
G1 X126.785 Y104.495 E20.63807
G1 X126.773 Y105.077 E20.67438
G1 X126.691 Y106.185 E20.74366
G1 X126.6 Y106.874 E20.787
G1 X126.484 Y107.527 E20.82837
G1 X126.322 Y108.248 E20.87445
G1 X126.134 Y108.933 E20.91875
G1 X125.957 Y109.494 E20.95543
G1 X125.545 Y110.587 E21.02828
G1 X125.274 Y111.196 E21.06985
G1 X124.827 Y112.081 E21.13168
G1 X124.61 Y112.462 E21.15902
G1 X124.07 Y113.332 E21.22288
G1 X123.661 Y113.912 E21.26714
G1 X123.257 Y114.439 E21.30855
G1 X123.015 Y114.734 E21.33234
G1 X122.56 Y115.256 E21.37553
G1 X122.092 Y115.748 E21.41788
G1 X121.528 Y116.29 E21.46666
G1 X121.008 Y116.753 E21.51008
G1 X120.517 Y117.156 E21.54969
G1 X119.868 Y117.646 E21.6004
G1 X119.236 Y118.072 E21.64793
G1 X118.57 Y118.432 E21.69515
G1 X117.766 Y118.686 E21.74773
G1 X116.74 Y118.83 E21.81234
G1 X115.67 Y118.677 E21.87975
G1 X114.932 Y118.439 E21.92811
G1 X114.184 Y118.047 E21.98077
G1 X113.409 Y117.438 E22.04224
G1 X112.896 Y116.836 E22.09156
G1 X112.628 Y116.17 E22.13633
G1 X112.502 Y115.495 E22.17916
G1 X112.608 Y114.738 E22.22682
G1 X112.73 Y114.398 E22.24935
G1 X113.041 Y113.816 E22.2905
G1 X113.4 Y113.399 E22.32482
G1 X113.849 Y113.096 E22.3586
G1 X114.448 Y112.792 E22.40049
G1 X114.831 Y112.582 E22.42773
G1 X115.237 Y112.337 E22.4573
G1 X115.523 Y112.15 E22.47861
G1 X115.954 Y111.841 E22.51168
G1 X116.272 Y111.595 E22.53676
G1 X116.573 Y111.341 E22.56132
G1 X116.913 Y111.03 E22.59005
G1 X117.138 Y110.805 E22.6099
G1 X117.474 Y110.443 E22.6407
G1 X117.717 Y110.156 E22.66415
G1 X117.979 Y109.821 E22.69067
G1 X118.203 Y109.508 E22.71468
G1 X118.43 Y109.163 E22.74043
G1 X118.626 Y108.833 E22.76437
G1 X118.817 Y108.481 E22.78934
G1 X118.985 Y108.133 E22.81344
G1 X119.155 Y107.738 E22.84026
G1 X119.282 Y107.401 E22.86272
G1 X119.41 Y107.019 E22.88784
G1 X119.507 Y106.676 E22.91007
G1 X119.601 Y106.271 E22.936
G1 X119.659 Y105.963 E22.95554
G1 X119.724 Y105.519 E22.98353
G1 X119.777 Y104.989 E23.01675
G1 X119.387 Y104.849 E23.04259
G1 X118.909 Y104.709 E23.07365
G1 X118.119 Y104.517 E23.12435
G1 X117.579 Y104.409 E23.15869
G1 X116.606 Y104.245 E23.22023
G1 X115.567 Y104.104 E23.28562
G1 X114.47 Y103.991 E23.35439
G1 X113.373 Y103.905 E23.42301
G1 X112.763 Y103.87 E23.46111
G1 X111.586 Y103.821 E23.53458
