;FLAVOR:Marlin
;TIME:8374
;Filament used: 2.64138m
;Layer height: 0.2
;MINX:65.286
;MINY:97.724
;MINZ:0.2
;MAXX:159.286
;MAXY:140.616
;MAXZ:27.8
;TARGET_MACHINE.NAME:Creality Ender-3 Pro
;Generated with Cura_SteamEngine 5.6.0
M82 ;absolute extrusion mode
; Ender 3 Custom Start G-code
G92 E0 ; Reset Extruder
G28 ; Home all axes
G1 Z5.0 F3000 ; Move Z Axis up a bit during heating to not damage bed
M104 S175 ; Start heating up the nozzle most of the way
M190 S85 ; Start heating the bed, wait until target temperature reached
M109 S215.0 ; Finish heating the nozzle
G1 Z2.0 F3000 ; Move Z Axis up little to prevent scratching of Heat Bed
G1 X0.1 Y20 Z0.3 F5000.0 ; Move to start position
G1 X0.1 Y200.0 Z0.3 F1500.0 E15 ; Draw the first line
G1 X0.4 Y200.0 Z0.3 F5000.0 ; Move to side a little
G1 X0.4 Y20 Z0.3 F1500.0 E30 ; Draw the second line
G92 E0 ; Reset Extruder
G1 Z2.0 F3000 ; Move Z Axis up little to prevent scratching of Heat Bed
G1 X5 Y20 Z0.3 F5000.0 ; Move over to prevent blob squish
G92 E0
G92 E0
G1 F1500 E-6.5
;LAYER_COUNT:139
;LAYER:0
M107
G0 X68.928 Y101.887 Z0.2
;TYPE:SKIRT
G1 F1500 E0
G1 F300 X69.361 Y101.659 E0.03052
G1 X71.274 Y101.121 E0.15445
G1 X72.094 Y101.067 E0.20569
G1 X72.283 Y100.672 E0.233
G1 X73.732 Y99.091 E0.36674
G1 X74.559 Y98.504 E0.42999
G1 X75.15 Y98.262 E0.46981
G1 X76.834 Y97.801 E0.5787
G1 X77.387 Y97.724 E0.61352
G1 X78.392 Y97.803 E0.67638
G1 X80.21 Y98.341 E0.79462
G1 X80.99 Y98.759 E0.84981
G1 X81.382 Y99.037 E0.87978
G1 X82.391 Y100.13 E0.97254
G1 X82.913 Y100.983 E1.03491
G1 X82.986 Y101.162 E1.04697
G1 X83.251 Y102.315 E1.12074
G1 X83.157 Y103.253 E1.17953
G1 X84.978 Y103.294 E1.29312
G1 X86.899 Y103.374 E1.41303
G1 X88.202 Y103.458 E1.49445
G1 X89.765 Y103.585 E1.59225
G1 X90.743 Y103.675 E1.6535
G1 X91.742 Y103.783 E1.71616
G1 X93.657 Y104.034 E1.83661
G1 X95.575 Y104.331 E1.95764
G1 X97.524 Y104.718 E2.08156
G1 X98.085 Y104.843 E2.11741
G1 X99.738 Y105.314 E2.22459
G1 X100.728 Y105.715 E2.29121
G1 X101.562 Y106.265 E2.35351
G1 X101.705 Y106.397 E2.36564
G1 X102.251 Y107.108 E2.42155
G1 X102.549 Y107.626 E2.45882
G1 X102.83 Y108.543 E2.51863
G1 X102.879 Y109.382 E2.57104
G1 X102.69 Y110.474 E2.64015
G1 X102.177 Y111.476 E2.71035
G1 X101.533 Y112.217 E2.77158
G1 X100.911 Y112.718 E2.82139
G1 X101.017 Y112.954 E2.83752
G1 X101.442 Y114.409 E2.93205
G1 X101.504 Y115.316 E2.98874
G1 X101.473 Y115.876 E3.02372
G1 X100.568 Y119.104 E3.23279
G1 X100.06 Y120.114 E3.30329
G1 X97.638 Y122.565 E3.51818
G1 X96.782 Y123.149 E3.58281
G1 X96.607 Y123.23 E3.59483
G1 X93.297 Y124.166 E3.80935
G1 X92.412 Y124.218 E3.86463
G1 X91.84 Y124.179 E3.90039
G1 X88.784 Y123.283 E4.09899
G1 X87.785 Y122.771 E4.169
G1 X85.279 Y120.239 E4.39116
G1 X84.658 Y119.315 E4.46059
G1 X83.694 Y115.968 E4.6778
G1 X83.639 Y115.061 E4.73447
G1 X83.678 Y114.489 E4.77022
G1 X84.158 Y112.842 E4.87721
G1 X82.127 Y112.813 E5.00388
G1 X80.482 Y112.822 E5.10647
G1 X80.497 Y113.195 E5.12975
G1 X80.411 Y113.769 E5.16594
G1 X79.761 Y116.094 E5.3165
G1 X79.242 Y117.12 E5.3882
G1 X77.296 Y119.066 E5.55983
G1 X76.335 Y119.714 E5.63211
G1 X73.634 Y120.469 E5.80701
G1 X72.727 Y120.519 E5.86366
G1 X72.171 Y120.479 E5.89842
G1 X69.753 Y119.774 E6.05549
G1 X68.754 Y119.263 E6.12547
G1 X66.738 Y117.247 E6.30327
G1 X66.114 Y116.334 E6.37224
G1 X65.348 Y113.714 E6.54247
G1 X65.286 Y112.79 E6.60022
G1 X65.32 Y112.209 E6.63651
G1 X66.028 Y109.788 E6.79382
G1 X66.171 Y109.504 E6.81365
G1 X65.782 Y108.181 E6.89964
G1 X65.72 Y107.248 E6.95796
G1 X65.754 Y106.666 E6.99431
G1 X66.278 Y104.874 E7.11075
G1 X66.76 Y103.915 E7.17768
G1 X68.191 Y102.405 E7.30742
G1 X68.928 Y101.887 E7.3636
G0 F1500 X69.273 Y102.378
G1 F300 X69.582 Y102.22 E7.38524
G1 X71.375 Y101.716 E7.50139
G1 X72.113 Y101.666 E7.54752
G1 X72.463 Y101.687 E7.56939
G1 X72.786 Y101.011 E7.61611
G1 X74.131 Y99.543 E7.74027
G1 X74.85 Y99.033 E7.79525
G1 X75.308 Y98.841 E7.82622
G1 X76.992 Y98.38 E7.9351
G1 X77.405 Y98.327 E7.96107
G1 X78.283 Y98.396 E8.01599
G1 X79.979 Y98.898 E8.12629
G1 X80.707 Y99.288 E8.1778
G1 X80.983 Y99.489 E8.19909
G1 X81.91 Y100.494 E8.28435
G1 X82.401 Y101.296 E8.343
G1 X82.644 Y102.354 E8.4107
G1 X82.56 Y103.192 E8.46322
G1 X82.362 Y103.854 E8.50631
G1 X83.039 Y103.851 E8.54853
G1 X84.953 Y103.893 E8.66792
G1 X86.861 Y103.973 E8.78701
G1 X88.154 Y104.056 E8.86781
G1 X89.71 Y104.182 E8.96517
G1 X90.678 Y104.271 E9.02579
G1 X91.664 Y104.378 E9.08764
G1 X93.565 Y104.627 E9.2072
G1 X95.483 Y104.924 E9.32824
G1 X97.394 Y105.304 E9.44975
G1 X97.955 Y105.429 E9.48559
G1 X99.573 Y105.891 E9.59053
G1 X100.446 Y106.248 E9.64935
G1 X101.232 Y106.766 E9.70805
G1 X101.731 Y107.407 E9.75871
G1 X101.994 Y107.864 E9.79159
G1 X102.235 Y108.651 E9.84292
G1 X102.276 Y109.348 E9.88647
G1 X102.114 Y110.282 E9.94558
G1 X101.678 Y111.135 E10.00532
G1 X101.112 Y111.786 E10.05912
G1 X100.685 Y112.13 E10.09332
G1 X100.113 Y112.447 E10.1341
G1 X100.441 Y113.122 E10.1809
G1 X100.847 Y114.513 E10.27127
G1 X100.905 Y115.357 E10.32403
G1 X100.877 Y115.777 E10.35028
G1 X100.006 Y118.887 E10.55169
G1 X99.567 Y119.759 E10.61257
G1 X97.251 Y122.102 E10.81802
G1 X96.444 Y122.653 E10.87896
G1 X93.2 Y123.57 E11.08919
G1 X92.453 Y123.619 E11.13588
G1 X91.946 Y123.584 E11.16757
G1 X89.007 Y122.723 E11.35856
G1 X88.144 Y122.281 E11.41903
G1 X85.745 Y119.856 E11.63175
G1 X85.209 Y119.059 E11.69165
G1 X84.289 Y115.865 E11.89894
G1 X84.238 Y115.102 E11.94662
G1 X84.273 Y114.593 E11.97844
G1 X84.81 Y112.75 E12.09816
G1 X85.059 Y112.266 E12.1321
G1 X83.89 Y112.234 E12.20503
G1 X82.131 Y112.213 E12.31473
G1 X80.218 Y112.224 E12.43403
G1 X79.828 Y112.138 E12.45894
G1 X79.903 Y113.111 E12.5198
G1 X79.833 Y113.607 E12.55104
G1 X79.198 Y115.878 E12.6981
G1 X78.75 Y116.764 E12.76001
G1 X76.912 Y118.602 E12.92211
G1 X76.083 Y119.161 E12.98447
G1 X73.534 Y119.874 E13.14953
G1 X72.694 Y119.92 E13.20199
G1 X72.278 Y119.885 E13.22803
G1 X69.974 Y119.213 E13.3777
G1 X69.111 Y118.772 E13.43814
G1 X67.203 Y116.864 E13.60641
G1 X66.663 Y116.074 E13.66609
G1 X65.942 Y113.607 E13.82637
G1 X65.885 Y112.825 E13.87527
G1 X65.915 Y112.312 E13.90732
G1 X66.588 Y110.01 E14.05689
G1 X66.814 Y109.562 E14.08818
G1 X66.376 Y108.072 E14.18503
G1 X66.319 Y107.283 E14.23436
G1 X66.349 Y106.77 E14.26641
G1 X66.84 Y105.092 E14.37544
G1 X67.255 Y104.266 E14.43309
G1 X68.587 Y102.86 E14.55387
G1 X69.273 Y102.378 E14.60616
G0 F1500 X69.618 Y102.869
G1 F300 X69.801 Y102.782 E14.61879
G1 X71.477 Y102.311 E14.72736
G1 X72.154 Y102.265 E14.76968
G1 X72.504 Y102.291 E14.79157
G1 X72.862 Y102.392 E14.81476
G1 X72.959 Y102.039 E14.83759
G1 X73.289 Y101.349 E14.88529
G1 X74.527 Y99.998 E14.99957
G1 X75.145 Y99.56 E15.04681
G1 X75.468 Y99.419 E15.06878
G1 X77.068 Y98.975 E15.17234
G1 X77.42 Y98.93 E15.19447
G1 X78.174 Y98.989 E15.24163
G1 X79.748 Y99.455 E15.344
G1 X80.424 Y99.817 E15.39182
G1 X80.582 Y99.939 E15.40427
G1 X81.429 Y100.858 E15.48221
G1 X81.838 Y101.526 E15.53106
G1 X82.037 Y102.393 E15.58653
G1 X81.969 Y103.074 E15.62921
G1 X81.819 Y103.576 E15.66189
G1 X81.664 Y103.906 E15.68462
G1 X81.241 Y104.458 E15.72799
G1 X83.026 Y104.451 E15.83931
G1 X84.928 Y104.492 E15.95795
G1 X86.823 Y104.572 E16.07624
G1 X88.106 Y104.654 E16.15641
G1 X89.655 Y104.779 E16.25332
G1 X90.613 Y104.867 E16.31332
G1 X91.586 Y104.973 E16.37436
G1 X93.473 Y105.22 E16.49304
G1 X95.366 Y105.513 E16.6125
G1 X97.264 Y105.89 E16.73318
G1 X97.825 Y106.015 E16.76902
G1 X99.346 Y106.446 E16.86761
G1 X100.164 Y106.78 E16.92271
G1 X100.819 Y107.212 E16.97164
G1 X101.257 Y107.775 E17.01612
G1 X101.44 Y108.103 E17.03955
G1 X101.64 Y108.758 E17.08226
G1 X101.673 Y109.315 E17.11705
G1 X101.539 Y110.09 E17.1661
G1 X101.179 Y110.794 E17.21541
G1 X100.691 Y111.355 E17.26178
G1 X100.352 Y111.628 E17.28893
G1 X99.887 Y111.886 E17.32209
G1 X99.315 Y112.045 E17.35911
G1 X98.946 Y112.065 E17.38216
G1 X99.168 Y112.256 E17.40042
G1 X99.593 Y112.737 E17.44045
G1 X99.88 Y113.34 E17.4821
G1 X100.253 Y114.62 E17.56524
G1 X100.306 Y115.317 E17.60883
G1 X100.282 Y115.675 E17.63121
G1 X99.444 Y118.67 E17.82516
G1 X99.074 Y119.404 E17.87642
G1 X96.863 Y121.64 E18.07252
G1 X96.186 Y122.103 E18.12367
G1 X93.101 Y122.975 E18.3236
G1 X92.414 Y123.02 E18.36654
G1 X92.053 Y122.99 E18.38913
G1 X89.23 Y122.163 E18.57258
G1 X88.504 Y121.791 E18.62345
G1 X86.211 Y119.473 E18.82678
G1 X85.76 Y118.803 E18.87715
G1 X84.884 Y115.76 E19.07463
G1 X84.837 Y115.062 E19.11825
G1 X84.867 Y114.699 E19.14097
G1 X85.37 Y112.974 E19.25303
G1 X85.721 Y112.291 E19.30091
G1 X86.318 Y111.71 E19.35287
G1 X85.728 Y111.684 E19.3897
G1 X83.906 Y111.634 E19.50336
G1 X82.134 Y111.613 E19.61388
G1 X80.283 Y111.624 E19.72931
G1 X79.614 Y111.476 E19.77204
G1 X79.189 Y111.304 E19.80063
G1 X78.883 Y111.105 E19.8234
G1 X79.242 Y112.341 E19.90366
G1 X79.3 Y113.092 E19.95064
G1 X79.255 Y113.446 E19.97289
G1 X78.636 Y115.661 E20.11632
G1 X78.258 Y116.408 E20.16853
G1 X76.528 Y118.138 E20.3211
G1 X75.831 Y118.608 E20.37353
G1 X73.435 Y119.278 E20.52868
G1 X72.744 Y119.322 E20.57186
G1 X72.388 Y119.292 E20.59414
G1 X70.195 Y118.653 E20.73659
G1 X69.468 Y118.281 E20.78752
G1 X67.668 Y116.481 E20.94627
G1 X67.212 Y115.814 E20.99666
G1 X66.535 Y113.498 E21.14713
G1 X66.483 Y112.782 E21.1919
G1 X66.509 Y112.418 E21.21466
G1 X67.15 Y110.228 E21.35697
G1 X67.456 Y109.619 E21.39947
G1 X66.969 Y107.961 E21.50723
G1 X66.917 Y107.24 E21.55231
G1 X66.943 Y106.876 E21.57507
G1 X67.401 Y105.312 E21.6767
G1 X67.751 Y104.616 E21.72529
G1 X68.983 Y103.315 E21.83703
G1 X69.618 Y102.869 E21.88542
G0 F1500 X69.963 Y103.36
G1 F300 X71.579 Y102.906 E21.9901
G1 X72.195 Y102.864 E22.0286
G1 X72.398 Y102.885 E22.04133
G1 X73.281 Y103.133 E22.09853
G1 X73.525 Y102.246 E22.1559
G1 X73.792 Y101.687 E22.19453
G1 X74.925 Y100.451 E22.2991
G1 X75.441 Y100.085 E22.33855
G1 X75.628 Y99.997 E22.35144
G1 X77.228 Y99.553 E22.45499
G1 X77.434 Y99.533 E22.4679
G1 X78.065 Y99.582 E22.50736
G1 X79.517 Y100.012 E22.6018
G1 X80.141 Y100.346 E22.64594
G1 X80.948 Y101.221 E22.72017
G1 X81.275 Y101.756 E22.75928
G1 X81.43 Y102.432 E22.80253
G1 X81.378 Y102.956 E22.83537
G1 X81.244 Y103.404 E22.86453
G1 X81.148 Y103.593 E22.87775
G1 X80.792 Y104.065 E22.91462
G1 X80.488 Y104.325 E22.93956
G1 X80.077 Y104.522 E22.96799
G1 X79.112 Y104.844 E23.03143
G1 X78.868 Y104.951 E23.04804
G1 X78.479 Y105.155 E23.07544
G1 X78.091 Y105.434 E23.10524
G1 X77.708 Y105.796 E23.1381
G1 X77.429 Y106.146 E23.16602
G1 X77.25 Y106.428 E23.18685
G1 X77.088 Y106.77 E23.21045
G1 X76.961 Y107.158 E23.23591
G1 X76.882 Y107.58 E23.26268
G1 X76.86 Y107.922 E23.28405
G1 X76.883 Y108.28 E23.30642
G1 X76.95 Y108.615 E23.32773
G1 X77.191 Y109.339 E23.37532
G1 X77.514 Y109.828 E23.41186
G1 X77.915 Y110.299 E23.45044
G1 X78.154 Y110.745 E23.482
G1 X78.649 Y112.449 E23.59265
G1 X78.697 Y113.078 E23.632
G1 X78.677 Y113.284 E23.6449
G1 X78.073 Y115.445 E23.78483
G1 X77.766 Y116.052 E23.82725
G1 X76.144 Y117.674 E23.9703
G1 X75.579 Y118.055 E24.0128
G1 X73.334 Y118.683 E24.15818
G1 X72.706 Y118.723 E24.19742
G1 X72.5 Y118.7 E24.21035
G1 X70.416 Y118.092 E24.34573
G1 X69.825 Y117.79 E24.38712
G1 X68.133 Y116.098 E24.53635
G1 X67.761 Y115.554 E24.57745
G1 X67.128 Y113.389 E24.71811
G1 X67.081 Y112.739 E24.75876
G1 X67.103 Y112.527 E24.77205
G1 X67.712 Y110.446 E24.90727
G1 X67.954 Y109.964 E24.9409
G1 X68.201 Y109.665 E24.96509
G1 X67.989 Y109.303 E24.99125
G1 X67.562 Y107.85 E25.08569
G1 X67.515 Y107.197 E25.12652
G1 X67.537 Y106.985 E25.13981
G1 X67.963 Y105.53 E25.23436
G1 X68.247 Y104.965 E25.2738
G1 X69.376 Y103.772 E25.37623
G1 X69.963 Y103.36 E25.42095
G0 F1500 X70.222 Y103.911
G1 F300 X71.681 Y103.501 E25.51547
G1 X72.236 Y103.463 E25.55016
G1 X73.7 Y103.874 E25.64499
G1 X74.09 Y102.456 E25.7367
G1 X74.296 Y102.024 E25.76655
G1 X75.321 Y100.906 E25.86114
G1 X75.788 Y100.575 E25.89683
G1 X77.388 Y100.131 E26.00038
G1 X77.956 Y100.175 E26.03591
G1 X79.286 Y100.569 E26.12242
G1 X79.768 Y100.827 E26.15651
G1 X80.467 Y101.585 E26.22081
G1 X80.712 Y101.985 E26.25007
G1 X80.823 Y102.471 E26.28116
G1 X80.787 Y102.838 E26.30415
G1 X80.669 Y103.232 E26.3298
G1 X80.353 Y103.651 E26.36253
G1 X80.157 Y103.819 E26.37863
G1 X79.887 Y103.953 E26.39743
G1 X78.89 Y104.285 E26.46296
G1 X78.621 Y104.404 E26.4813
G1 X78.161 Y104.645 E26.51369
G1 X77.707 Y104.971 E26.54854
G1 X77.262 Y105.392 E26.58675
G1 X76.944 Y105.79 E26.61852
G1 X76.721 Y106.143 E26.64456
G1 X76.528 Y106.549 E26.67259
G1 X76.378 Y107.01 E26.70282
G1 X76.285 Y107.504 E26.73417
G1 X76.258 Y107.924 E26.76042
G1 X76.287 Y108.36 E26.78767
G1 X76.367 Y108.764 E26.81335
G1 X76.652 Y109.619 E26.86956
G1 X76.759 Y109.764 E26.88079
G1 X77.033 Y110.189 E26.91233
G1 X77.417 Y110.64 E26.94927
G1 X77.596 Y110.974 E26.9729
G1 X78.056 Y112.557 E27.0757
G1 X78.099 Y113.123 E27.1111
G1 X77.511 Y115.228 E27.2474
G1 X77.274 Y115.696 E27.28012
G1 X75.76 Y117.21 E27.41364
G1 X75.327 Y117.502 E27.44621
G1 X73.233 Y118.088 E27.58182
G1 X72.668 Y118.124 E27.61712
G1 X70.637 Y117.532 E27.74905
G1 X70.182 Y117.299 E27.78093
G1 X68.598 Y115.715 E27.92063
G1 X68.31 Y115.294 E27.95244
G1 X67.721 Y113.28 E28.0833
G1 X67.679 Y112.696 E28.11982
G1 X68.274 Y110.664 E28.25186
G1 X68.49 Y110.233 E28.28192
G1 X68.997 Y109.698 E28.32789
G1 X68.822 Y109.509 E28.34395
G1 X68.565 Y109.134 E28.3723
G1 X68.155 Y107.739 E28.46298
G1 X68.113 Y107.154 E28.49955
G1 X68.525 Y105.748 E28.59092
G1 X68.743 Y105.314 E28.62121
G1 X69.771 Y104.227 E28.71451
G1 X70.222 Y103.911 E28.74885
G0 F1500 X70.601 Y105.096
G1 F300 X70.738 Y105.013 E28.75884
G1 X71.945 Y104.674 E28.83703
G1 X72.107 Y104.674 E28.84713
G1 X73.313 Y105.013 E28.92526
G1 X73.45 Y105.095 E28.93521
G1 X74.144 Y105.826 E28.99807
G1 X74.307 Y105.768 E29.00886
G1 X74.636 Y105.797 E29.02946
G1 X74.76 Y105.37 E29.05719
G1 X75.136 Y104.972 E29.09133
G1 X74.905 Y104.181 E29.14272
G1 X74.904 Y104.017 E29.15295
G1 X75.231 Y102.829 E29.22979
G1 X75.299 Y102.706 E29.23856
G1 X76.164 Y101.763 E29.31836
G1 X76.305 Y101.677 E29.32866
G1 X77.51 Y101.342 E29.40666
G1 X77.675 Y101.343 E29.41695
G1 X78.886 Y101.702 E29.49572
G1 X79.022 Y101.787 E29.50572
G1 X79.546 Y102.356 E29.55396
G1 X79.617 Y102.492 E29.56352
G1 X79.612 Y102.645 E29.57307
G1 X79.508 Y102.815 E29.5855
G1 X78.457 Y103.165 E29.65458
G1 X78.094 Y103.326 E29.67934
G1 X77.525 Y103.625 E29.71943
G1 X77.057 Y103.96 E29.75532
G1 X76.862 Y104.119 E29.77101
G1 X76.373 Y104.581 E29.81297
G1 X75.966 Y105.091 E29.85366
G1 X75.667 Y105.565 E29.88861
G1 X75.414 Y106.098 E29.9254
G1 X75.21 Y106.722 E29.96634
G1 X75.091 Y107.352 E30.00633
G1 X75.054 Y107.93 E30.04245
G1 X75.093 Y108.506 E30.07845
G1 X75.208 Y109.082 E30.11508
G1 X75.39 Y109.626 E30.15085
G1 X75.49 Y109.868 E30.16718
G1 X75.489 Y110.076 E30.18015
G1 X75.751 Y110.415 E30.20687
G1 X76.071 Y110.91 E30.24363
G1 X76.462 Y111.37 E30.28128
G1 X76.887 Y112.832 E30.37623
G1 X76.888 Y112.997 E30.38652
G1 X76.37 Y114.85 E30.50651
G1 X76.293 Y114.981 E30.51598
G1 X74.954 Y116.32 E30.63408
G1 X74.823 Y116.397 E30.64355
G1 X72.97 Y116.915 E30.76354
G1 X72.805 Y116.914 E30.77383
G1 X71.026 Y116.395 E30.8894
G1 X70.898 Y116.319 E30.89868
G1 X69.487 Y114.908 E31.02312
G1 X69.411 Y114.78 E31.03241
G1 X68.89 Y113.001 E31.14801
G1 X68.89 Y112.833 E31.15849
G1 X69.411 Y111.053 E31.27415
G1 X69.481 Y110.931 E31.28292
G1 X70.675 Y109.672 E31.39113
G1 X69.74 Y108.744 E31.47328
G1 X69.664 Y108.617 E31.48251
G1 X69.324 Y107.46 E31.55772
G1 X69.324 Y107.291 E31.56826
G1 X69.663 Y106.135 E31.64339
G1 X69.733 Y106.013 E31.65216
G1 X70.601 Y105.096 E31.7309
G0 F1500 X70.482 Y104.461
G1 F300 X71.783 Y104.096 E31.81517
G1 X72.174 Y104.069 E31.83961
G1 X73.475 Y104.435 E31.92389
G1 X73.816 Y104.61 E31.94779
G1 X74.258 Y105.074 E31.98776
G1 X74.464 Y104.81 E32.00864
G1 X74.329 Y104.349 E32.0386
G1 X74.299 Y103.956 E32.06318
G1 X74.653 Y102.67 E32.14636
G1 X74.799 Y102.363 E32.16756
G1 X75.722 Y101.357 E32.2527
G1 X76.049 Y101.125 E32.27771
G1 X77.447 Y100.737 E32.36818
G1 X77.846 Y100.768 E32.39314
G1 X79.057 Y101.127 E32.47191
G1 X79.395 Y101.308 E32.49582
G1 X79.987 Y101.95 E32.55028
G1 X80.149 Y102.214 E32.5696
G1 X80.217 Y102.512 E32.58866
