;FLAVOR:Marlin
;TIME:6061
;Filament used: 2.21561m
;Layer height: 0.2
;MINX:83.1
;MINY:87.1
;MINZ:0.2
;MAXX:130.9
;MAXY:134.9
;MAXZ:22
;TARGET_MACHINE.NAME:Creality Ender-3 Pro
;Generated with Cura_SteamEngine 5.6.0
M82 ;absolute extrusion mode
; Ender 3 Custom Start G-code
G92 E0 ; Reset Extruder
G28 ; Home all axes
G1 Z5.0 F3000 ; Move Z Axis up a bit during heating to not damage bed
M104 S175 ; Start heating up the nozzle most of the way
M190 S85 ; Start heating the bed, wait until target temperature reached
M109 S215.0 ; Finish heating the nozzle
G1 Z2.0 F3000 ; Move Z Axis up little to prevent scratching of Heat Bed
G1 X0.1 Y20 Z0.3 F5000.0 ; Move to start position
G1 X0.1 Y200.0 Z0.3 F1500.0 E15 ; Draw the first line
G1 X0.4 Y200.0 Z0.3 F5000.0 ; Move to side a little
G1 X0.4 Y20 Z0.3 F1500.0 E30 ; Draw the second line
G92 E0 ; Reset Extruder
G1 Z2.0 F3000 ; Move Z Axis up little to prevent scratching of Heat Bed
G1 X5 Y20 Z0.3 F5000.0 ; Move over to prevent blob squish
G92 E0
G92 E0
G1 F1500 E-6.5
;LAYER_COUNT:110
;LAYER:0
M107
G0 X90.148 Y94.052 Z0.2
;TYPE:SKIRT
G1 F1500 E0
G1 F300 X90.674 Y93.545 E0.04556
G1 X91.253 Y93.021 E0.09426
G1 X91.816 Y92.547 E0.14016
G1 X92.407 Y92.073 E0.1874
G1 X92.999 Y91.632 E0.23344
G1 X93.624 Y91.194 E0.28103
G1 X94.252 Y90.784 E0.32781
G1 X94.902 Y90.388 E0.37527
G1 X95.541 Y90.029 E0.42098
G1 X96.204 Y89.678 E0.46776
G1 X96.891 Y89.342 E0.51546
G1 X97.555 Y89.046 E0.56079
G1 X98.261 Y88.757 E0.60837
G1 X98.971 Y88.489 E0.65569
G1 X99.685 Y88.247 E0.70271
G1 X100.404 Y88.03 E0.74955
G1 X101.116 Y87.838 E0.79553
G1 X101.848 Y87.66 E0.84251
G1 X102.541 Y87.517 E0.88664
G1 X103.3 Y87.388 E0.93465
G1 X104.065 Y87.284 E0.9828
G1 X104.814 Y87.202 E1.02979
G1 X105.565 Y87.145 E1.07676
G1 X106.321 Y87.11 E1.12395
G1 X107.077 Y87.1 E1.1711
G1 X107.824 Y87.116 E1.2177
G1 X108.582 Y87.153 E1.26503
G1 X109.309 Y87.214 E1.31052
G1 X110.051 Y87.295 E1.35707
G1 X110.812 Y87.405 E1.40502
G1 X111.54 Y87.536 E1.45115
G1 X112.281 Y87.692 E1.49838
G1 X113.018 Y87.871 E1.54567
G1 X113.733 Y88.07 E1.59196
G1 X114.447 Y88.292 E1.63859
G1 X115.155 Y88.536 E1.68529
G1 X115.866 Y88.804 E1.73267
G1 X116.554 Y89.091 E1.77916
G1 X117.188 Y89.379 E1.82259
G1 X117.911 Y89.738 E1.87293
G1 X118.567 Y90.088 E1.9193
G1 X119.224 Y90.463 E1.96648
G1 X119.858 Y90.853 E2.0129
G1 X120.493 Y91.27 E2.06027
G1 X121.065 Y91.675 E2.10398
G1 X121.697 Y92.156 E2.15351
G1 X122.289 Y92.631 E2.20084
G1 X122.855 Y93.118 E2.24741
G1 X123.409 Y93.625 E2.29424
G1 X123.945 Y94.145 E2.34081
G1 X124.43 Y94.647 E2.38434
G1 X124.968 Y95.243 E2.43441
G1 X125.455 Y95.816 E2.48131
G1 X125.926 Y96.406 E2.52839
G1 X126.366 Y96.997 E2.57434
G1 X126.805 Y97.622 E2.62197
G1 X127.216 Y98.251 E2.66883
G1 X127.611 Y98.898 E2.7161
G1 X127.965 Y99.528 E2.76117
G1 X128.317 Y100.198 E2.80837
G1 X128.658 Y100.89 E2.85648
G1 X128.954 Y101.554 E2.90181
G1 X129.242 Y102.258 E2.94925
G1 X129.51 Y102.967 E2.99652
G1 X129.752 Y103.679 E3.04341
G1 X129.969 Y104.391 E3.08983
G1 X130.168 Y105.122 E3.13708
G1 X130.336 Y105.827 E3.18228
G1 X130.477 Y106.51 E3.22577
G1 X130.613 Y107.314 E3.27662
G1 X130.716 Y108.065 E3.32389
G1 X130.798 Y108.814 E3.37088
G1 X130.855 Y109.563 E3.41773
G1 X130.89 Y110.315 E3.46467
G1 X130.9 Y111.071 E3.51182
G1 X130.884 Y111.803 E3.55749
G1 X130.849 Y112.575 E3.60568
G1 X130.785 Y113.311 E3.65175
G1 X130.703 Y114.052 E3.69824
G1 X130.596 Y114.809 E3.74592
G1 X130.466 Y115.54 E3.79222
G1 X130.329 Y116.201 E3.83432
G1 X130.133 Y117.007 E3.88605
G1 X129.938 Y117.712 E3.93167
G1 X129.71 Y118.445 E3.97954
G1 X129.465 Y119.153 E4.02626
G1 X129.196 Y119.867 E4.07384
G1 X128.91 Y120.55 E4.12002
G1 X128.616 Y121.199 E4.16445
G1 X128.284 Y121.871 E4.2112
G1 X127.91 Y122.575 E4.26091
G1 X127.538 Y123.222 E4.30745
G1 X127.149 Y123.856 E4.35384
G1 X126.732 Y124.491 E4.40122
G1 X126.34 Y125.046 E4.44359
G1 X125.846 Y125.695 E4.49446
G1 X125.371 Y126.287 E4.54179
G1 X124.885 Y126.852 E4.58827
G1 X124.377 Y127.41 E4.63532
G1 X123.852 Y127.948 E4.6822
G1 X123.326 Y128.455 E4.72776
G1 X122.747 Y128.979 E4.77646
G1 X122.184 Y129.453 E4.82236
G1 X121.593 Y129.927 E4.86961
G1 X121.001 Y130.368 E4.91564
G1 X120.376 Y130.806 E4.96324
G1 X119.748 Y131.216 E5.01001
G1 X119.098 Y131.612 E5.05747
G1 X118.459 Y131.971 E5.10318
G1 X117.796 Y132.322 E5.14997
G1 X117.109 Y132.658 E5.19766
G1 X116.445 Y132.954 E5.243
G1 X115.739 Y133.243 E5.29057
G1 X115.029 Y133.511 E5.3379
G1 X114.315 Y133.753 E5.38491
G1 X113.596 Y133.97 E5.43175
G1 X112.884 Y134.162 E5.47774
G1 X112.152 Y134.34 E5.52472
G1 X111.459 Y134.483 E5.56884
G1 X110.7 Y134.612 E5.61686
G1 X109.935 Y134.716 E5.665
G1 X109.186 Y134.798 E5.71199
G1 X108.435 Y134.855 E5.75896
G1 X107.679 Y134.89 E5.80616
G1 X106.923 Y134.9 E5.85331
G1 X106.176 Y134.884 E5.8999
G1 X105.418 Y134.847 E5.94723
G1 X104.691 Y134.786 E5.99273
G1 X103.949 Y134.705 E6.03928
G1 X103.188 Y134.595 E6.08723
G1 X102.46 Y134.464 E6.13336
G1 X101.719 Y134.308 E6.18058
G1 X100.982 Y134.129 E6.22788
G1 X100.267 Y133.93 E6.27416
G1 X99.553 Y133.708 E6.32079
G1 X98.845 Y133.464 E6.36749
G1 X98.134 Y133.196 E6.41488
G1 X97.446 Y132.909 E6.46137
G1 X96.812 Y132.621 E6.50479
G1 X96.089 Y132.263 E6.55511
G1 X95.431 Y131.912 E6.60161
G1 X94.776 Y131.536 E6.64871
G1 X94.135 Y131.142 E6.69564
G1 X93.505 Y130.726 E6.74272
G1 X92.908 Y130.303 E6.78835
G1 X92.303 Y129.844 E6.83571
G1 X91.711 Y129.369 E6.88304
G1 X91.146 Y128.883 E6.92952
G1 X90.59 Y128.376 E6.97644
G1 X90.057 Y127.859 E7.02275
G1 X89.613 Y127.401 E7.06253
G1 X89.032 Y126.757 E7.11662
G1 X88.545 Y126.184 E7.16352
G1 X88.074 Y125.594 E7.2106
G1 X87.634 Y125.003 E7.25654
G1 X87.195 Y124.378 E7.30418
G1 X86.784 Y123.748 E7.35109
G1 X86.389 Y123.1 E7.39841
G1 X86.029 Y122.459 E7.44426
G1 X85.679 Y121.798 E7.4909
G1 X85.343 Y121.111 E7.5386
G1 X85.048 Y120.449 E7.58379
G1 X84.757 Y119.741 E7.63153
G1 X84.496 Y119.047 E7.67777
G1 X84.254 Y118.331 E7.7249
G1 X84.033 Y117.617 E7.77152
G1 X83.832 Y116.879 E7.81922
G1 X83.664 Y116.174 E7.86441
G1 X83.523 Y115.49 E7.90797
G1 X83.387 Y114.686 E7.95882
G1 X83.284 Y113.935 E8.00609
G1 X83.202 Y113.186 E8.05308
G1 X83.145 Y112.436 E8.09999
G1 X83.11 Y111.685 E8.14687
G1 X83.1 Y110.93 E8.19396
G1 X83.116 Y110.19 E8.24012
G1 X83.152 Y109.426 E8.28782
G1 X83.215 Y108.689 E8.33395
G1 X83.297 Y107.948 E8.38044
G1 X83.404 Y107.191 E8.42812
G1 X83.534 Y106.46 E8.47442
G1 X83.671 Y105.799 E8.51652
G1 X83.867 Y104.993 E8.56825
G1 X84.062 Y104.288 E8.61386
G1 X84.29 Y103.555 E8.66173
G1 X84.535 Y102.847 E8.70846
G1 X84.804 Y102.133 E8.75604
G1 X85.09 Y101.45 E8.80222
G1 X85.384 Y100.801 E8.84665
G1 X85.716 Y100.129 E8.89339
G1 X86.09 Y99.425 E8.94311
G1 X86.462 Y98.778 E8.98965
G1 X86.851 Y98.144 E9.03604
G1 X87.268 Y97.509 E9.08341
G1 X87.66 Y96.954 E9.12578
G1 X88.154 Y96.305 E9.17665
G1 X88.629 Y95.713 E9.22398
G1 X89.115 Y95.148 E9.27046
G1 X89.623 Y94.59 E9.31752
G1 X90.148 Y94.052 E9.3644
G0 F1500 X91.077 Y93.99
G1 F300 X91.64 Y93.48 E9.41177
G1 X92.191 Y93.015 E9.45673
G1 X92.766 Y92.554 E9.50269
G1 X93.344 Y92.123 E9.54766
G1 X93.952 Y91.696 E9.59399
G1 X94.565 Y91.296 E9.63964
G1 X95.196 Y90.911 E9.68574
G1 X95.822 Y90.559 E9.73052
G1 X96.468 Y90.217 E9.77611
G1 X97.136 Y89.89 E9.82249
G1 X97.783 Y89.601 E9.86668
G1 X98.473 Y89.318 E9.91319
G1 X99.164 Y89.057 E9.95925
G1 X99.859 Y88.821 E10.00503
G1 X100.56 Y88.609 E10.0507
G1 X101.258 Y88.421 E10.09578
G1 X101.97 Y88.248 E10.14147
G1 X102.642 Y88.109 E10.18427
G1 X103.401 Y87.98 E10.23228
G1 X104.13 Y87.88 E10.27817
G1 X104.86 Y87.8 E10.32397
G1 X105.593 Y87.744 E10.36981
G1 X106.329 Y87.71 E10.41576
G1 X107.065 Y87.7 E10.46166
G1 X107.795 Y87.715 E10.5072
G1 X108.532 Y87.751 E10.55321
G1 X109.244 Y87.811 E10.59777
G1 X109.965 Y87.889 E10.643
G1 X110.706 Y87.996 E10.68969
G1 X111.417 Y88.123 E10.73473
G1 X112.14 Y88.275 E10.7808
G1 X112.857 Y88.449 E10.82682
G1 X113.555 Y88.643 E10.87199
G1 X114.252 Y88.859 E10.9175
G1 X114.943 Y89.097 E10.96308
G1 X115.635 Y89.358 E11.0092
G1 X116.306 Y89.638 E11.05454
G1 X116.922 Y89.917 E11.09671
G1 X117.629 Y90.267 E11.14591
G1 X118.27 Y90.609 E11.19122
G1 X118.91 Y90.974 E11.23717
G1 X119.529 Y91.354 E11.28246
G1 X120.147 Y91.76 E11.32858
G1 X120.702 Y92.152 E11.37095
G1 X121.322 Y92.624 E11.41954
G1 X121.898 Y93.086 E11.46559
G1 X122.45 Y93.561 E11.51101
G1 X122.991 Y94.055 E11.5567
G1 X123.513 Y94.562 E11.60208
G1 X123.998 Y95.064 E11.64561
G1 X124.511 Y95.632 E11.69334
G1 X124.986 Y96.19 E11.73904
G1 X125.445 Y96.765 E11.78492
G1 X125.875 Y97.342 E11.8298
G1 X126.303 Y97.95 E11.87616
G1 X126.704 Y98.564 E11.9219
G1 X127.088 Y99.193 E11.96786
G1 X127.434 Y99.807 E12.01181
G1 X127.779 Y100.463 E12.05803
G1 X128.11 Y101.134 E12.10469
G1 X128.399 Y101.782 E12.14894
G1 X128.681 Y102.47 E12.19531
G1 X128.942 Y103.16 E12.24131
G1 X129.178 Y103.854 E12.28703
G1 X129.39 Y104.549 E12.33234
G1 X129.584 Y105.261 E12.37836
G1 X129.748 Y105.949 E12.42247
G1 X129.885 Y106.61 E12.46457
G1 X130.021 Y107.414 E12.51542
G1 X130.12 Y108.13 E12.5605
G1 X130.2 Y108.86 E12.60629
G1 X130.256 Y109.591 E12.65201
G1 X130.29 Y110.323 E12.69771
G1 X130.3 Y111.058 E12.74355
G1 X130.285 Y111.776 E12.78834
G1 X130.251 Y112.524 E12.83504
G1 X130.189 Y113.245 E12.88017
G1 X130.109 Y113.968 E12.92553
G1 X130.005 Y114.704 E12.97188
G1 X129.878 Y115.418 E13.01711
G1 X129.741 Y116.079 E13.05921
G1 X129.555 Y116.847 E13.10849
G1 X129.365 Y117.534 E13.15294
G1 X129.143 Y118.249 E13.19963
G1 X128.904 Y118.941 E13.24528
G1 X128.642 Y119.635 E13.29154
G1 X128.363 Y120.302 E13.33663
G1 X128.069 Y120.951 E13.38107
G1 X127.754 Y121.59 E13.42549
G1 X127.39 Y122.276 E13.47392
G1 X127.027 Y122.908 E13.51938
G1 X126.647 Y123.527 E13.56467
G1 X126.242 Y124.145 E13.61075
G1 X125.862 Y124.683 E13.65183
G1 X125.378 Y125.32 E13.70172
G1 X124.916 Y125.896 E13.74777
G1 X124.442 Y126.448 E13.79314
G1 X123.947 Y126.991 E13.83896
G1 X123.435 Y127.516 E13.8847
G1 X122.923 Y128.01 E13.92906
G1 X122.36 Y128.52 E13.97644
G1 X121.809 Y128.985 E14.0214
G1 X121.234 Y129.446 E14.06736
G1 X120.656 Y129.877 E14.11233
G1 X120.048 Y130.304 E14.15866
G1 X119.435 Y130.704 E14.20431
G1 X118.804 Y131.089 E14.2504
G1 X118.178 Y131.441 E14.29519
G1 X117.532 Y131.783 E14.34077
G1 X116.864 Y132.11 E14.38716
G1 X116.217 Y132.399 E14.43135
G1 X115.527 Y132.682 E14.47786
G1 X114.836 Y132.943 E14.52392
G1 X114.141 Y133.179 E14.56969
G1 X113.44 Y133.391 E14.61536
G1 X112.742 Y133.579 E14.66044
G1 X112.03 Y133.752 E14.70614
G1 X111.358 Y133.891 E14.74893
G1 X110.599 Y134.02 E14.79695
G1 X109.87 Y134.12 E14.84283
G1 X109.14 Y134.2 E14.88863
G1 X108.407 Y134.256 E14.93448
G1 X107.671 Y134.29 E14.98042
G1 X106.935 Y134.3 E15.02633
G1 X106.205 Y134.285 E15.07186
G1 X105.468 Y134.249 E15.11788
G1 X104.756 Y134.189 E15.16244
G1 X104.035 Y134.111 E15.20766
G1 X103.294 Y134.004 E15.25435
G1 X102.583 Y133.877 E15.2994
G1 X101.86 Y133.725 E15.34547
G1 X101.143 Y133.551 E15.39148
G1 X100.445 Y133.357 E15.43666
G1 X99.748 Y133.141 E15.48217
G1 X99.057 Y132.903 E15.52774
G1 X98.365 Y132.642 E15.57387
G1 X97.694 Y132.362 E15.61921
G1 X97.078 Y132.083 E15.66138
G1 X96.371 Y131.733 E15.71058
G1 X95.729 Y131.391 E15.75594
G1 X95.09 Y131.025 E15.80187
G1 X94.466 Y130.642 E15.84753
G1 X93.852 Y130.236 E15.89343
G1 X93.255 Y129.813 E15.93906
G1 X92.678 Y129.376 E15.9842
G1 X92.102 Y128.914 E16.03025
G1 X91.55 Y128.44 E16.07562
G1 X91.008 Y127.946 E16.12135
G1 X90.488 Y127.441 E16.16656
G1 X90.044 Y126.983 E16.20634
G1 X89.489 Y126.368 E16.258
G1 X89.014 Y125.81 E16.3037
G1 X88.555 Y125.235 E16.34958
G1 X88.125 Y124.658 E16.39446
G1 X87.697 Y124.05 E16.44083
G1 X87.296 Y123.436 E16.48656
G1 X86.912 Y122.806 E16.53257
G1 X86.559 Y122.178 E16.5775
G1 X86.218 Y121.534 E16.62294
G1 X85.891 Y120.866 E16.66933
G1 X85.603 Y120.221 E16.71338
G1 X85.319 Y119.53 E16.75997
G1 X85.058 Y118.836 E16.80621
G1 X84.827 Y118.153 E16.85117
G1 X84.612 Y117.459 E16.89648
G1 X84.416 Y116.74 E16.94295
G1 X84.252 Y116.052 E16.98706
G1 X84.115 Y115.39 E17.02922
G1 X83.979 Y114.586 E17.08007
G1 X83.88 Y113.87 E17.12515
G1 X83.8 Y113.14 E17.17095
G1 X83.744 Y112.408 E17.21673
G1 X83.71 Y111.677 E17.26237
G1 X83.7 Y110.942 E17.30821
G1 X83.715 Y110.218 E17.35337
G1 X83.75 Y109.477 E17.39963
G1 X83.811 Y108.755 E17.44482
G1 X83.891 Y108.032 E17.49018
G1 X83.995 Y107.296 E17.53653
G1 X84.122 Y106.582 E17.58176
G1 X84.259 Y105.921 E17.62386
G1 X84.445 Y105.153 E17.67314
G1 X84.635 Y104.466 E17.71759
G1 X84.857 Y103.751 E17.76428
G1 X85.096 Y103.059 E17.80993
G1 X85.358 Y102.365 E17.8562
G1 X85.637 Y101.698 E17.90128
G1 X85.931 Y101.049 E17.94572
G1 X86.246 Y100.41 E17.99015
G1 X86.61 Y99.724 E18.03858
G1 X86.973 Y99.092 E18.08403
G1 X87.353 Y98.473 E18.12932
G1 X87.758 Y97.855 E18.1754
G1 X88.138 Y97.317 E18.21648
G1 X88.622 Y96.68 E18.26637
G1 X89.084 Y96.104 E18.31242
G1 X89.558 Y95.552 E18.35779
G1 X90.053 Y95.009 E18.40361
G1 X90.565 Y94.484 E18.44935
G1 X91.077 Y93.99 E18.49371
G0 F1500 X91.494 Y94.422
G1 F300 X92.027 Y93.938 E18.53861
G1 X92.566 Y93.483 E18.5826
G1 X93.125 Y93.035 E18.62728
G1 X93.689 Y92.614 E18.67117
G1 X94.28 Y92.198 E18.71624
G1 X94.877 Y91.808 E18.76071
G1 X95.49 Y91.434 E18.80549
G1 X96.103 Y91.089 E18.84936
G1 X96.732 Y90.756 E18.89374
G1 X97.381 Y90.438 E18.93881
G1 X98.011 Y90.156 E18.98186
G1 X98.685 Y89.879 E19.0273
G1 X99.357 Y89.625 E19.0721
G1 X100.033 Y89.395 E19.11663
G1 X100.716 Y89.188 E19.16114
G1 X101.399 Y89.004 E19.20525
G1 X102.092 Y88.836 E19.24972
G1 X102.743 Y88.701 E19.29119
G1 X103.502 Y88.572 E19.3392
G1 X104.196 Y88.476 E19.38289
G1 X104.906 Y88.398 E19.42743
G1 X105.621 Y88.343 E19.47215
G1 X106.337 Y88.31 E19.51685
G1 X107.053 Y88.3 E19.56151
G1 X107.766 Y88.314 E19.60598
G1 X108.482 Y88.349 E19.65069
G1 X109.179 Y88.407 E19.6943
G1 X109.879 Y88.483 E19.73822
G1 X110.601 Y88.587 E19.78371
G1 X111.294 Y88.71 E19.8276
G1 X111.999 Y88.858 E19.87252
G1 X112.697 Y89.027 E19.91731
G1 X113.378 Y89.216 E19.96138
G1 X114.057 Y89.426 E20.00571
G1 X114.731 Y89.658 E20.05016
G1 X115.404 Y89.912 E20.09502
G1 X116.058 Y90.185 E20.13922
G1 X116.674 Y90.464 E20.18139
G1 X117.347 Y90.796 E20.22819
G1 X117.973 Y91.13 E20.27244
G1 X118.596 Y91.485 E20.31715
G1 X119.2 Y91.856 E20.36136
G1 X119.801 Y92.25 E20.40617
G1 X120.339 Y92.63 E20.44725
G1 X120.947 Y93.092 E20.49487
G1 X121.507 Y93.541 E20.53963
G1 X122.046 Y94.004 E20.58395
G1 X122.573 Y94.485 E20.62844
G1 X123.081 Y94.979 E20.67263
G1 X123.566 Y95.481 E20.71616
G1 X124.054 Y96.021 E20.76155
G1 X124.517 Y96.564 E20.80605
G1 X124.964 Y97.124 E20.85074
G1 X125.385 Y97.688 E20.89463
G1 X125.801 Y98.278 E20.93965
G1 X126.192 Y98.877 E20.98426
G1 X126.565 Y99.488 E21.0289
G1 X126.903 Y100.087 E21.07179
G1 X127.241 Y100.728 E21.11699
G1 X127.562 Y101.379 E21.16225
G1 X127.844 Y102.01 E21.20535
G1 X128.12 Y102.682 E21.25066
G1 X128.374 Y103.353 E21.2954
G1 X128.604 Y104.029 E21.33993
G1 X128.811 Y104.707 E21.38414
G1 X129 Y105.4 E21.42894
G1 X129.16 Y106.071 E21.47195
G1 X129.297 Y106.732 E21.51405
G1 X129.427 Y107.496 E21.56238
G1 X129.524 Y108.195 E21.60639
G1 X129.602 Y108.906 E21.651
G1 X129.657 Y109.619 E21.69559
G1 X129.69 Y110.331 E21.74004
G1 X129.7 Y111.046 E21.78464
G1 X129.686 Y111.749 E21.82849
G1 X129.653 Y112.473 E21.87368
G1 X129.593 Y113.179 E21.91787
G1 X129.515 Y113.884 E21.96211
G1 X129.414 Y114.599 E22.00714
G1 X129.29 Y115.296 E22.05129
G1 X129.153 Y115.957 E22.09338
G1 X128.977 Y116.687 E22.14021
G1 X128.792 Y117.356 E22.1835
G1 X128.576 Y118.053 E22.22901
G1 X128.343 Y118.729 E22.2736
G1 X128.089 Y119.403 E22.31852
G1 X127.816 Y120.054 E22.36254
G1 X127.522 Y120.703 E22.40697
G1 X127.224 Y121.309 E22.44909
G1 X126.87 Y121.977 E22.49623
G1 X126.516 Y122.594 E22.54059
G1 X126.145 Y123.198 E22.5848
G1 X125.751 Y123.799 E22.62961
G1 X125.384 Y124.32 E22.66936
G1 X124.91 Y124.945 E22.71828
G1 X124.461 Y125.505 E22.76304
G1 X123.998 Y126.044 E22.80735
G1 X123.517 Y126.572 E22.85189
G1 X123.018 Y127.084 E22.89648
G1 X122.506 Y127.578 E22.94085
G1 X121.973 Y128.062 E22.98575
G1 X121.434 Y128.517 E23.02973
G1 X120.875 Y128.965 E23.07441
G1 X120.311 Y129.386 E23.1183
